Su2050/forklift_sim/outputs/exp83_single_point_steer_diag/exp83_force_steering_guidance_v3_seed42_point_yneg0p1_yawpos4_normal_steps.csv
mode,step,done,root_x,root_y,root_yaw_deg,fork_center_x,fork_center_y,tip_x,tip_y,raw_drive,raw_steer,applied_drive,applied_steer,drive_target_rad_s,steer_target_rad,left_steer_joint_pos_rad,right_steer_joint_pos_rad,mean_steer_joint_pos_rad,root_y_signed_m,center_y_signed_m,tip_y_signed_m,yaw_err_signed_deg,yaw_err_abs_deg,d_traj_m,d_traj_signed_m,yaw_traj_signed_deg,traj_s_norm,traj_closest_idx,dist_front_m,insert_depth_m,pallet_disp_xy_m,hold_counter,inserted,push_free,hold_entry,clean_insert_ready,dirty_insert,success,policy_vx_r,policy_vy_r,policy_yaw_rate,policy_lift_pos,policy_lift_vel,policy_prev_drive,policy_prev_steer,policy_prev_lift,policy_y_err_obs,policy_yaw_err_obs,policy_d_traj_signed_obs,policy_yaw_traj_err_obs,steer_target_cmd,steer_target_abs,steer_guidance_gate,steer_enforce_gate,steer_penalty_gate,steer_match,steer_wrong_sign,steer_shortfall
normal,0,False,-3.5,-0.10000000149011612,3.9999995421277097,-2.2363834381103516,-0.011639337986707687,-1.6378450393676758,0.030214540660381317,nan,nan,nan,nan,nan,nan,0.0,0.0,0.0,-0.10000000149011612,-0.011639337986707687,0.030214540660381317,3.999999115240887,3.9999990463256836,0.0,0.0,-0.6593821402439468,0.0,0,0.5578449964523315,0.0,0.0,0.0,False,True,False,False,False,False,0.0,0.0,0.0,0.0,0.0,0.0,0.0,0.0,-0.125,0.26666659116744995,0.0,-0.04395880922675133,0.10246312618255615,0.10246312618255615,0.05522434413433075,0.0,0.0,0.8975368738174438,False,0.10246312618255615
normal,1,False,-3.4997637271881104,-0.10013671964406967,3.9852979868260805,-2.2361247539520264,-0.012100297957658768,-1.6375755071640015,0.029600001871585846,0.32822757959365845,0.2209405153989792,0.32822757959365845,0.2209405153989792,6.564551591873169,0.1325643092393875,0.029001086950302124,0.028757767751812935,0.028879426419734955,-0.10013671964406967,-0.012100291438400745,0.029600011184811592,3.9852979868260805,3.985297918319702,0.0005285845254547894,-0.0004804080235771835,-0.6740837489064291,0.0,0,0.5575753450393677,0.0,6.125415552560298e-08,0.0,False,True,False,False,False,False,-0.0010016008745878935,0.0006133565912023187,-0.010486179031431675,0.0,2.3885948394308798e-05,0.32822757959365845,0.2209405153989792,0.0,-0.12517090141773224,0.2656865417957306,-0.0013725943863391876,-0.044938914477825165,0.1012432798743248,0.1012432798743248,0.0539402961730957,0.0,0.0,0.8803027868270874,False,0.0
normal,2,False,-3.4991183280944824,-0.10032069683074951,3.96180939315723,-2.235443353652954,-0.012802310287952423,-1.6368770599365234,0.028652608394622803,0.35752496123313904,0.25561952590942383,0.35752496123313904,0.25561952590942383,7.150499224662781,0.1533717155456543,0.05868344008922577,0.058238185942173004,0.05846081301569939,-0.10032069683074951,-0.0128023037686944,0.02865261770784855,3.96180939315723,3.9618093967437744,0.0014954140642657876,-0.0012353858910501003,-0.6975723425752798,0.0,0,0.5568770170211792,0.0,6.125415552560298e-08,0.0,False,True,False,False,False,False,-0.0020175608806312084,0.0008162237936630845,-0.0141296973451972,0.0,1.168580729427049e-05,0.35752496123313904,0.25561952590942383,0.0,-0.1254008710384369,0.2641206383705139,-0.0035296741407364607,-0.04650482162833214,0.09932084381580353,0.09932084381580353,0.05191667750477791,0.0,0.0,0.8437013030052185,False,0.0
normal,3,False,-3.498737335205078,-0.10035353153944016,3.954828939825477,-2.2350516319274902,-0.0129891037940979,-1.6364803314208984,0.028392888605594635,0.36088085174560547,0.2596666216850281,0.36088085174560547,0.2596666216850281,7.217617034912109,0.15579997301101683,0.06550995260477066,0.07383136451244354,0.0696706622838974,-0.10035353153944016,-0.012989097274839878,0.02839289791882038,3.954828939825477,3.954828977584839,0.0018962002359330654,-0.001453363336622715,-0.7045527425461799,0.0,0,0.5564802885055542,0.0,6.125415552560298e-08,0.0,False,True,False,False,False,False,0.028054162859916687,0.0018844770966097713,-0.0011739985784515738,4.7211747187247965e-06,-0.002002211520448327,0.36088085174560547,0.2596666216850281,0.0,-0.12544190883636475,0.26365527510643005,-0.004152466543018818,-0.0469701811671257,0.09876546263694763,0.09876546263694763,0.05133206769824028,0.0,0.0,0.8390988111495972,False,0.0
normal,4,False,-3.4971609115600586,-0.10022802650928497,3.9512482131530975,-2.2334697246551514,-0.012942571192979813,-1.634895920753479,0.028402015566825867,0.3609634041786194,0.2598809003829956,0.3609634041786194,0.2598809003829956,7.219268083572388,0.15592854022979735,0.06555721163749695,0.09156516194343567,0.07856118679046631,-0.10022802650928497,-0.01294256467372179,0.028402024880051613,3.9512482131530975,3.9512481689453125,0.003191887168213725,-0.0015354787465184927,-0.7081334692185591,0.0,0,0.5548957586288452,0.0,6.125415552560298e-08,0.0,False,True,False,False,False,False,0.06066785007715225,0.0034494390711188316,-0.002038105158135295,4.9391201173420995e-06,-0.0014130487106740475,0.3609634041786194,0.2598809003829956,0.0,-0.12528502941131592,0.2634165585041046,-0.004387082066386938,-0.04720889776945114,0.09857761114835739,0.09857761114835739,0.05113432928919792,0.0,0.0,0.8386967182159424,False,0.0
normal,5,False,-3.4945249557495117,-0.10001631826162338,3.945188554698827,-2.2308244705200195,-0.012864522635936737,-1.6322463750839233,0.02841676026582718,0.3609580099582672,0.2599199414253235,0.3609580099582672,0.2599199414253235,7.219160199165344,0.15595196485519408,0.0656459704041481,0.10627688467502594,0.08596143126487732,-0.10001618415117264,-0.012864445336163044,0.028416810557246208,3.9451859933778883,3.945186138153076,0.005692380480468273,-0.0016725552268326283,-0.7141931810336827,0.0,0,0.5522463321685791,0.0,3.641417123390056e-08,0.0,False,True,False,False,False,False,0.09152960032224655,0.0028168102726340294,-0.004203157499432564,1.1904830898856744e-06,-0.002784190233796835,0.3609580099582672,0.2599199414253235,0.0,-0.12502023577690125,0.2630124092102051,-0.004778729286044836,-0.04761287942528725,0.09826036542654037,0.09826036542654037,0.0508003868162632,0.0,0.0,0.8383404016494751,False,0.0
normal,6,False,-3.490888833999634,-0.0997241958975792,3.9368621272137583,-2.227175712585449,-0.012756045907735825,-1.628591537475586,0.028438247740268707,0.36117443442344666,0.26005691289901733,0.36117443442344666,0.26005691289901733,7.223488688468933,0.1560341477394104,0.06576474756002426,0.11925950646400452,0.09251213073730469,-0.09972389787435532,-0.012755843810737133,0.028438406065106392,3.936857858345527,3.9368579387664795,0.003006823593750596,-0.0018011671490967274,-2.155157123014215,0.009893262758851051,1,0.5485917329788208,0.0,2.709583668547566e-07,0.0,False,True,False,False,False,False,0.12133385241031647,0.0037022409960627556,-0.005809888709336519,2.4175005819415674e-07,-0.0008224253542721272,0.36117443442344666,0.26005691289901733,0.0,-0.1246548742055893,0.2624571919441223,-0.005146191921085119,-0.14367714524269104,0.07398204505443573,0.07398204505443573,0.02524425834417343,0.0,0.0,0.8139251470565796,False,0.0
normal,7,False,-3.486363172531128,-0.09936200082302094,3.926625808082025,-2.2226345539093018,-0.012619618326425552,-1.6240429878234863,0.028467729687690735,0.36537542939186096,0.26557469367980957,0.36537542939186096,0.26557469367980957,7.307508587837219,0.15934481620788574,0.06620210409164429,0.1304449588060379,0.0983235314488411,-0.0993618443608284,-0.01261948887258768,0.028467847034335136,3.9266241005347324,3.926624059677124,0.003019471652805805,-0.0021474079694598913,-2.16539365558936,0.009893262758851051,1,0.5440431833267212,0.0,2.522081388178776e-07,0.0,False,True,False,False,False,False,0.14598560333251953,0.004267348907887936,-0.006785090547055006,7.950212079776975e-07,-0.0021608632523566484,0.36537542939186096,0.26557469367980957,0.0,-0.12420230358839035,0.2617749273777008,-0.006135451607406139,-0.14435957372188568,0.07338327169418335,0.07338327169418335,0.024613970890641212,0.0,0.0,0.8078085780143738,False,0.0
normal,8,False,-3.4812793731689453,-0.09893423318862915,3.9104267338048704,-2.217526435852051,-0.012549147009849548,-1.6189231872558594,0.028368964791297913,0.36595073342323303,0.2663315534591675,0.36595073342323303,0.2663315534591675,7.319014668464661,0.15979893207550047,0.06980156898498535,0.13726912438869476,0.10353534668684006,-0.09893403202295303,-0.012548992410302162,0.028369097039103508,3.9104241724839315,3.91042423248291,0.003718593157827854,-0.002549805212765932,-3.6724351954781227,0.018403952941298485,2,0.5389233827590942,0.0,2.779334522529098e-07,0.0,False,True,False,False,False,False,0.16776823997497559,0.012835386209189892,-0.011675011366605759,9.072475108951039e-07,-0.00041818912723101676,0.36595073342323303,0.2663315534591675,0.0,-0.12366753816604614,0.2606949508190155,-0.007285158149898052,-0.24482901394367218,0.047589633613824844,0.047589633613824844,0.0,0.0,0.0,0.7812581062316895,False,0.0
normal,9,False,-3.47532320022583,-0.09843897819519043,3.8923843622254584,-2.211543083190918,-0.012451853603124619,-1.6129270792007446,0.02827775478363037,0.37031805515289307,0.2719951272010803,0.37031805515289307,0.2719951272010803,7.406361103057861,0.1631970763206482,0.07660330832004547,0.14202864468097687,0.10931597650051117,-0.09843888133764267,-0.012451760470867157,0.028277842327952385,3.892383935338635,3.8923840522766113,0.004582502413541079,-0.0032428440172225237,-3.6904771401707115,0.018403952941298485,2,0.5329272747039795,0.0,2.505702525468223e-07,0.0,False,True,False,False,False,False,0.18193262815475464,0.009258108213543892,-0.00913725234568119,1.0548209417038379e-07,-7.114296749932691e-05,0.37031805515289307,0.2719951272010803,0.0,-0.12304860353469849,0.25949224829673767,-0.00926526915282011,-0.24603180587291718,0.04640639200806618,0.04640639200806618,0.0,0.0,0.0,0.7744112610816956,False,0.0
normal,10,False,-3.469041347503662,-0.09788044542074203,3.8577941498343984,-2.205209493637085,-0.012656286358833313,-1.6065689325332642,0.02771192044019699,0.3708268404006958,0.2725847661495209,0.3708268404006958,0.2725847661495209,7.416536808013916,0.16355085968971253,0.08915527909994125,0.14649415016174316,0.11782471835613251,-0.0978802815079689,-0.012656153179705143,0.027712039649486542,3.8577928691739287,3.857792854309082,0.004384757485240698,-0.004302955698221922,-5.1292372789268565,0.025786833837628365,3,0.526569128036499,0.0,2.8111364258620597e-07,0.0,False,True,False,False,False,False,0.19532647728919983,0.01990889012813568,-0.01902865432202816,8.710803740541451e-07,0.0017284742789343,0.3708268404006958,0.2725847661495209,0.0,-0.12235035002231598,0.2571861743927002,-0.012294159270823002,-0.34194913506507874,0.02066856622695923,0.02066856622695923,0.0,0.0,0.0,0.7480838298797607,False,0.0
normal,11,False,-3.4623165130615234,-0.09726834297180176,3.8266501947664326,-2.1984386444091797,-0.012731179594993591,-1.5997761487960815,0.027311623096466064,0.37476494908332825,0.2780779004096985,0.37476494908332825,0.2780779004096985,7.495298981666565,0.16684674024581908,0.10144234448671341,0.14774419367313385,0.12459327280521393,-0.09726820141077042,-0.012731056660413742,0.027311736717820168,3.826649340992786,3.8266494274139404,0.005435205064713955,-0.0054330769926309586,-6.2599405181897945,0.03229581564664841,4,0.5197763442993164,0.0,2.5452956720073416e-07,0.0,False,True,False,False,False,False,0.20672522485256195,0.006524323485791683,-0.01315136719495058,4.717257411357423e-07,0.0010622944682836533,0.37476494908332825,0.2780779004096985,0.0,-0.12158524990081787,0.255109965801239,-0.015523077920079231,-0.4173293709754944,0.0002013072371482849,0.0002013072371482849,0.0,0.0,0.0,0.722123384475708,False,0.0
normal,12,False,-3.455268383026123,-0.09663644433021545,3.7960355793591427,-2.191345453262329,-0.01277460902929306,-1.592661738395691,0.026948310434818268,0.3778524398803711,0.28221917152404785,0.3778524398803711,0.28221917152404785,7.557048797607422,0.1693315029144287,0.10695812106132507,0.15031564235687256,0.12863688170909882,-0.09663626551628113,-0.012774468399584293,0.026948431506752968,3.7960338718118503,3.7960338592529297,0.006719057913869619,-0.006717977579683065,-6.834565186836613,0.03818148374557495,5,0.5126619338989258,0.0,2.780449221972958e-07,0.0,False,True,False,False,False,False,0.21711286902427673,0.012267918325960636,-0.014907140284776688,1.0232582781100064e-06,-0.0007006790256127715,0.3778524398803711,0.28221917152404785,0.0,-0.12079533189535141,0.2530689239501953,-0.01919422298669815,-0.455637663602829,-0.01105288416147232,0.01105288416147232,0.0,0.0,0.0,0.7067279815673828,True,0.2932720482349396
normal,13,False,-3.447953939437866,-0.09599161148071289,3.7636903647709015,-2.18398380279541,-0.012843310832977295,-1.585277795791626,0.026541627943515778,0.3797151446342468,0.28466495871543884,0.3797151446342468,0.28466495871543884,7.5943028926849365,0.1707989752292633,0.11189921200275421,0.15230421721935272,0.13210171461105347,-0.09599146991968155,-0.012843185104429722,0.02654174529016018,3.763689510997255,3.7636895179748535,0.008186654187738895,-0.00814028736203909,-6.66241411078785,0.043690603226423264,6,0.5052779912948608,0.0,2.552171451952745e-07,0.0,False,True,False,False,False,False,0.2241055965423584,0.015016907826066017,-0.015767032280564308,0.0,-6.484596815425903e-05,0.3797151446342468,0.28466495871543884,0.0,-0.11998933553695679,0.2509126365184784,-0.023257965222001076,-0.44416093826293945,-0.010005436837673187,0.010005436837673187,0.0,0.0,0.0,0.7053295969963074,True,0.2946704030036926
normal,14,False,-3.440338134765625,-0.09539388120174408,3.7287996240563603,-2.1763176918029785,-0.01301531121134758,-1.5775877237319946,0.026005029678344727,0.37954825162887573,0.2844220995903015,0.37954825162887573,0.2844220995903015,7.590965032577515,0.1706532597541809,0.1171109676361084,0.1564406007528305,0.13677579164505005,-0.09539371728897095,-0.013015183620154858,0.02600513957440853,3.7287974896222447,3.728797435760498,0.009931908920407295,-0.009658604860305786,-5.720184819029537,0.04906890541315079,7,0.4975879192352295,0.0,2.7484847464620543e-07,0.0,False,True,False,False,False,False,0.22937321662902832,0.04384823143482208,-0.026448873803019524,9.37122695177095e-06,-0.005019311793148518,0.37954825162887573,0.2844220995903015,0.0,-0.11924214661121368,0.2485864907503128,-0.027596013620495796,-0.3813456594944,0.003687262535095215,0.003687262535095215,0.0,0.0,0.0,0.7192651629447937,False,0.0
normal,15,False,-3.43255352973938,-0.09467999637126923,3.6912758454167798,-2.1684792041778564,-0.013129256665706635,-1.5697239637374878,0.02549896389245987,0.3778613805770874,0.2819790542125702,0.3778613805770874,0.2819790542125702,7.557227611541748,0.16918743252754212,0.12176365405321121,0.15758736431598663,0.13967551290988922,-0.09467991441488266,-0.013129162602126598,0.02549906261265278,3.691276272303603,3.6912763118743896,0.011308624409139156,-0.011039644479751587,-2.2756408061995934,0.06041956692934036,9,0.48972415924072266,0.0,2.65319272330089e-07,0.0,False,True,False,False,False,False,0.2377888262271881,0.009488486684858799,-0.017357895150780678,1.2507267683758982e-06,0.002933535724878311,0.3778613805770874,0.2819790542125702,0.0,-0.11834989488124847,0.24608507752418518,-0.031541842967271805,-0.1517093926668167,0.05911741033196449,0.05911741033196449,0.009597273543477058,0.0,0.0,0.777138352394104,False,0.0
normal,16,False,-3.424588680267334,-0.0939747616648674,3.6517004487052565,-2.160458564758301,-0.013297166675329208,-1.5616766214370728,0.024917468428611755,0.36832141876220703,0.26920947432518005,0.36832141876220703,0.26920947432518005,7.366428375244141,0.16152568459510802,0.12653954327106476,0.15839488804340363,0.1424672156572342,-0.09397484362125397,-0.013297202065587044,0.02491745539009571,3.651702583139372,3.651702642440796,0.012203504331409931,-0.01210061926394701,-0.37386064950440295,0.06689568608999252,10,0.48167693614959717,0.0,3.023760086762195e-07,0.0,False,True,False,False,False,False,0.24355514347553253,0.02187042124569416,-0.023433154448866844,4.34190769738052e-06,-0.002592759905382991,0.36832141876220703,0.26920947432518005,0.0,-0.11746855080127716,0.24344684183597565,-0.03457319736480713,-0.02492404356598854,0.08892575651407242,0.08892575651407242,0.04097448289394379,0.0,0.0,0.8197162747383118,False,0.0
normal,17,False,-3.416151285171509,-0.09319079667329788,3.611394648639365,-2.1519646644592285,-0.013402506709098816,-1.5531561374664307,0.024390891194343567,0.3623645603656769,0.2614133954048157,0.3623645603656769,0.2614133954048157,7.247291207313538,0.1568480372428894,0.13004399836063385,0.15905317664146423,0.14454859495162964,-0.09319081902503967,-0.013402480632066727,0.024390939623117447,3.6113967830734808,3.6113967895507812,0.012904646806418896,-0.012846319004893303,1.3793223384948134,0.07424842566251755,11,0.4731563329696655,0.0,2.6036056510747585e-07,0.0,False,True,False,False,False,False,0.2469591349363327,0.027596930041909218,-0.025373291224241257,0.00021834530343767256,-0.009410209953784943,0.3623645603656769,0.2614133954048157,0.0,-0.11648852378129959,0.24075978994369507,-0.036703769117593765,0.09195481985807419,0.1164509654045105,0.1164509654045105,0.06994839012622833,0.0,0.0,0.8550375699996948,False,0.0
normal,18,False,-3.408242702484131,-0.09262546896934509,3.566743140714053,-2.1439943313598633,-0.013822395354509354,-1.5451563596725464,0.023504331707954407,0.3569509983062744,0.2542097866535187,0.3569509983062744,0.2542097866535187,7.139019966125488,0.1525258719921112,0.13218946754932404,0.1595626175403595,0.14587604999542236,-0.09262537211179733,-0.01382230781018734,0.023504413664340973,3.5667425003838185,3.5667426586151123,0.013924073427915573,-0.013655262999236584,2.8912705155285843,0.08273706585168839,12,0.46515655517578125,0.0,2.7648056288853695e-07,0.0,False,True,False,False,False,False,0.2511579990386963,0.028847843408584595,-0.02321779914200306,1.907626590025302e-08,7.45868164813146e-05,0.3569509983062744,0.2542097866535187,0.0,-0.11578171700239182,0.23778283596038818,-0.039015039801597595,0.19275136291980743,0.13961206376552582,0.13961206376552582,0.09432849287986755,0.0,0.0,0.885402262210846,False,0.0
normal,19,False,-3.399843215942383,-0.0918949693441391,3.5252785563667866,-2.135538101196289,-0.014006853103637695,-1.5366733074188232,0.0228864923119545,0.3515501618385315,0.24723966419696808,0.3515501618385315,0.24723966419696808,7.03100323677063,0.14834379851818083,0.13418719172477722,0.1601768583059311,0.14718201756477356,-0.09189486503601074,-0.014006764627993107,0.022886574268341064,3.525277916036552,3.525277853012085,0.015061913058161736,0.0,3.5252785563667866,0.09262263029813766,13,0.4566735029220581,0.0,3.0505341896969185e-07,0.0,False,True,False,False,False,False,0.25390157103538513,0.023072652518749237,-0.019808627665042877,1.964568127732491e-06,0.00023011508164927363,0.3515501618385315,0.24723966419696808,0.0,-0.11486858129501343,0.2350185215473175,0.0,0.2350185662508011,0.1566341668367386,0.1566341668367386,0.11224649846553802,0.0,0.0,0.9093945026397705,False,0.0
normal,20,False,-3.3912298679351807,-0.09117384254932404,3.4824050320597935,-2.1268668174743652,-0.01423180103302002,-1.5279746055603027,0.022213414311408997,0.34917518496513367,0.24411393702030182,0.34917518496513367,0.24411393702030182,6.983503699302673,0.1464683622121811,0.1351318508386612,0.16003936529159546,0.14758560061454773,-0.0911739245057106,-0.014231829904019833,0.022213412448763847,3.482407593380732,3.482407569885254,0.014572636224329472,-0.0,3.4824050320597935,0.09262263029813766,13,0.4479748010635376,0.0,1.9090890646111802e-07,0.0,False,True,False,False,False,False,0.2556805908679962,0.030065501108765602,-0.025393035262823105,0.0001555573398945853,-0.002972368150949478,0.34917518496513367,0.24411393702030182,0.0,-0.1139674037694931,0.2321605086326599,-0.0,0.23216032981872559,0.15450690686702728,0.15450690686702728,0.11000727862119675,0.0,0.0,0.9103929996490479,False,0.0
normal,21,False,-3.382936954498291,-0.09046753495931625,3.439453174020757,-2.118516445159912,-0.01447334885597229,-1.5195972919464111,0.021522894501686096,0.34948450326919556,0.24447384476661682,0.34948450326919556,0.24447384476661682,6.989690065383911,0.14668430685997008,0.13600564002990723,0.16032470762729645,0.14816516637802124,-0.09046777337789536,-0.014473456889390945,0.021522847935557365,3.439459363879692,3.4394593238830566,0.0184757262468338,-0.0,3.439453387464168,0.09262263029813766,13,0.439597487449646,0.0,2.923307249602658e-07,0.0,False,True,False,False,False,False,0.25807976722717285,0.022517506033182144,-0.02404339797794819,1.4476046089839656e-05,-0.003719161031767726,0.34948450326919556,0.24447384476661682,0.0,-0.11308471858501434,0.22929729521274567,-0.0,0.22929689288139343,0.15236669778823853,0.15236669778823853,0.1077544242143631,0.0,0.0,0.9078928232192993,False,0.0
normal,22,False,-3.3745205402374268,-0.08976567536592484,3.398336929321161,-2.110045909881592,-0.014678873121738434,-1.5111010074615479,0.020887568593025208,0.3495950698852539,0.24461856484413147,0.3495950698852539,0.24461856484413147,6.991901397705078,0.1467711389064789,0.13673891127109528,0.16001175343990326,0.14837533235549927,-0.08976595848798752,-0.0146790137514472,0.020887495949864388,3.3983433326235075,3.398343324661255,0.02477174997329712,-0.0,3.3983371427645723,0.09262263029813766,13,0.4311012029647827,0.0,2.865018586817314e-07,0.0,False,True,False,False,False,False,0.26120057702064514,0.02161445841193199,-0.019497156143188477,0.0,-0.002328482922166586,0.3495950698852539,0.24461856484413147,0.0,-0.11220744997262955,0.2265562266111374,-0.0,0.22655580937862396,0.15033231675624847,0.15033231675624847,0.10561297088861465,0.0,0.0,0.9057137370109558,False,0.0
normal,23,False,-3.36574125289917,-0.08929907530546188,3.340913181091336,-2.101191997528076,-0.015479609370231628,-1.5022118091583252,0.019486531615257263,0.34970352053642273,0.24478894472122192,0.34970352053642273,0.24478894472122192,6.994070410728455,0.14687336683273314,0.13768166303634644,0.16079117357730865,0.14923641085624695,-0.08929900825023651,-0.015479540452361107,0.019486604258418083,3.3409136079781594,3.3409135341644287,0.03270360827445984,-0.0,3.340913394534748,0.09262263029813766,13,0.42221200466156006,0.0,3.083605122355948e-07,0.0,False,True,False,False,False,False,0.26080918312072754,0.020993541926145554,-0.02403205819427967,3.2331292459275573e-05,-0.0022759961429983377,0.34970352053642273,0.24478894472122192,0.0,-0.11162376403808594,0.22272756695747375,-0.0,0.22272755205631256,0.1472020447254181,0.1472020447254181,0.10231795161962509,0.0,0.0,0.9024131298065186,False,0.0
normal,24,False,-3.357072353363037,-0.08857493102550507,3.297584168544068,-2.092467784881592,-0.01571178436279297,-1.4934611320495605,0.018801376223564148,0.35008755326271057,0.24527230858802795,0.35008755326271057,0.24527230858802795,7.001751065254211,0.14716338515281677,0.13875433802604675,0.16039474308490753,0.14957454800605774,-0.08857487887144089,-0.015711722895503044,0.018801439553499222,3.2975843819874795,3.2975845336914062,0.04068828001618385,-0.0,3.297584168544068,0.09262263029813766,13,0.4134613275527954,0.0,2.7732281182579754e-07,0.0,False,True,False,False,False,False,0.2626020312309265,0.024239372462034225,-0.02492297627031803,3.16318437398877e-05,-0.001770610804669559,0.35008755326271057,0.24527230858802795,0.0,-0.11071860045194626,0.2198389619588852,-0.0,0.219838947057724,0.14504942297935486,0.14504942297935486,0.10005202889442444,0.0,0.0,0.8997771143913269,False,0.0
normal,25,False,-3.34845232963562,-0.08807525038719177,3.2489463914644072,-2.0837862491607666,-0.01628563553094864,-1.4847506284713745,0.017719022929668427,0.3504844903945923,0.2457808554172516,0.3504844903945923,0.2457808554172516,7.009689807891846,0.14746851325035096,0.1397065818309784,0.1590568572282791,0.14938172698020935,-0.08807538449764252,-0.01628567837178707,0.017719022929668427,3.2489504468892267,3.248950481414795,0.04899941757321358,-0.0,3.2489463914644072,0.09262263029813766,13,0.4047508239746094,0.0,2.3392757952933607e-07,0.0,False,True,False,False,False,False,0.2626274824142456,0.013616473414003849,-0.0501038134098053,0.0,0.012469286099076271,0.3504844903945923,0.2457808554172516,0.0,-0.11009423434734344,0.21659669280052185,-0.0,0.21659642457962036,0.14245691895484924,0.14245691895484924,0.09732308238744736,0.0,0.0,0.8966760635375977,False,0.0
normal,26,False,-3.3395888805389404,-0.08737451583147049,3.207420762301434,-2.074871063232422,-0.016501497477293015,-1.4758108854293823,0.017068997025489807,0.35076653957366943,0.24618485569953918,0.35076653957366943,0.24618485569953918,7.015330791473389,0.1477109134197235,0.14094915986061096,0.15847107768058777,0.14971011877059937,-0.08737446367740631,-0.01650143228471279,0.017069069668650627,3.2074214026316685,3.2074215412139893,0.0575457364320755,-0.0,3.207420762301434,0.09262263029813766,13,0.39581120014190674,0.0,3.398309047497605e-07,0.0,False,True,False,False,False,False,0.26329296827316284,0.01691298931837082,-0.02320913039147854,9.406291792402044e-05,-0.005508847068995237,0.35076653957366943,0.24618485569953918,0.0,-0.10921807587146759,0.21382808685302734,-0.0,0.21382804214954376,0.1403975933790207,0.1403975933790207,0.09515536576509476,0.0,0.0,0.8942127227783203,False,0.0
normal,27,False,-3.3310129642486572,-0.08668273687362671,3.1633967780061165,-2.0662410259246826,-0.016781501471996307,-1.4671553373336792,0.016328684985637665,0.3509247601032257,0.24633188545703888,0.3509247601032257,0.24633188545703888,7.018495202064514,0.1477991312742233,0.14159207046031952,0.15894988179206848,0.1502709686756134,-0.08668287098407745,-0.01678154431283474,0.016328684985637665,3.163400833430936,3.163400888442993,0.0659305676817894,-0.0,3.1633967780061165,0.09262263029813766,13,0.38715553283691406,0.0,2.32907368058477e-07,0.0,False,True,False,False,False,False,0.2648402154445648,0.025893617421388626,-0.02259637415409088,6.687841050734278e-06,0.00022015604190528393,0.3509247601032257,0.24633188545703888,0.0,-0.10835358500480652,0.2108933925628662,-0.0,0.21089310944080353,0.13818567991256714,0.13818567991256714,0.09282703697681427,0.0,0.0,0.8918538093566895,False,0.0
normal,28,False,-3.3220739364624023,-0.08593742549419403,3.11766439264465,-2.057246685028076,-0.017045732587575912,-1.458134651184082,0.015586264431476593,0.3510918915271759,0.2466447651386261,0.3510918915271759,0.2466447651386261,7.021837830543518,0.14798685908317566,0.14243470132350922,0.15943820774555206,0.15093645453453064,-0.08593737334012985,-0.01704566739499569,0.015586336143314838,3.1176650329748847,3.1176650524139404,0.07472361624240875,-0.0,3.11766439264465,0.09262263029813766,13,0.37813496589660645,0.0,3.392298992821452e-07,0.0,False,True,False,False,False,False,0.2659492790699005,0.01741030439734459,-0.024669764563441277,0.00012889273057226092,-0.0029364454094320536,0.3510918915271759,0.2466447651386261,0.0,-0.10742171853780746,0.2078443318605423,-0.0,0.20784428715705872,0.13590282201766968,0.13590282201766968,0.09042403101921082,0.0,0.0,0.8892580270767212,False,0.0
normal,29,False,-3.313359260559082,-0.08524767309427261,3.082930319394196,-2.048490524291992,-0.017122764140367508,-1.4493588209152222,0.015146031975746155,0.3514007329940796,0.24705787003040314,0.3514007329940796,0.24705787003040314,7.028014659881592,0.14823472201824187,0.14484848082065582,0.15915711224079132,0.15200279653072357,-0.08524780720472336,-0.01712281070649624,0.015146027319133282,3.082934374819016,3.0829343795776367,0.08328866958618164,-0.0,3.082930319394196,0.09262263029813766,13,0.36935901641845703,0.0,2.3016173145151697e-07,0.0,False,True,False,False,False,False,0.2718711197376251,0.017897361889481544,-0.019569067284464836,9.312882411904866e-07,0.00010923731315415353,0.3514007329940796,0.24705787003040314,0.0,-0.10655976086854935,0.20552895963191986,-0.0,0.20552869141101837,0.1342386156320572,0.1342386156320572,0.08867223560810089,0.0,0.0,0.887180745601654,False,0.0
normal,30,False,-3.3042378425598145,-0.08456102013587952,3.0304183309512576,-2.039307117462158,-0.017595399171113968,-1.4401460886001587,0.014124274253845215,0.3514712452888489,0.2470606416463852,0.3514712452888489,0.2470606416463852,7.0294249057769775,0.14823638498783112,0.1446661651134491,0.15905235707759857,0.15185925364494324,-0.08456107974052429,-0.017595404759049416,0.014124291948974133,3.030420465385373,3.0304205417633057,0.0861235186457634,-0.01759529858827591,3.0304181175078457,0.24385200440883636,15,0.36014628410339355,0.0,2.503552423149813e-07,0.0,False,True,False,False,False,False,0.27227142453193665,0.02540702372789383,-0.027018500491976738,0.00012626459647435695,-0.0031502065248787403,0.3514712452888489,0.2470606416463852,0.0,-0.10570134967565536,0.2020280361175537,-0.05027228221297264,0.20202787220478058,0.1214677095413208,0.1214677095413208,0.07522917538881302,0.0,0.0,0.8744070529937744,False,0.0
normal,31,False,-3.295466899871826,-0.08387412875890732,2.9855830482485897,-2.030484199523926,-0.01789836212992668,-1.4312984943389893,0.013352446258068085,0.35171931982040405,0.24746066331863403,0.35171931982040405,0.24746066331863403,7.034386396408081,0.14847639799118043,0.1454949676990509,0.15885929763317108,0.1521771252155304,-0.08387425541877747,-0.017898403108119965,0.013352448120713234,2.985587103673409,2.9855871200561523,0.07757700234651566,-0.017898259684443474,2.9855830482485897,0.24385200440883636,15,0.3512986898422241,0.0,2.3184614406090986e-07,0.0,False,True,False,False,False,False,0.2715890109539032,0.02680244669318199,-0.025621820241212845,3.1900528938422212e-06,-0.00378678971901536,0.35171931982040405,0.24746066331863403,0.0,-0.10484281927347183,0.19903913140296936,-0.05113788694143295,0.19903886318206787,0.11903189867734909,0.11903189867734909,0.07266515493392944,0.0,0.0,0.8715712428092957,False,0.0
normal,32,False,-3.2863049507141113,-0.08317816257476807,2.9376876273543444,-2.0212676525115967,-0.01825985498726368,-1.4220560789108276,0.012490063905715942,0.3519999086856842,0.24787157773971558,0.3519999086856842,0.24787157773971558,7.039998173713684,0.14872294664382935,0.1458461582660675,0.159566730260849,0.15270644426345825,-0.08317826688289642,-0.018259897828102112,0.012490050867199898,2.9376904021186947,2.937690496444702,0.0687372013926506,-0.018259750679135323,2.9376878407977562,0.24385200440883636,15,0.34205639362335205,0.0,3.0263763051152637e-07,0.0,False,True,False,False,False,False,0.2730531096458435,0.028250301256775856,-0.02557000331580639,3.0123354008537717e-05,-0.003768878523260355,0.3519999086856842,0.24787157773971558,0.0,-0.10397283732891083,0.19584602117538452,-0.05217071622610092,0.1958458572626114,0.11638683080673218,0.11638683080673218,0.0698808804154396,0.052957333624362946,0.003700705012306571,0.8685152530670166,False,0.0
normal,33,False,-3.277459144592285,-0.08251147717237473,2.8915981511653333,-2.0123698711395264,-0.01861080527305603,-1.4131337404251099,0.011657088994979858,0.35217976570129395,0.24829743802547455,0.35217976570129395,0.24829743802547455,7.043595314025879,0.14897846281528473,0.14665824174880981,0.15958388149738312,0.15312105417251587,-0.08251142501831055,-0.018610747531056404,0.011657150462269783,2.8915983646087446,2.8915984630584717,0.060312896966934204,-0.018610699102282524,2.8915981511653333,0.24385200440883636,15,0.3331339359283447,0.0,2.765956992334395e-07,0.0,False,True,False,False,False,False,0.27458682656288147,0.022719353437423706,-0.027181139215826988,2.5352298962388886e-06,-0.0021719818469136953,0.35217976570129395,0.24829743802547455,0.0,-0.10313928127288818,0.1927732229232788,-0.053173426538705826,0.19277320802211761,0.11383801698684692,0.11383801698684692,0.06719791889190674,0.11244038492441177,0.0075557599775493145,0.8655405640602112,False,0.0
normal,34,False,-3.2683966159820557,-0.08182944357395172,2.8435522526659365,-2.0032541751861572,-0.018989643082022667,-1.403993010520935,0.010775744915008545,0.3523290455341339,0.2484910637140274,0.3523290455341339,0.2484910637140274,7.046580910682678,0.14909463822841643,0.14722281694412231,0.1597241759300232,0.15347349643707275,-0.08182939141988754,-0.018989572301506996,0.010775821283459663,2.843552892996171,2.843552827835083,0.051856111735105515,-0.01898953504860401,2.8435522526659365,0.24385200440883636,15,0.3239932060241699,0.0,2.5574266260264267e-07,0.0,False,True,False,False,False,False,0.2738795280456543,0.017298974096775055,-0.026132645085453987,2.53044959208637e-06,-0.00041181629057973623,0.3523290455341339,0.2484910637140274,0.0,-0.10228674113750458,0.18957018852233887,-0.05425581708550453,0.18957014381885529,0.11116631329059601,0.11116631329059601,0.06438559293746948,0.173378586769104,0.011163082905113697,0.8626752495765686,False,0.0
normal,35,False,-3.2590365409851074,-0.0811726450920105,2.7919401416461467,-1.9938380718231201,-0.0194725189357996,-1.3945503234863281,0.009753040969371796,0.3525092303752899,0.24878884851932526,0.3525092303752899,0.24878884851932526,7.050184607505798,0.14927330911159514,0.14797824621200562,0.16045479476451874,0.15421652793884277,-0.08117262274026871,-0.019472481682896614,0.009753082878887653,2.7919407819763813,2.791940927505493,0.04344608262181282,-0.019472407177090645,2.7919401416461467,0.24385200440883636,15,0.31455039978027344,0.0,1.5911719231098687e-07,0.0,False,True,False,False,False,False,0.2721555531024933,0.030388202518224716,-0.02469349466264248,0.00027806611615233123,-0.014678890816867352,0.3525092303752899,0.24878884851932526,0.0,-0.10146577656269073,0.1861293911933899,-0.055635448545217514,0.1861293464899063,0.10821020603179932,0.10821020603179932,0.06127390265464783,0.23633062839508057,0.014480900019407272,0.8594213724136353,False,0.0
normal,36,False,-3.250258684158325,-0.08050736039876938,2.745539038076253,-1.9850106239318848,-0.019831879064440727,-1.3856992721557617,0.008908338844776154,0.35320422053337097,0.24957966804504395,0.35320422053337097,0.24957966804504395,7.064084410667419,0.14974780082702635,0.1480943113565445,0.16107244789600372,0.1545833796262741,-0.08050752431154251,-0.019831949844956398,0.008908312767744064,2.7455433069444846,2.7455432415008545,0.0359712578356266,-0.019831765443086624,2.745539038076253,0.24385200440883636,15,0.3056994676589966,0.0,2.2321775361433538e-07,0.0,False,True,False,False,False,False,0.27353164553642273,0.02752571366727352,-0.025931647047400475,4.125931241105718e-07,0.00020488917652983218,0.35320422053337097,0.24957966804504395,0.0,-0.10063440352678299,0.1830362230539322,-0.0566621869802475,0.1830359399318695,0.10563737154006958,0.10563737154006958,0.058565653860569,0.29533684253692627,0.017296595498919487,0.8560577034950256,False,0.0
normal,37,False,-3.241180658340454,-0.07984190434217453,2.6981712492953918,-1.975882887840271,-0.02021244913339615,-1.3765480518341064,0.008032292127609253,0.3533317744731903,0.24959702789783478,0.3533317744731903,0.24959702789783478,7.066635489463806,0.14975821673870085,0.14792972803115845,0.16102516651153564,0.15447744727134705,-0.07984187453985214,-0.02021239884197712,0.008032349869608879,2.6981718896256264,2.698171854019165,0.0290625412017107,-0.020212333649396896,2.6981712492953918,0.24385200440883636,15,0.2965482473373413,0.0,3.0746736001674435e-07,0.0,False,True,False,False,False,False,0.2746078670024872,0.022531911730766296,-0.02527174912393093,3.1248255538685044e-08,6.624514935538173e-05,0.3533317744731903,0.24959702789783478,0.0,-0.09980234503746033,0.1798781305551529,-0.05774952471256256,0.1798780858516693,0.10299529880285263,0.10299529880285263,0.05578452721238136,0.35634496808052063,0.019878536462783813,0.8533982634544373,False,0.0
normal,38,False,-3.232144355773926,-0.0791967585682869,2.649035722179966,-1.9667959213256836,-0.020652415230870247,-1.3674370050430298,0.007078342139720917,0.35337406396865845,0.24989227950572968,0.35337406396865845,0.24989227950572968,7.067481279373169,0.1499353677034378,0.14886215329170227,0.16191060841083527,0.15538638830184937,-0.07919670641422272,-0.02065235748887062,0.007078402675688267,2.649035935623378,2.649035930633545,0.02378365397453308,-0.020652297884225845,2.649035722179966,0.24385200440883636,15,0.28743720054626465,0.0,2.765935107618134e-07,0.0,False,True,False,False,False,False,0.2741481363773346,0.02690015360713005,-0.025532905012369156,3.5647292406792985e-06,0.0016998194623738527,0.35337406396865845,0.24989227950572968,0.0,-0.0989958792924881,0.17660239338874817,-0.05900656804442406,0.17660237848758698,0.10020340234041214,0.10020340234041214,0.05284568667411804,0.41708528995513916,0.022041158750653267,0.8503111600875854,False,0.0
normal,39,False,-3.2230520248413086,-0.07854655385017395,2.599330301155668,-1.957653284072876,-0.021099956706166267,-1.3582706451416016,0.006110832095146179,0.353695809841156,0.25018519163131714,0.353695809841156,0.25018519163131714,7.07391619682312,0.1501111149787903,0.14920388162136078,0.16181565821170807,0.15550976991653442,-0.07854670286178589,-0.021100005134940147,0.006110830698162317,2.599334783467311,2.599334716796875,0.02126610465347767,-0.021099835634231567,2.599330301155668,0.24385200440883636,15,0.2782708406448364,0.0,2.3430560247561516e-07,0.0,False,True,False,False,False,False,0.2703951895236969,0.044199902564287186,-0.04304026439785957,1.2963228073203936e-05,-0.015269119292497635,0.353695809841156,0.25018519163131714,0.0,-0.09818337857723236,0.1732889860868454,-0.06028524786233902,0.17328868806362152,0.09737640619277954,0.09737640619277954,0.049869902431964874,0.47819435596466064,0.023847505450248718,0.8471912145614624,False,0.0
normal,40,False,-3.2140400409698486,-0.0779159739613533,2.5531411468934566,-1.948595404624939,-0.021489499136805534,-1.3491909503936768,0.005238085985183716,0.3547859489917755,0.25158536434173584,0.3547859489917755,0.25158536434173584,7.09571897983551,0.1509512186050415,0.15028946101665497,0.16191671788692474,0.15610308945178986,-0.07791605591773987,-0.021489521488547325,0.0052380939014256,2.553143921657807,2.5531439781188965,0.0224236361682415,-0.021489376202225685,2.5531411468934566,0.24385200440883636,15,0.2691911458969116,0.0,2.4998652747854067e-07,0.0,False,True,False,False,False,False,0.26910558342933655,0.04008644446730614,-0.05250804126262665,8.401072477681737e-07,0.0017355158925056458,0.3547859489917755,0.25158536434173584,0.0,-0.09739506989717484,0.1702095866203308,-0.0613982193171978,0.17020940780639648,0.09477916359901428,0.09477916359901428,0.047135964035987854,0.5387256145477295,0.025393351912498474,0.843193769454956,False,0.0
normal,41,False,-3.2049648761749268,-0.07728899270296097,2.503527933422953,-1.9394718408584595,-0.021958306431770325,-1.3400444984436035,0.004250235855579376,0.3549817204475403,0.2518591284751892,0.3549817204475403,0.2518591284751892,7.099634408950806,0.15111547708511353,0.15043611824512482,0.16278263926506042,0.15660938620567322,-0.07728909701108932,-0.021958330646157265,0.0042502498254179955,2.50353156196095,2.5035316944122314,0.026894161477684975,-0.021958181634545326,2.503527933422953,0.24385200440883636,15,0.2600446939468384,0.0,2.3121053516206302e-07,0.0,False,True,False,False,False,False,0.27438637614250183,0.02534349635243416,-0.02674739621579647,4.740782060252968e-06,-0.0008950789924710989,0.3549817204475403,0.2518591284751892,0.0,-0.0966113731265068,0.1669021099805832,-0.06273766607046127,0.1669018566608429,0.09193232655525208,0.09193232655525208,0.04413929209113121,0.599702000617981,0.026470420882105827,0.8400732278823853,False,0.0
normal,42,False,-3.195934772491455,-0.07670077681541443,2.452436624327377,-1.930392861366272,-0.022498564794659615,-1.3309423923492432,0.0031754523515701294,0.35457348823547363,0.2513654828071594,0.35457348823547363,0.2513654828071594,7.091469764709473,0.15081928968429564,0.15129825472831726,0.16329286992549896,0.15729555487632751,-0.07670073211193085,-0.02249850519001484,0.003175519872456789,2.4524372646576116,2.452437400817871,0.033342234790325165,-0.022498436272144318,2.452436624327377,0.24385200440883636,15,0.2509427070617676,0.0,3.3811372190939437e-07,0.0,False,True,False,False,False,False,0.27523064613342285,0.024068612605333328,-0.02640698291361332,0.0,0.000280210399068892,0.35457348823547363,0.2513654828071594,0.0,-0.09587591886520386,0.16349580883979797,-0.06428124755620956,0.16349577903747559,0.08893540501594543,0.08893540501594543,0.040984638035297394,0.6603819131851196,0.027065513655543327,0.8375699520111084,False,0.0
normal,43,False,-3.1869711875915527,-0.07609062641859055,2.402073797595465,-1.921382188796997,-0.023000840097665787,-1.3219093084335327,0.0021462514996528625,0.3547036051750183,0.2515605390071869,0.3547036051750183,0.2515605390071869,7.094072103500366,0.15093632340431212,0.15189391374588013,0.16367892920970917,0.15778642892837524,-0.0760907456278801,-0.023000873625278473,0.0021462596487253904,2.4020780664636963,2.402078151702881,0.04073336347937584,-0.02300070784986019,2.4020740110388763,0.24385200440883636,15,0.24190950393676758,0.0,2.3200786358756886e-07,0.0,False,True,False,False,False,False,0.27509304881095886,0.026021813973784447,-0.028852272778749466,2.1758432922069915e-06,-0.0002636736899148673,0.3547036051750183,0.2515605390071869,0.0,-0.09511343389749527,0.16013853251934052,-0.06571631133556366,0.16013826429843903,0.08601564168930054,0.08601564168930054,0.037911202758550644,0.7206032276153564,0.027318935841321945,0.834455132484436,False,0.0
normal,44,False,-3.177414894104004,-0.07560795545578003,2.3434607426764122,-1.9117722511291504,-0.023812882602214813,-1.3122739791870117,0.0007209405303001404,0.35496121644973755,0.25197863578796387,0.35496121644973755,0.25197863578796387,7.099224328994751,0.15118718147277832,0.15231671929359436,0.1649133265018463,0.15861502289772034,-0.07560791075229645,-0.02381281740963459,0.000721011427231133,2.343461169563235,2.343461275100708,0.049352869391441345,-0.02381274662911892,2.3434605292330004,0.24385200440883636,15,0.23227429389953613,0.0,3.387174274394056e-07,0.0,False,True,False,False,False,False,0.27481749653816223,0.04256496950984001,-0.03830089047551155,0.00035017606569454074,-0.004282836802303791,0.35496121644973755,0.25197863578796387,0.0,-0.09450988471508026,0.15623074769973755,-0.06803642213344574,0.15623070299625397,0.08235951513051987,0.08235951513051987,0.034062646329402924,0.7848379611968994,0.026733657345175743,0.830380916595459,False,0.0
normal,45,False,-3.1688175201416016,-0.07507176697254181,2.293097275614265,-1.9031298160552979,-0.024389227852225304,-1.3036103248596191,-0.0003823786973953247,0.35576215386390686,0.25286710262298584,0.35576215386390686,0.25286710262298584,7.115243077278137,0.1517202615737915,0.15255430340766907,0.16553549468517303,0.15904489159584045,-0.07507189363241196,-0.02438926137983799,-0.0003823700826615095,2.293101331039085,2.2931013107299805,0.05731812119483948,-0.02438908815383911,2.293097275614265,0.24385200440883636,15,0.223610520362854,0.0,2.3132911053380667e-07,0.0,False,True,False,False,False,False,0.2745823264122009,0.03095613420009613,-0.027389045804739,1.519164129604178e-06,-0.0027741873636841774,0.35576215386390686,0.25286710262298584,0.0,-0.0938398689031601,0.1528734266757965,-0.06968311220407486,0.15287314355373383,0.07935574650764465,0.07935574650764465,0.030900785699486732,0.8425964713096619,0.02603689208626747,0.8264886140823364,False,0.0
normal,46,False,-3.1594791412353516,-0.07445179671049118,2.241375027794109,-1.8937461376190186,-0.02491184137761593,-1.2942051887512207,-0.0014462023973464966,0.3557014465332031,0.25276434421539307,0.3557014465332031,0.25276434421539307,7.1140289306640625,0.15165860652923582,0.15287555754184723,0.16660766303539276,0.15974161028862,-0.074451744556427,-0.024911778047680855,-0.001446132198907435,2.2413756681243435,2.241375684738159,0.06612605601549149,-0.024911697953939438,2.241375027794109,0.24385200440883636,15,0.21420550346374512,0.0,3.3833018164841633e-07,0.0,False,True,False,False,False,False,0.2773990333080292,0.024897322058677673,-0.027653230354189873,3.282232137280516e-05,-0.005547289736568928,0.3557014465332031,0.25276434421539307,0.0,-0.09306468069553375,0.14942504465579987,-0.07117628306150436,0.14942499995231628,0.07634938508272171,0.07634938508272171,0.02773619443178177,0.9052965641021729,0.025109481066465378,0.823585033416748,False,0.0
normal,47,False,-3.15053391456604,-0.0738636925816536,2.191589778933886,-1.884758472442627,-0.025423575192689896,-1.2851972579956055,-0.0024788975715637207,0.3559296727180481,0.25305861234664917,0.3559296727180481,0.25305861234664917,7.118593454360962,0.1518351674079895,0.15245002508163452,0.16653694212436676,0.15949347615242004,-0.07386378943920135,-0.025423597544431686,-0.0024788815062493086,2.191593194028471,2.1915931701660156,0.07470109313726425,-0.025423429906368256,2.191589778933886,0.24385200440883636,15,0.20519745349884033,0.0,2.295775942684486e-07,0.0,False,True,False,False,False,False,0.27360403537750244,0.025734692811965942,-0.02688766084611416,6.424348271139024e-07,0.0002549890195950866,0.3559296727180481,0.25305861234664917,0.0,-0.09232974052429199,0.14610621333122253,-0.0726383700966835,0.14610598981380463,0.07344584167003632,0.07344584167003632,0.02467983402311802,0.9653502702713013,0.02382468432188034,0.8203872442245483,False,0.0
normal,48,False,-3.141554117202759,-0.0732869803905487,2.1418664286630165,-1.875736951828003,-0.02594536729156971,-1.2761561870574951,-0.0035210177302360535,0.35620254278182983,0.25338536500930786,0.35620254278182983,0.25338536500930786,7.124050855636597,0.15203121900558472,0.15311886370182037,0.16642016172409058,0.15976950526237488,-0.07328690588474274,-0.02594529278576374,-0.003520943457260728,2.1418664286630165,2.141866445541382,0.08340155333280563,-0.02594521827995777,2.1418664286630165,0.24385200440883636,15,0.19615638256072998,0.0,3.0691424512951926e-07,0.0,False,True,False,False,False,False,0.2737523019313812,0.023519378155469894,-0.026965133845806122,1.1645834092632867e-06,-0.00035362542257644236,0.35620254278182983,0.25338536500930786,0.0,-0.09160862863063812,0.14279109239578247,-0.07412919402122498,0.14279109239578247,0.07053369283676147,0.07053369283676147,0.02161441370844841,1.0,0.02161441370844841,0.8171483278274536,False,0.0
normal,49,False,-3.132201671600342,-0.07274643331766129,2.0893153800757616,-1.8663417100906372,-0.026565827429294586,-1.2667405605316162,-0.004691414535045624,0.3564744293689728,0.2538102865219116,0.3564744293689728,0.2538102865219116,7.129488587379456,0.15228617191314697,0.15377643704414368,0.1665450483560562,0.16016075015068054,-0.07274651527404785,-0.026565855368971825,-0.004691415466368198,2.0893179413967,2.089318037033081,0.09033625572919846,-0.02656567469239235,2.0893153800757616,0.3950815796852112,16,0.18674075603485107,0.0,2.7440214012131037e-07,0.0,False,True,False,False,False,False,0.2739005982875824,0.02474309504032135,-0.028551658615469933,0.00015742084360681474,-0.009775606915354729,0.3564744293689728,0.2538102865219116,0.0,-0.09093314409255981,0.13928785920143127,-0.07590193301439285,0.13928769528865814,0.06737777590751648,0.06737777590751648,0.018292395398020744,1.0,0.018292395398020744,0.8135675191879272,False,0.0
normal,50,False,-3.1237130165100098,-0.07224363088607788,2.0385111523687374,-1.8578126430511475,-0.027185488492250443,-1.2581923007965088,-0.005842752754688263,0.35694044828414917,0.25435739755630493,0.35694044828414917,0.25435739755630493,7.138808965682983,0.15261443853378295,0.1545940488576889,0.1671154946088791,0.160854771733284,-0.0722436010837555,-0.027185453101992607,-0.005842713173478842,2.03851157925556,2.0385115146636963,0.08242488652467728,-0.027185332030057907,2.0385111523687374,0.3950815796852112,16,0.1781926155090332,0.0,3.315646210921841e-07,0.0,False,True,False,False,False,False,0.2753708064556122,0.021974045783281326,-0.02230030670762062,3.1505933861808444e-08,9.136609151028097e-05,0.35694044828414917,0.25435739755630493,0.0,-0.09030450135469437,0.13590076565742493,-0.07767237722873688,0.13590073585510254,0.06430423259735107,0.06430423259735107,0.015057086944580078,1.0,0.015057086944580078,0.8099468350410461,False,0.0
normal,51,False,-3.114408254623413,-0.07169979810714722,1.9902360156453218,-1.8484702110290527,-0.0277082659304142,-1.2488322257995605,-0.006870754063129425,0.3569287657737732,0.25434136390686035,0.3569287657737732,0.25434136390686035,7.138575315475464,0.1526048183441162,0.15542970597743988,0.16535483300685883,0.16039226949214935,-0.07169974595308304,-0.027708204463124275,-0.006870688870549202,1.9902362290887332,1.9902362823486328,0.07386420667171478,-0.027708107605576515,1.9902360156453218,0.3950815796852112,16,0.1688324213027954,0.0,2.1997713872679014e-07,0.0,False,True,False,False,False,False,0.2728419005870819,0.03254431113600731,-0.027446497231721878,6.946247594896704e-07,-0.0020090206526219845,0.3569287657737732,0.25434136390686035,0.0,-0.08962468057870865,0.1326824128627777,-0.07916602492332458,0.13268239796161652,0.061458609998226166,0.061458609998226166,0.012061694636940956,1.0,0.012061694636940956,0.807117223739624,False,0.0
normal,52,False,-3.1053009033203125,-0.07113859802484512,1.940144475489506,-1.839324951171875,-0.028253845870494843,-1.2396689653396606,-0.007940582931041718,0.3573847711086273,0.2549474835395813,0.3573847711086273,0.2549474835395813,7.147695422172546,0.15296849012374877,0.1556907594203949,0.16635683178901672,0.1610237956047058,-0.07113853096961975,-0.02825377881526947,-0.00794051494449377,1.940144475489506,1.9401445388793945,0.06570945680141449,-0.02825368382036686,1.940144475489506,0.3950815796852112,16,0.15966928005218506,0.0,3.0556623187294463e-07,0.0,False,True,False,False,False,False,0.2738252282142639,0.023839442059397697,-0.02622879482805729,2.069184716901873e-07,-0.00014014510088600218,0.3573847711086273,0.2549474835395813,0.0,-0.08892316371202469,0.1293429583311081,-0.0807248130440712,0.1293429583311081,0.058502353727817535,0.058502353727817535,0.008949846029281616,1.0,0.008949846029281616,0.803554892539978,False,0.0
normal,53,False,-3.0962915420532227,-0.07060988992452621,1.8939689816056349,-1.8302814960479736,-0.028745416551828384,-1.2306091785430908,-0.008915431797504425,0.35764503479003906,0.2552337646484375,0.35764503479003906,0.2552337646484375,7.152900695800781,0.15314025878906248,0.15595024824142456,0.16492874920368195,0.16043949127197266,-0.07060965895652771,-0.028745247051119804,-0.008915291167795658,1.8939662068412846,1.8939661979675293,0.05791831016540527,-0.028745252639055252,1.8939689816056349,0.3950815796852112,16,0.15060937404632568,0.0,2.520224882118782e-07,0.0,False,True,False,False,False,False,0.2683948278427124,0.03494037687778473,-0.016577206552028656,3.6776953493244946e-05,-0.00019300913845654577,0.35764503479003906,0.2552337646484375,0.0,-0.08826207369565964,0.12626440823078156,-0.08212929219007492,0.12626460194587708,0.055790070444345474,0.055790070444345474,0.006094810552895069,1.0,0.006094810552895069,0.8005563020706177,False,0.0
normal,54,False,-3.0873119831085205,-0.07006624341011047,1.8442259945409014,-1.8212660551071167,-0.029300911352038383,-1.2215768098831177,-0.009991556406021118,0.35787296295166016,0.2554769814014435,0.35787296295166016,0.2554769814014435,7.157459259033203,0.1532861888408661,0.1566532999277115,0.16544649004936218,0.16104990243911743,-0.07006626576185226,-0.029300879687070847,-0.009991499595344067,1.8442283424184285,1.8442283868789673,0.05061060190200806,-0.029300743713974953,1.8442259945409014,0.3950815796852112,16,0.14157700538635254,0.0,2.61413106272812e-07,0.0,False,True,False,False,False,False,0.27167055010795593,0.026489760726690292,-0.02703114226460457,4.670840425546885e-08,-0.00039330843719653785,0.35787296295166016,0.2554769814014435,0.0,-0.08758283406496048,0.122948557138443,-0.08371641486883163,0.12294840067625046,0.052838921546936035,0.052838921546936035,0.0029883377719670534,1.0,0.0029883377719670534,0.7973619699478149,False,0.0
normal,55,False,-3.0783491134643555,-0.06954560428857803,1.7943282610027846,-1.8122681379318237,-0.02988286130130291,-1.2125623226165771,-0.011095769703388214,0.358184278011322,0.25583672523498535,0.358184278011322,0.25583672523498535,7.16368556022644,0.1535020351409912,0.15717636048793793,0.16602769494056702,0.16160202026367188,-0.06954551488161087,-0.029882779344916344,-0.01109569426625967,1.7943278341159616,1.7943278551101685,0.043979767709970474,-0.02988268993794918,1.7943282610027846,0.3950815796852112,16,0.132562518119812,0.0,3.0530236472259276e-07,0.0,False,True,False,False,False,False,0.27027255296707153,0.03198309615254402,-0.02553899772465229,0.0,0.0020928888116031885,0.358184278011322,0.25583672523498535,0.0,-0.08693189173936844,0.11962185800075531,-0.08537911623716354,0.1196218803524971,0.04985041916370392,0.04985041916370392,0.0,1.0,0.0,0.7940136790275574,False,0.0
normal,56,False,-3.0693812370300293,-0.06902911514043808,1.7445897562496941,-1.8032664060592651,-0.030465470626950264,-1.2035444974899292,-0.01219899207353592,0.35852885246276855,0.25627851486206055,0.35852885246276855,0.25627851486206055,7.170577049255371,0.15376710891723633,0.15765897929668427,0.16639266908168793,0.1620258241891861,-0.0690290629863739,-0.030465412884950638,-0.012198933400213718,1.7445899696931055,1.7445900440216064,0.03833369165658951,-0.030465295538306236,1.7445897562496941,0.3950815796852112,16,0.12354481220245361,0.0,3.045614960228704e-07,0.0,False,True,False,False,False,False,0.27085569500923157,0.024392474442720413,-0.02560686692595482,3.094058911301545e-07,0.0005653376574628055,0.35852885246276855,0.25627851486206055,0.0,-0.08628632873296738,0.11630599945783615,-0.08704370260238647,0.11630598455667496,0.04686865955591202,0.04686865955591202,0.0,1.0,0.0,0.7905901670455933,False,0.0
normal,57,False,-3.0601963996887207,-0.06859811395406723,1.6881083606819198,-1.794044017791748,-0.03128260746598244,-1.1943044662475586,-0.013607334345579147,0.35877543687820435,0.256580114364624,0.35877543687820435,0.256580114364624,7.175508737564087,0.15394806861877441,0.15832963585853577,0.16646534204483032,0.16239748895168304,-0.06859821826219559,-0.03128264471888542,-0.013607341796159744,1.688111242167976,1.6881113052368164,0.03429047763347626,-0.03128242865204811,1.6881083606819198,0.3950815796852112,16,0.1143045425415039,0.0,1.580685733415521e-07,0.0,False,True,False,False,False,False,0.27466845512390137,0.024088546633720398,-0.027845988050103188,2.4341768948943354e-05,-0.0009680339717306197,0.35877543687820435,0.256580114364624,0.0,-0.08574777096509933,0.11254075169563293,-0.08937837183475494,0.11254055798053741,0.04330631345510483,0.04330631345510483,0.0,1.0,0.0,0.7867262363433838,False,0.0
normal,58,False,-3.0511162281036377,-0.06820303201675415,1.622246233897662,-1.7849218845367432,-0.03234300762414932,-1.1851623058319092,-0.015357151627540588,0.359026163816452,0.25705283880233765,0.359026163816452,0.25705283880233765,7.1805232763290405,0.1542317032814026,0.15831123292446136,0.1666749119758606,0.16249307990074158,-0.06820298731327057,-0.032342955470085144,-0.015357095748186111,1.6222464473410736,1.622246503829956,0.03271536901593208,-0.0323428213596344,1.622246233897662,0.3950815796852112,16,0.10516250133514404,0.0,2.1741185207702074e-07,0.0,False,True,False,False,False,False,0.2746293842792511,0.03248155117034912,-0.029422545805573463,7.393974374281242e-05,-0.006444995291531086,0.359026163816452,0.25705283880233765,0.0,-0.08525373041629791,0.10814975947141647,-0.09240806102752686,0.10814974457025528,0.039030302315950394,0.039030302315950394,0.0,1.0,0.0,0.7819774746894836,False,0.0
normal,59,False,-3.042048454284668,-0.0677051842212677,1.5721741170922987,-1.7758232355117798,-0.032951731234788895,-1.1760491132736206,-0.01649002730846405,0.35959261655807495,0.2576320767402649,0.35959261655807495,0.2576320767402649,7.191852331161499,0.15457924604415893,0.1588345468044281,0.16715683043003082,0.16299569606781006,-0.06770522147417068,-0.032951705157756805,-0.016489967703819275,1.5721771053000604,1.5721771717071533,0.03321538120508194,-0.03295154124498367,1.5721741170922987,0.3950815796852112,16,0.09604930877685547,0.0,2.409762203114951e-07,0.0,False,True,False,False,False,False,0.2750968635082245,0.026255417615175247,-0.027336008846759796,4.215412263874896e-05,-0.0011897810036316514,0.35959261655807495,0.2576320767402649,0.0,-0.0846315249800682,0.10481180250644684,-0.09414726495742798,0.10481160879135132,0.03600342199206352,0.03600342199206352,0.0,1.0,0.0,0.7783713340759277,False,0.0
normal,60,False,-3.0330991744995117,-0.06721280515193939,1.5206855898078038,-1.766843318939209,-0.033597253262996674,-1.167054533958435,-0.017674539238214493,0.35967859625816345,0.25771552324295044,0.35967859625816345,0.25771552324295044,7.193571925163269,0.15462931394577026,0.1594119518995285,0.1674761325120926,0.16344404220581055,-0.06721256673336029,-0.03359707444906235,-0.017674388363957405,1.5206829217651592,1.52068293094635,0.036081474274396896,-0.033597059547901154,1.5206855898078038,0.3950815796852112,16,0.08705472946166992,0.0,2.576023803158023e-07,0.0,False,True,False,False,False,False,0.27432289719581604,0.0290004201233387,-0.02829531393945217,4.966650067217415e-06,-0.0010073623852804303,0.35967859625816345,0.25771552324295044,0.0,-0.08401571214199066,0.10137885808944702,-0.0959916040301323,0.10137903690338135,0.03286857157945633,0.03286857157945633,0.0,1.0,0.0,0.7751530408859253,False,0.0
normal,61,False,-3.02394962310791,-0.06672322005033493,1.4689480807837207,-1.7576638460159302,-0.03425109386444092,-1.1578609943389893,-0.018869992345571518,0.3601096272468567,0.25831037759780884,0.3601096272468567,0.25831037759780884,7.202192544937134,0.1549862265586853,0.16017606854438782,0.16787520051002502,0.16402563452720642,-0.06672298908233643,-0.03425092622637749,-0.018869850784540176,1.4689454127410762,1.4689453840255737,0.040890585631132126,-0.0342508964240551,1.4689480807837207,0.3950815796852112,16,0.07786118984222412,0.0,2.536892225180054e-07,0.0,False,True,False,False,False,False,0.2734430134296417,0.026363439857959747,-0.026833508163690567,6.841576396254823e-05,-0.0029487391002476215,0.3601096272468567,0.25831037759780884,0.0,-0.08340373635292053,0.0979296937584877,-0.0978597030043602,0.09792987257242203,0.029712744057178497,0.029712744057178497,0.0,1.0,0.0,0.7714023590087891,False,0.0
normal,62,False,-3.0145201683044434,-0.06613722443580627,1.4181139709990778,-1.7482061386108398,-0.0347885899245739,-1.1483898162841797,-0.01993964985013008,0.3602865934371948,0.2585853338241577,0.3602865934371948,0.2585853338241577,7.2057318687438965,0.1551512002944946,0.1610611230134964,0.16845181584358215,0.16475647687911987,-0.06613719463348389,-0.03478853031992912,-0.01993957906961441,1.4181150382161356,1.4181150197982788,0.04712848365306854,-0.03478839248418808,1.4181139709990778,0.3950815796852112,16,0.06839001178741455,0.0,2.5567493366907e-07,0.0,False,True,False,False,False,False,0.2722674012184143,0.0321139357984066,-0.028440194204449654,0.00034790372592397034,-0.013815641403198242,0.3602865934371948,0.2585853338241577,0.0,-0.08267149329185486,0.09454099833965302,-0.09939540922641754,0.09454093128442764,0.02673105150461197,0.02673105150461197,0.0,1.0,0.0,0.7681456804275513,False,0.0
normal,63,False,-3.005746603012085,-0.06592229008674622,1.357830828106251,-1.7394001483917236,-0.03590600937604904,-1.1395686864852905,-0.021688170731067657,0.360848069190979,0.2592346668243408,0.360848069190979,0.2592346668243408,7.21696138381958,0.1555408000946045,0.16109699010849,0.16852520406246185,0.16481110453605652,-0.06592238694429398,-0.035906028002500534,-0.021688153967261314,1.357834243200836,1.3578342199325562,0.05419950932264328,-0.035905804485082626,1.357830828106251,0.3950815796852112,16,0.05956876277923584,0.0,1.706118126776346e-07,0.0,False,True,False,False,False,False,0.2734683156013489,0.02906390279531479,-0.029286684468388557,0.00014054271741770208,-0.003928734455257654,0.360848069190979,0.2592346668243408,0.0,-0.08240298181772232,0.09052228182554245,-0.10258801281452179,0.09052205085754395,0.022650795057415962,0.022650795057415962,0.0,1.0,0.0,0.7634161114692688,False,0.0
normal,64,False,-2.997018575668335,-0.06548376381397247,1.3089263534838422,-1.730647087097168,-0.03654837980866432,-1.1308035850524902,-0.02284252643585205,0.3610050678253174,0.2594778537750244,0.3610050678253174,0.2594778537750244,7.220101356506348,0.15568671226501465,0.1612289547920227,0.16860894858837128,0.1649189591407776,-0.06548380106687546,-0.036548368632793427,-0.022842494770884514,1.3089283811962522,1.308928370475769,0.061412468552589417,-0.03654817119240761,1.3089263534838422,0.3950815796852112,16,0.05080366134643555,0.0,1.1353704820749044e-07,0.0,False,True,False,False,False,False,0.27420932054519653,0.02421422302722931,-0.0271060261875391,4.155505848757457e-06,-0.00041395460721105337,0.3610050678253174,0.2594778537750244,0.0,-0.08185475319623947,0.08726189285516739,-0.10442335158586502,0.08726175874471664,0.019640160724520683,0.019640160724520683,0.0,1.0,0.0,0.7601622939109802,False,0.0
normal,65,False,-2.9877820014953613,-0.06526466459035873,1.2500314465398206,-1.721381425857544,-0.03763100877404213,-1.1215242147445679,-0.024541746824979782,0.3611164093017578,0.2596336603164673,0.3611164093017578,0.2596336603164673,7.222328186035156,0.15578019618988037,0.1615496128797531,0.1685665249824524,0.16505807638168335,-0.06526457518339157,-0.03763094171881676,-0.024541690945625305,1.250030379322763,1.2500303983688354,0.06965792924165726,-0.03763079270720482,1.2500314465398206,0.3950815796852112,16,0.041524529457092285,0.0,3.00197285696413e-07,0.0,False,True,False,False,False,False,0.2720404267311096,0.024473443627357483,-0.02416566014289856,1.1216538041480817e-05,0.0007969914004206657,0.3611164093017578,0.2596336603164673,0.0,-0.08158072084188461,0.08333535492420197,-0.10751654952764511,0.08333542943000793,0.015664052218198776,0.015664052218198776,0.0,1.0,0.0,0.7560303807258606,False,0.0
normal,66,False,-2.978724956512451,-0.06478016823530197,1.2008951723724548,-1.7123010158538818,-0.038232576102018356,-1.112432837486267,-0.02565775066614151,0.36135971546173096,0.26003265380859375,0.36135971546173096,0.26003265380859375,7.227194309234619,0.15601959228515624,0.16219176352024078,0.16932345926761627,0.16575761139392853,-0.06478013098239899,-0.03823251277208328,-0.02565767802298069,1.2008961328678067,1.200896143913269,0.07774882018566132,-0.03823235630989075,1.2008951723724548,0.3950815796852112,16,0.032433152198791504,0.0,3.9820039887672465e-07,0.0,False,True,False,False,False,False,0.2735658884048462,0.02201801724731922,-0.025164620950818062,7.663712494831998e-06,-0.000522404967341572,0.36135971546173096,0.26003265380859375,0.0,-0.08097516000270844,0.08005974441766739,-0.10923530906438828,0.08005967736244202,0.012688955292105675,0.012688955292105675,0.0,1.0,0.0,0.7526562809944153,False,0.0
normal,67,False,-2.9696638584136963,-0.06432787328958511,1.1497192329641936,-1.703216791152954,-0.038911446928977966,-1.1033376455307007,-0.0268724225461483,0.36154407262802124,0.2603273093700409,0.36154407262802124,0.2603273093700409,7.230881452560425,0.15619638562202454,0.16266833245754242,0.17000868916511536,0.1663385033607483,-0.06432770937681198,-0.03891131654381752,-0.026872308924794197,1.149717632138607,1.1497176885604858,0.08607994765043259,-0.03891122341156006,1.1497192329641936,0.3950815796852112,16,0.023337960243225098,0.0,3.6669331393568427e-07,0.0,False,True,False,False,False,False,0.273318350315094,0.029023537412285805,-0.028359828516840935,2.872163122447091e-06,-0.0006680522346869111,0.36154407262802124,0.2603273093700409,0.0,-0.08040963858366013,0.07664784044027328,-0.11117492616176605,0.07664794474840164,0.009530913084745407,0.009530913084745407,0.0,1.0,0.0,0.7492035627365112,False,0.0
normal,68,False,-2.960714340209961,-0.06410636007785797,1.0887896766994487,-1.6942410469055176,-0.04003671556711197,-1.0943492650985718,-0.028635621070861816,0.3620109260082245,0.2608945965766907,0.3620109260082245,0.2608945965766907,7.24021852016449,0.1565367579460144,0.1635824739933014,0.16851210594177246,0.16604728996753693,-0.0641062781214714,-0.0400366336107254,-0.02863553911447525,1.0887896766994487,1.088789701461792,0.09464423358440399,-0.04003648832440376,1.0887896766994487,0.3950815796852112,16,0.014349579811096191,0.0,3.3801160270741093e-07,0.0,False,True,False,False,False,False,0.27325019240379333,0.023621367290616035,-0.02890579029917717,9.574969226378016e-07,-0.00024197356833610684,0.3620109260082245,0.2608945965766907,0.0,-0.0801328495144844,0.07258597761392593,-0.11438997089862823,0.07258597761392593,0.005411582067608833,0.005411582067608833,0.0,1.0,0.0,0.7445169687271118,False,0.0
normal,69,False,-2.951629161834717,-0.06365929543972015,1.0361448197328118,-1.6851341724395752,-0.0407533273100853,-1.0852322578430176,-0.029903434216976166,0.3622206151485443,0.26116979122161865,0.3622206151485443,0.26116979122161865,7.244412302970886,0.15670187473297117,0.16405349969863892,0.16837754845619202,0.16621552407741547,-0.06365930289030075,-0.040753304958343506,-0.02990339882671833,1.0361461003932813,1.0361461639404297,0.08990170061588287,-0.040753092616796494,1.0361448197328118,0.5463109612464905,17,0.005232453346252441,0.0,1.8851712013656652e-07,0.0,False,True,False,False,False,False,0.27172666788101196,0.025647321715950966,-0.030856754630804062,0.0,0.008749518543481827,0.3622206151485443,0.26116979122161865,0.0,-0.07957413047552109,0.06907640397548676,-0.1164374127984047,0.06907632201910019,0.0021422449499368668,0.0021422449499368668,0.0,1.0,0.0,0.7409724593162537,False,0.0
normal,70,False,-2.9426496028900146,-0.06341583281755447,0.9760951839322349,-1.6761314868927002,-0.04183724522590637,-1.0762184858322144,-0.03161609172821045,0.36232227087020874,0.26142263412475586,0.36232227087020874,0.26142263412475586,7.246445417404175,0.1568535804748535,0.16488651931285858,0.16858220100402832,0.16673436760902405,-0.06341590732336044,-0.041837241500616074,-0.031616054475307465,0.9760985990268198,0.9760985970497131,0.08252297341823578,-0.04183700680732727,0.9760952906539406,0.5463109612464905,17,0.0,0.0037813186645507812,2.8600308610293723e-07,0.0,False,True,False,False,False,False,0.2742665708065033,0.027868110686540604,-0.028565019369125366,2.9484101560228737e-06,-5.442050314741209e-05,0.36232227087020874,0.26142263412475586,0.0,-0.0792698860168457,0.06507323682308197,-0.11953430622816086,0.06507302075624466,-0.0018891002982854843,0.0018891002982854843,0.0,1.0,0.0,0.7366882562637329,True,0.2633117437362671
normal,71,False,-2.933475971221924,-0.06298039108514786,0.9245020693760742,-1.6669387817382812,-0.04254227131605148,-1.067016839981079,-0.03286132961511612,0.36266762018203735,0.2618010342121124,0.36266762018203735,0.2618010342121124,7.253352403640747,0.15708062052726746,0.1643877476453781,0.1688040792942047,0.16659590601921082,-0.06298031657934189,-0.04254218935966492,-0.032861243933439255,0.9245022828194858,0.9245023131370544,0.07514157146215439,-0.04254202917218208,0.9245020693760742,0.5463109612464905,17,0.0,0.012982964515686035,2.823746285685047e-07,0.0,False,True,False,False,False,False,0.2725130319595337,0.03124256804585457,-0.03813822194933891,0.00021215669403318316,-0.10749468207359314,0.36266762018203735,0.2618010342121124,0.0,-0.07872539758682251,0.06163348630070686,-0.12154866009950638,0.06163347139954567,-0.00509627815335989,0.00509627815335989,0.0,1.0,0.0,0.7331026792526245,True,0.2668973207473755
normal,72,False,-2.9244651794433594,-0.06258933246135712,0.8736775645449515,-1.6579103469848633,-0.043274711817502975,-1.0579800605773926,-0.03412593528628349,0.3647953271865845,0.26456373929977417,0.3647953271865845,0.26456373929977417,7.2959065437316895,0.1587382435798645,0.16457773745059967,0.16805335879325867,0.16631555557250977,-0.06258955597877502,-0.04327479749917984,-0.034125953912734985,0.8736838077647398,0.8736838102340698,0.06835351884365082,-0.04327446594834328,0.8736775645449515,0.5463109612464905,17,0.0,0.02201974391937256,2.576087467787147e-07,0.0,False,True,False,False,False,False,0.2697175443172455,0.022730981931090355,-0.029875190928578377,0.0,0.01972385123372078,0.3647953271865845,0.26456373929977417,0.0,-0.07823694497346878,0.05824558809399605,-0.12364133447408676,0.05824517086148262,-0.008298530243337154,0.008298530243337154,0.0,1.0,0.0,0.7271377444267273,True,0.2728622555732727
normal,73,False,-2.915555953979492,-0.062199316918849945,0.8221111304152362,-1.6489843130111694,-0.04402460902929306,-1.0490460395812988,-0.03541577607393265,0.3630213737487793,0.26227980852127075,0.3630213737487793,0.26227980852127075,7.260427474975586,0.15736788511276245,0.1645994335412979,0.1682027131319046,0.16640107333660126,-0.06219833344221115,-0.044024012982845306,-0.03541536629199982,0.8220935746946351,0.8220936059951782,0.062231697142124176,-0.044024355709552765,0.8221111304152362,0.5463109612464905,17,0.0,0.03095388412475586,1.7314145850377827e-07,0.0,False,True,False,False,False,False,0.2697729170322418,0.032609742134809494,-0.013609446585178375,0.0,-0.00676628528162837,0.3630213737487793,0.26227980852127075,0.0,-0.07774791866540909,0.05480623617768288,-0.12578387558460236,0.05480740964412689,-0.0115556251257658,0.0115556251257658,0.0,1.0,0.0,0.7261645793914795,True,0.2738354206085205
normal,74,False,-2.906831979751587,-0.06183275580406189,0.7709311355821554,-1.640244722366333,-0.044789429754018784,-1.0402989387512207,-0.03671650215983391,0.3633005619049072,0.26258379220962524,0.3633005619049072,0.26258379220962524,7.2660112380981445,0.15755027532577515,0.16505293548107147,0.16776907444000244,0.16641101241111755,-0.06183125078678131,-0.04478852078318596,-0.036715876311063766,0.7709041883514457,0.7709041833877563,0.05699370428919792,-0.04478917270898819,0.7709311355821554,0.5463109612464905,17,0.0,0.03970038890838623,6.993805641286599e-07,0.0,False,True,False,False,False,False,0.2696291506290436,0.025144873186945915,-0.028026923537254333,1.890298335638363e-06,-0.00022862805053591728,0.3633005619049072,0.26258379220962524,0.0,-0.07728905975818634,0.05139361321926117,-0.12796907126903534,0.05139540880918503,-0.014811379835009575,0.014811379835009575,0.0,1.0,0.0,0.7226048707962036,True,0.2773951590061188
normal,75,False,-2.8975982666015625,-0.06144999340176582,0.7170009757519397,-1.6309953927993774,-0.04559886455535889,-1.0310423374176025,-0.03809064254164696,0.36376118659973145,0.2630581259727478,0.36376118659973145,0.2630581259727478,7.275223731994629,0.15783487558364867,0.16556493937969208,0.16846773028373718,0.16701632738113403,-0.06144830584526062,-0.0455978624522686,-0.03808996453881264,0.716970079818116,0.7169700860977173,0.05248824506998062,-0.045598603785037994,0.7170009757519397,0.5463109612464905,17,0.0,0.048956990242004395,7.553342697974585e-07,0.0,False,True,False,False,False,False,0.26750877499580383,0.025974063202738762,-0.03308775648474693,0.00010113057214766741,-0.013349512591958046,0.36376118659973145,0.2630581259727478,0.0,-0.07681038230657578,0.04779800400137901,-0.1302817314863205,0.04780006408691406,-0.01824602670967579,0.01824602670967579,0.0,1.0,0.0,0.718695878982544,True,0.28130415081977844
normal,76,False,-2.8888437747955322,-0.061225276440382004,0.6596294677970953,-1.6222257614135742,-0.04664243012666702,-1.0222654342651367,-0.03973495960235596,0.3642202317714691,0.2638102173805237,0.3642202317714691,0.2638102173805237,7.284404635429382,0.15828613042831421,0.1669260561466217,0.16873611509799957,0.16783109307289124,-0.06122392788529396,-0.046641603112220764,-0.039734382182359695,0.6596057755784118,0.6596058011054993,0.049721647053956985,-0.04664216190576553,0.6596294677970953,0.5463109612464905,17,0.0,0.057733893394470215,7.906262453616364e-07,0.0,False,True,False,False,False,False,0.27120304107666016,0.02049732580780983,-0.024550313130021095,0.0,0.00928473100066185,0.3642202317714691,0.2638102173805237,0.0,-0.07652991265058517,0.04397371783852577,-0.13326331973075867,0.04397529736161232,-0.02210656926035881,0.02210656926035881,0.0,1.0,0.0,0.714083194732666,True,0.2859167754650116
normal,77,False,-2.8798742294311523,-0.06086977571249008,0.6060250226129246,-1.6132428646087646,-0.04747195169329643,-1.01327645778656,-0.041125789284706116,0.3640458583831787,0.26352229714393616,0.3640458583831787,0.26352229714393616,7.280917167663574,0.15811337828636168,0.1668378859758377,0.16843418776988983,0.16763603687286377,-0.060868386179208755,-0.04747110232710838,-0.04112519696354866,0.6060004766205949,0.6060004830360413,0.04818226397037506,-0.047471679747104645,0.6060249692520717,0.5463109612464905,17,0.0,0.06672275066375732,7.903034315859259e-07,0.0,False,True,False,False,False,False,0.2676416337490082,0.032529596239328384,-0.034802377223968506,1.017552858684212e-05,0.012762762606143951,0.3640458583831787,0.26352229714393616,0.0,-0.07608548551797867,0.040400031954050064,-0.13563337922096252,0.04040166363120079,-0.025548741221427917,0.025548741221427917,0.0,1.0,0.0,0.7109289765357971,True,0.2890710234642029
normal,78,False,-2.8709588050842285,-0.060538943856954575,0.5538966987022699,-1.604315996170044,-0.048293519765138626,-1.0043439865112305,-0.04249321669340134,0.3645116686820984,0.26418209075927734,0.3645116686820984,0.26418209075927734,7.290233373641968,0.1585092544555664,0.1668637990951538,0.16870303452014923,0.16778340935707092,-0.06053750589489937,-0.04829264432191849,-0.04249260574579239,0.553871245575441,0.5538712739944458,0.048298366367816925,-0.04829324409365654,0.5538966987022699,0.5463109612464905,17,0.0,0.07565534114837646,7.627629088347021e-07,0.0,False,True,False,False,False,False,0.2691046893596649,0.023964591324329376,-0.026486191898584366,2.1414305138023337e-06,-0.0002304472727701068,0.3645116686820984,0.26418209075927734,0.0,-0.07567188143730164,0.03692474961280823,-0.13798069953918457,0.03692644461989403,-0.028912998735904694,0.028912998735904694,0.0,1.0,0.0,0.7069048881530762,True,0.29309508204460144
normal,79,False,-2.8620870113372803,-0.06019129604101181,0.5022369898017016,-1.5954337120056152,-0.049087923020124435,-0.9954566955566406,-0.0438285768032074,0.36469852924346924,0.26440346240997314,0.36469852924346924,0.26440346240997314,7.293970584869385,0.15864207744598388,0.16715319454669952,0.1689346581697464,0.16804392635822296,-0.060189928859472275,-0.04908708855509758,-0.04382799565792084,0.5022127639744892,0.5022127628326416,0.05001138523221016,-0.04908764362335205,0.5022369898017016,0.5463109612464905,17,0.0,0.08454257249832153,7.912623232186888e-07,0.0,False,True,False,False,False,False,0.26682376861572266,0.028892381116747856,-0.03059283085167408,0.0,0.010765724815428257,0.36469852924346924,0.26440346240997314,0.0,-0.07523740828037262,0.033480849117040634,-0.14025041460990906,0.03348246589303017,-0.03222457319498062,0.03222457319498062,0.0,1.0,0.0,0.7033720016479492,True,0.29662802815437317
normal,80,False,-2.853167772293091,-0.0598655641078949,0.44760916350036606,-1.5865044593811035,-0.0499698668718338,-0.9865226745605469,-0.04528256133198738,0.3649975657463074,0.264653742313385,0.3649975657463074,0.264653742313385,7.2999513149261475,0.158792245388031,0.16798435151576996,0.16811209917068481,0.16804823279380798,-0.05986420437693596,-0.04996903985738754,-0.04528198763728142,0.44758499103400656,0.44758498668670654,0.053282953798770905,-0.04996958002448082,0.44760916350036606,0.5463109612464905,17,0.0,0.09347659349441528,7.901415983724291e-07,0.0,False,True,False,False,False,False,0.26867854595184326,0.025666369125247,-0.029638046398758888,0.0,0.0002221085160272196,0.3649975657463074,0.264653742313385,0.0,-0.07483025640249252,0.02983899973332882,-0.14277023077011108,0.029840610921382904,-0.035773925483226776,0.035773925483226776,0.0,1.0,0.0,0.6995723247528076,True,0.3004276752471924
normal,81,False,-2.8442227840423584,-0.05957302451133728,0.3954609093111567,-1.5775508880615234,-0.05083019658923149,-0.9775651693344116,-0.046688973903656006,0.3654584586620331,0.2651899456977844,0.3654584586620331,0.2651899456977844,7.309169173240662,0.15911396741867065,0.16682001948356628,0.16903391480445862,0.16792696714401245,-0.05957166850566864,-0.05082937330007553,-0.04668840393424034,0.39543671016437076,0.39543670415878296,0.057768188416957855,-0.05082990601658821,0.3954609093111567,0.5463109612464905,17,0.0,0.10243409872055054,7.904412768766633e-07,0.0,False,True,False,False,False,False,0.2701055705547333,0.017679302021861076,-0.0294031985104084,0.0,0.006372260861098766,0.3654584586620331,0.2651899456977844,0.0,-0.0744645893573761,0.026362447068095207,-0.145228311419487,0.02636406011879444,-0.03918306902050972,0.03918306902050972,0.0,1.0,0.0,0.695626974105835,True,0.30437302589416504
normal,82,False,-2.835326671600342,-0.059282463043928146,0.3433418968693315,-1.5686473846435547,-0.05169186368584633,-0.9686580896377563,-0.048096418380737305,0.36550530791282654,0.2652716040611267,0.36550530791282654,0.2652716040611267,7.310106158256531,0.15916296243667602,0.16738282144069672,0.16947263479232788,0.1684277355670929,-0.059281107038259506,-0.05169104412198067,-0.04809585213661194,0.3433176710421191,0.3433176875114441,0.063194639980793,-0.05169156938791275,0.3433418968693315,0.5463109612464905,17,0.0,0.11134117841720581,7.907443091426103e-07,0.0,False,True,False,False,False,False,0.2694736123085022,0.030290842056274414,-0.029292982071638107,1.2588236586452695e-06,-0.0005116235697641969,0.36550530791282654,0.2652716040611267,0.0,-0.07410138100385666,0.02288784459233284,-0.14769020676612854,0.022889459505677223,-0.042592354118824005,0.042592354118824005,0.0,1.0,0.0,0.6921360492706299,True,0.3078639507293701
normal,83,False,-2.8264691829681396,-0.058975912630558014,0.29061473078711064,-1.5597834587097168,-0.052550993859767914,-0.9597911834716797,-0.04950769618153572,0.3659721314907074,0.2658817768096924,0.3659721314907074,0.2658817768096924,7.319442629814148,0.15952906608581544,0.1677360236644745,0.16925488412380219,0.16849544644355774,-0.058974556624889374,-0.05255017429590225,-0.049507129937410355,0.29059050495989824,0.2905904948711395,0.06932636350393295,-0.05255069211125374,0.29061473078711064,0.5463109612464905,17,0.0,0.12020808458328247,7.910504677965946e-07,0.0,False,True,False,False,False,False,0.27049094438552856,0.027916613966226578,-0.02826274186372757,0.0,0.0003218504716642201,0.3659721314907074,0.2658817768096924,0.0,-0.07371819764375687,0.01937269978225231,-0.15014484524726868,0.019374314695596695,-0.04602714627981186,0.04602714627981186,0.0,1.0,0.0,0.6880910396575928,True,0.31190893054008484
normal,84,False,-2.8176381587982178,-0.058688703924417496,0.23982504391249918,-1.5509471893310547,-0.0533866360783577,-0.950952410697937,-0.05087520182132721,0.3660511076450348,0.2661842703819275,0.3660511076450348,0.2661842703819275,7.321022152900696,0.1597105622291565,0.1680779755115509,0.1696092039346695,0.1688435971736908,-0.058687351644039154,-0.05338582023978233,-0.05087463930249214,0.23980081808528678,0.239800825715065,0.07597263902425766,-0.05338633060455322,0.2398250705929256,0.5463109612464905,17,0.0,0.12904685735702515,7.913755553090596e-07,0.0,False,True,False,False,False,False,0.2695598900318146,0.024714920669794083,-0.024663401767611504,0.0,0.001642555114813149,0.3660511076450348,0.2661842703819275,0.0,-0.07335919141769409,0.015986721962690353,-0.15253238379955292,0.015988338738679886,-0.04934488981962204,0.04934488981962204,0.0,1.0,0.0,0.6844708323478699,True,0.3155291676521301
normal,85,False,-2.8085215091705322,-0.058429259806871414,0.19255669308099949,-1.5418267250061035,-0.054172199219465256,-0.941830039024353,-0.0521557554602623,0.3662101924419403,0.26632508635520935,0.3662101924419403,0.26632508635520935,7.324203848838806,0.15979505181312562,0.16730758547782898,0.16919319331645966,0.16825038194656372,-0.05842791497707367,-0.05417139083147049,-0.05215520039200783,0.19253244057336064,0.19253244996070862,0.08321954309940338,-0.05417189002037048,0.1925567064212127,0.5463109612464905,17,0.0,0.13816922903060913,7.902973493401078e-07,0.0,False,True,False,False,False,False,0.26953136920928955,0.02485397830605507,-0.027839215472340584,7.648355676792562e-06,-0.002999361837282777,0.3662101924419403,0.26632508635520935,0.0,-0.07303489744663239,0.012835496105253696,-0.15477682650089264,0.012837113812565804,-0.052441518753767014,0.052441518753767014,0.0025700191035866737,1.0,0.0025700191035866737,0.6812334060668945,True,0.31876659393310547
normal,86,False,-2.7996156215667725,-0.05809668079018593,0.14125439517309324,-1.5329174995422363,-0.05497381463646889,-0.9329192638397217,-0.05349460244178772,0.3665652871131897,0.2667366862297058,0.3665652871131897,0.2667366862297058,7.331305742263794,0.16004201173782348,0.1677933633327484,0.17007659375667572,0.16893497109413147,-0.05809533968567848,-0.05497300997376442,-0.05349405109882355,0.14123011598502797,0.14123012125492096,0.09065324068069458,-0.054973501712083817,0.14125439517309324,0.5463109612464905,17,0.0,0.14708000421524048,7.906409109637025e-07,0.0,False,True,False,False,False,False,0.27015724778175354,0.025157669559121132,-0.03046380542218685,1.950474342038433e-07,-0.0013854168355464935,0.3665652871131897,0.2667366862297058,0.0,-0.07261917740106583,0.0094153406098485,-0.15706714987754822,0.009416959248483181,-0.055744607001543045,0.055744607001543045,0.0060469540767371655,1.0,0.0060469540767371655,0.6775187253952026,True,0.32248130440711975
normal,87,False,-2.7906477451324463,-0.05780922994017601,0.08815839887569173,-1.5239472389221191,-0.055860213935375214,-0.9239479303359985,-0.05493701994419098,0.36678948998451233,0.2671040892601013,0.36678948998451233,0.2671040892601013,7.335789799690247,0.16026245355606078,0.1683696061372757,0.16988177597522736,0.16912569105625153,-0.057807888835668564,-0.055859412997961044,-0.054936472326517105,0.08813411301751983,0.08813411742448807,0.09843737632036209,-0.055859893560409546,0.08815840554579833,0.5463109612464905,17,0.0,0.15605133771896362,7.901830940681975e-07,0.0,False,True,False,False,False,False,0.27140098810195923,0.026785418391227722,-0.03018423542380333,1.5832431472517783e-06,0.0007125054253265262,0.36678948998451233,0.2671040892601013,0.0,-0.07225985825061798,0.0058756074868142605,-0.15959970653057098,0.005877227056771517,-0.05922752618789673,0.05922752618789673,0.009713185019791126,1.0,0.009713185019791126,0.673668384552002,True,0.32633161544799805
normal,88,False,-2.7816693782806396,-0.057552214711904526,0.0337216744638244,-1.5149675607681274,-0.056806690990924835,-0.9149676561355591,-0.056453559547662735,0.3670230507850647,0.2674453854560852,0.3670230507850647,0.2674453854560852,7.340461015701294,0.16046723127365112,0.1688748449087143,0.17011100053787231,0.1694929301738739,-0.05755087733268738,-0.056805890053510666,-0.05645301565527916,0.033697365260279374,0.03369736671447754,0.10220800340175629,-0.05680636689066887,0.0337216744638244,0.6975403428077698,18,0.0,0.16503161191940308,7.905222219051211e-07,0.0,False,True,False,False,False,False,0.2717508375644684,0.025945991277694702,-0.029326584190130234,2.199394884883077e-06,0.0003865499747917056,0.3670230507850647,0.2674453854560852,0.0,-0.07193859666585922,0.0022464909125119448,-0.16230390965938568,0.0022481116466224194,-0.06284114718437195,0.06284114718437195,0.01351699698716402,1.0,0.01351699698716402,0.6697134971618652,True,0.33028653264045715
normal,89,False,-2.772599458694458,-0.057343367487192154,-0.021362415477679926,-1.5058975219726562,-0.05781564861536026,-0.9058974981307983,-0.058039356023073196,0.36735138297080994,0.26776373386383057,0.36735138297080994,0.26776373386383057,7.347027659416199,0.16065824031829834,0.16992057859897614,0.17057882249355316,0.17024970054626465,-0.05734202638268471,-0.05781484395265579,-0.05803880840539932,-0.02138673802143818,0.02138673886656761,0.09541002660989761,-0.0578153170645237,-0.021362415477679926,0.6975403428077698,18,0.0,0.17410176992416382,7.919859967842058e-07,0.0,False,True,False,False,False,False,0.2712227702140808,0.02380956895649433,-0.02600928582251072,4.9876274715643376e-05,-0.0019099618075415492,0.36735138297080994,0.26776373386383057,0.0,-0.07167753577232361,-0.001425782567821443,-0.16518662869930267,-0.0014241610188037157,-0.06655582040548325,0.06655582040548325,0.01742717996239662,1.0,0.01742717996239662,0.6656804084777832,True,0.3343195617198944
normal,90,False,-2.763711452484131,-0.05709405615925789,-0.07491456869354444,-1.4970104694366455,-0.058750275522470474,-0.8970109224319458,-0.05953478068113327,0.3676236867904663,0.26811790466308594,0.3676236867904663,0.26811790466308594,7.352473735809326,0.16087074279785155,0.1704086810350418,0.17062361538410187,0.17051614820957184,-0.05709271878004074,-0.058749474585056305,-0.059534236788749695,-0.07493890124246262,0.07493890076875687,0.08911783993244171,-0.05874994024634361,-0.07491456869354444,0.6975403428077698,18,0.0,0.18298834562301636,7.920324378574151e-07,0.0,False,True,False,False,False,False,0.27015334367752075,0.028457026928663254,-0.030367139726877213,1.1703752988978522e-06,0.0020450924057513475,0.3676236867904663,0.26811790466308594,0.0,-0.07136590033769608,-0.00499592674896121,-0.16785697638988495,-0.00499430438503623,-0.07011471688747406,0.07011471688747406,0.02117338590323925,1.0,0.02117338590323925,0.6617673635482788,True,0.3382326364517212
normal,91,False,-2.7551209926605225,-0.05686114355921745,-0.12683141020397995,-1.48842191696167,-0.059665147215127945,-0.8884234428405762,-0.06099332123994827,0.36786991357803345,0.2685511112213135,0.36786991357803345,0.2685511112213135,7.357398271560669,0.16113066673278809,0.17055822908878326,0.17092403769493103,0.17074114084243774,-0.056859806180000305,-0.059664346277713776,-0.0609927773475647,-0.1268557427528981,0.1268557459115982,0.08350474387407303,-0.059664804488420486,-0.1268313968637667,0.6975403428077698,18,0.0,0.191575825214386,7.926996090645844e-07,0.0,False,True,False,False,False,False,0.27199509739875793,0.02283548377454281,-0.021961819380521774,0.0,0.00019241831614635885,0.36786991357803345,0.2685511112213135,0.0,-0.07107475399971008,-0.00845704972743988,-0.17047087848186493,-0.008455426432192326,-0.07357489317655563,0.07357489317655563,0.024815676733851433,1.0,0.024815676733851433,0.6578739881515503,True,0.3421260118484497
normal,92,False,-2.745908737182617,-0.05660872906446457,-0.18319223692464753,-1.4792131185531616,-0.060658760368824005,-0.879216194152832,-0.06257714331150055,0.367896169424057,0.2686225175857544,0.367896169424057,0.2686225175857544,7.35792338848114,0.16117351055145263,0.17071698606014252,0.16928385198116302,0.17000041902065277,-0.05660739913582802,-0.06065796688199043,-0.06257660686969757,-0.18321659615399216,0.18321660161018372,0.07811152189970016,-0.06065841391682625,-0.18319223692464753,0.6975403428077698,18,0.0,0.20078307390213013,7.919141467027657e-07,0.0,False,True,False,False,False,False,0.26650771498680115,0.021545985713601112,-0.029684390872716904,0.0,0.0038363654166460037,0.367896169424057,0.2686225175857544,0.0,-0.07075925171375275,-0.012214439921081066,-0.17330975830554962,-0.012212815694510937,-0.07733175903558731,0.07733175903558731,0.02877027355134487,1.0,0.02877027355134487,0.6540457010269165,True,0.3459542691707611
normal,93,False,-2.7370824813842773,-0.05637616664171219,-0.23705996455698114,-1.4703912734985352,-0.06161710247397423,-0.8703963756561279,-0.06409958004951477,0.36831408739089966,0.26907849311828613,0.36831408739089966,0.26907849311828613,7.366281747817993,0.16144709587097167,0.17067724466323853,0.16960793733596802,0.17014259099960327,-0.05637478083372116,-0.06161627173423767,-0.06409900635480881,-0.23708496411656046,0.23708496987819672,0.07367575168609619,-0.061616748571395874,-0.23705996455698114,0.6975403428077698,18,0.0,0.20960289239883423,7.981352609931491e-07,0.0,False,True,False,False,False,False,0.2662886083126068,0.02859562635421753,-0.029761902987957,2.3683162453380646e-06,-3.825558815151453e-05,0.36831408739089966,0.26907849311828613,0.0,-0.0704684779047966,-0.015805663540959358,-0.17604786157608032,-0.015803998336195946,-0.08093227446079254,0.08093227446079254,0.03256028890609741,1.0,0.03256028890609741,0.6499892473220825,True,0.3500107526779175
normal,94,False,-2.7281980514526367,-0.05620928108692169,-0.291041350805972,-1.4615123271942139,-0.0626436322927475,-0.8615200519561768,-0.06569139659404755,0.3687956929206848,0.269711971282959,0.3687956929206848,0.269711971282959,7.375913858413696,0.1618271827697754,0.17078731954097748,0.16991768777370453,0.170352503657341,-0.05620790645480156,-0.06264282017946243,-0.06569085270166397,-0.29106677725237445,0.2910667657852173,0.0701230838894844,-0.06264327466487885,-0.29104132412554556,0.6975403428077698,18,0.0,0.21847927570343018,7.625300781910482e-07,0.0,False,True,False,False,False,False,0.2672135829925537,0.029647858813405037,-0.027472596615552902,3.305448990431614e-05,-0.002657870529219508,0.3687956929206848,0.269711971282959,0.0,-0.07025988399982452,-0.019404452294111252,-0.1789807826280594,-0.019402755424380302,-0.08461543172597885,0.08461543172597885,0.036437295377254486,1.0,0.036437295377254486,0.6456725597381592,True,0.35432741045951843
normal,95,False,-2.719372272491455,-0.05599923059344292,-0.3449158552666227,-1.452693223953247,-0.06362462788820267,-0.8527040481567383,-0.06723655760288239,0.36900681257247925,0.2700750231742859,0.36900681257247925,0.2700750231742859,7.380136251449585,0.16204501390457152,0.17109084129333496,0.1700395792722702,0.17056521773338318,-0.055997949093580246,-0.06362386047840118,-0.06723602861166,-0.344939173959336,0.3449391722679138,0.06755051761865616,-0.06362426280975342,-0.3449158552666227,0.6975403428077698,18,0.0,0.22729521989822388,7.946875371089845e-07,0.0,False,True,False,False,False,False,0.2665221691131592,0.026437271386384964,-0.029422160238027573,1.0580723028397188e-05,-0.007904120720922947,0.36900681257247925,0.2700750231742859,0.0,-0.06999743729829788,-0.022995945066213608,-0.18178361654281616,-0.022994389757514,-0.08824191987514496,0.08824191987514496,0.04025465250015259,1.0,0.04025465250015259,0.641683042049408,True,0.35831695795059204
normal,96,False,-2.7103936672210693,-0.05586704984307289,-0.40225721433958384,-1.4437227249145508,-0.06476012617349625,-0.8437374830245972,-0.06897252053022385,0.3693745732307434,0.2705439031124115,0.3693745732307434,0.2705439031124115,7.387491464614868,0.1623263418674469,0.17160186171531677,0.1702258139848709,0.17091384530067444,-0.05586574971675873,-0.06475935876369476,-0.06897200644016266,-0.4022814134863698,0.40228140354156494,0.06619808077812195,-0.0647597536444664,-0.4022571876591574,0.6975403428077698,18,0.0,0.236261785030365,7.903765890659997e-07,0.0,False,True,False,False,False,False,0.26772966980934143,0.0261058509349823,-0.03049386851489544,5.2181472710799426e-05,-0.005081202369183302,0.3693745732307434,0.2705439031124115,0.0,-0.06983219087123871,-0.026818759739398956,-0.1850278675556183,-0.026817144826054573,-0.09220544248819351,0.09220544248819351,0.04442678391933441,1.0,0.04442678391933441,0.6372506618499756,True,0.3627493381500244
normal,97,False,-2.7016422748565674,-0.055695489048957825,-0.45417572337667217,-1.434980034828186,-0.06573635339736938,-0.8349988460540771,-0.07049242407083511,0.3697172999382019,0.2708602547645569,0.3697172999382019,0.2708602547645569,7.394345998764038,0.16251615285873414,0.17149627208709717,0.17025037109851837,0.17087331414222717,-0.05569418892264366,-0.0657355934381485,-0.07049191743135452,-0.45419994920388457,0.4541999399662018,0.06592471897602081,-0.06573598086833954,-0.45417572337667217,0.6975403428077698,18,0.0,0.245000422000885,7.906787686806638e-07,0.0,False,True,False,False,False,False,0.2626606822013855,0.05585849657654762,-0.03853468596935272,2.648636291269213e-05,-0.005214625038206577,0.3697172999382019,0.2708602547645569,0.0,-0.06961773335933685,-0.030279995873570442,-0.18781709671020508,-0.03027838096022606,-0.09573528170585632,0.09573528170585632,0.04814240336418152,1.0,0.04814240336418152,0.6334044933319092,True,0.3665955364704132
normal,98,False,-2.692901134490967,-0.0555117093026638,-0.5069386145499033,-1.4262486696243286,-0.06671902537345886,-0.8262721300125122,-0.07202760130167007,0.3704017400741577,0.27179813385009766,0.3704017400741577,0.27179813385009766,7.408034801483154,0.1630788803100586,0.17167799174785614,0.17116527259349823,0.17142163217067719,-0.05551040917634964,-0.06671826541423798,-0.07202709466218948,-0.5069628403771157,0.5069628357887268,0.06682440638542175,-0.06671864539384842,-0.5069386145499033,0.6975403428077698,18,0.0,0.2537270784378052,7.909843020570406e-07,0.0,False,True,False,False,False,False,0.2661110460758209,0.025239121168851852,-0.028577890247106552,8.429836952927872e-07,-2.706318991840817e-05,0.3704017400741577,0.27179813385009766,0.0,-0.0693880096077919,-0.03379752114415169,-0.19062469899654388,-0.033795908093452454,-0.09931182861328125,0.09931182861328125,0.051907189190387726,1.0,0.051907189190387726,0.6288900375366211,True,0.3711099624633789
normal,99,False,-2.683899164199829,-0.055212389677762985,-0.5430008927896599,-1.4172539710998535,-0.06721694022417068,-0.8172808885574341,-0.07290314882993698,0.370152086019516,0.2714356482028961,0.370152086019516,0.2714356482028961,7.40304172039032,0.16286138892173765,0.171394482254982,0.17032945156097412,0.17086195945739746,-0.05521109327673912,-0.0672161728143692,-0.07290264219045639,-0.5430251186168723,0.5430251359939575,0.06841476261615753,-0.06721655279397964,-0.5430008927896599,0.6975403428077698,18,0.0,0.2627183198928833,7.913087074484793e-07,0.0,False,True,False,False,False,False,0.27039945125579834,0.030660385265946388,-0.015252712182700634,0.00030390775646083057,0.0076691447757184505,0.370152086019516,0.2714356482028961,0.0,-0.06901386380195618,-0.03620167449116707,-0.19204729795455933,-0.036200057715177536,-0.10155932605266571,0.10155932605266571,0.05427297577261925,1.0,0.05427297577261925,0.6270050406455994,True,0.37299495935440063
normal,100,False,-2.675241708755493,-0.05512900650501251,-0.5966960514237449,-1.408608317375183,-0.06832059472799301,-0.8086408376693726,-0.07456906884908676,0.37000536918640137,0.2711491584777832,0.37000536918640137,0.2711491584777832,7.400107383728027,0.1626894950866699,0.17063763737678528,0.1705971509218216,0.17061740159988403,-0.055127717554569244,-0.06831984221935272,-0.07456856966018677,-0.5967203839726631,0.5967203974723816,0.07159127295017242,-0.06832020729780197,-0.5966961047845979,0.6975403428077698,18,0.0,0.2713583707809448,7.902326615294442e-07,0.0,False,True,False,False,False,False,0.26546379923820496,0.04280723258852959,0.004192274995148182,0.0,-0.017635386437177658,0.37000536918640137,0.2711491584777832,0.0,-0.0689096450805664,-0.0397813580930233,-0.1952005922794342,-0.03977974131703377,-0.10531657934188843,0.10531657934188843,0.05822797864675522,1.0,0.05822797864675522,0.6235342621803284,True,0.37646573781967163
normal,101,False,-2.6659996509552,-0.05500107258558273,-0.6524633720581354,-1.3993797302246094,-0.06942550092935562,-0.799418568611145,-0.07625793665647507,0.37043678760528564,0.27165696024894714,0.37043678760528564,0.27165696024894714,7.408735752105713,0.1629941761493683,0.17155377566814423,0.17100827395915985,0.17128102481365204,-0.054999787360429764,-0.06942474842071533,-0.07625744491815567,-0.6524876512462008,0.6524876356124878,0.07587822526693344,-0.06942510604858398,-0.6524633720581354,0.6975403428077698,18,0.0,0.28058063983917236,7.905755410320126e-07,0.0,False,True,False,False,False,False,0.2612675428390503,0.03269832953810692,-0.05886529013514519,0.00016887894889805466,-0.004657405894249678,0.37043678760528564,0.27165696024894714,0.0,-0.06874973326921463,-0.0434991754591465,-0.1983574479818344,-0.04349755868315697,-0.10917192697525024,0.10917192697525024,0.06228623911738396,1.0,0.06228623911738396,0.619171142578125,True,0.3808288872241974
normal,102,False,-2.657764434814453,-0.05520407855510712,-0.7076033825059427,-1.3911590576171875,-0.07084745913743973,-0.7912046909332275,-0.07825727760791779,0.37145736813545227,0.2730051279067993,0.37145736813545227,0.2730051279067993,7.429147362709045,0.1638030767440796,0.1703786849975586,0.17169809341430664,0.17103838920593262,-0.055202797055244446,-0.07084671407938004,-0.07825678586959839,-0.7076277150548608,0.7076277136802673,0.08079595863819122,-0.0708470568060875,-0.7076033825059427,0.6975403428077698,18,0.0,0.28879451751708984,7.901186904746282e-07,0.0,False,True,False,False,False,False,0.26436376571655273,0.03151030093431473,-0.02534586377441883,3.937681867682841e-06,0.0003174747107550502,0.37145736813545227,0.2730051279067993,0.0,-0.06900349259376526,-0.04717518016695976,-0.2024201601743698,-0.04717355966567993,-0.1133575290441513,0.1133575290441513,0.06669214367866516,1.0,0.06669214367866516,0.6136373281478882,True,0.3863626718521118
normal,103,False,-2.6484625339508057,-0.054955482482910156,-0.7558940472375493,-1.3818707466125488,-0.07166639715433121,-0.7819229364395142,-0.07958187162876129,0.37114381790161133,0.27264678478240967,0.37114381790161133,0.27264678478240967,7.422876358032227,0.1635880708694458,0.17087523639202118,0.17206023633480072,0.17146773636341095,-0.054954200983047485,-0.07166565209627151,-0.0795813798904419,-0.7559183797864675,0.7559183835983276,0.08632788807153702,-0.07166598737239838,-0.7558940472375493,0.6975403428077698,18,0.0,0.2980762720108032,7.904571361905255e-07,0.0,False,True,False,False,False,False,0.26277706027030945,0.04903986677527428,-0.034447647631168365,0.00014480990648735315,-0.0036553621757775545,0.37114381790161133,0.27264678478240967,0.0,-0.06869275122880936,-0.050394557416439056,-0.20475997030735016,-0.050392936915159225,-0.11653970181941986,0.11653970181941986,0.07004179805517197,1.0,0.07004179805517197,0.6108134984970093,True,0.3891865015029907
normal,104,False,-2.639608144760132,-0.054846495389938354,-0.7966417818870818,-1.3730285167694092,-0.0724581778049469,-0.7730865478515625,-0.08080032467842102,0.3716382384300232,0.2732563316822052,0.3716382384300232,0.2732563316822052,7.432764768600464,0.1639537990093231,0.17084839940071106,0.17186802625656128,0.17135821282863617,-0.054845210164785385,-0.07245743274688721,-0.08079983294010162,-0.7966661144359999,0.796666145324707,0.09217344969511032,-0.07245776057243347,-0.7966417818870818,0.6975403428077698,18,0.0,0.3069126605987549,7.919179552118294e-07,0.0,False,True,False,False,False,False,0.2611755430698395,0.03143583983182907,-0.025011418387293816,0.0001824562350520864,-0.0011646572966128588,0.3716382384300232,0.2732563316822052,0.0,-0.06855650991201401,-0.05311107262969017,-0.20702217519283295,-0.05310945212841034,-0.11933909356594086,0.11933909356594086,0.07298852503299713,1.0,0.07298852503299713,0.6074045896530151,True,0.39259541034698486
normal,105,False,-2.6312825679779053,-0.0547090508043766,-0.8441063138942342,-1.364717960357666,-0.07336997985839844,-0.7647831439971924,-0.08220912516117096,0.37144166231155396,0.2730545997619629,0.37144166231155396,0.2730545997619629,7.428833246231079,0.16383275985717774,0.17123371362686157,0.17241287231445312,0.17182329297065735,-0.05470776930451393,-0.07336923480033875,-0.08220863342285156,-0.8441306464431524,0.8441306352615356,0.098208487033844,-0.07336956262588501,-0.8441063138942342,0.6975403428077698,18,0.0,0.315216064453125,7.919643962850387e-07,0.0,False,True,False,False,False,False,0.26399940252304077,0.023335937410593033,-0.028084011748433113,4.081568022229476e-06,-0.00013855411089025438,0.37144166231155396,0.2730545997619629,0.0,-0.06838471442461014,-0.056275375187397,-0.20962733030319214,-0.05627375468611717,-0.12258801609277725,0.12258801609277725,0.07640843838453293,1.0,0.07640843838453293,0.6043573617935181,True,0.39564260840415955
