Su2050/forklift_sim/outputs/exp83_single_point_steer_diag/exp83_stage1_entry_geometry_v3_seed42_singlepoint_center_zero_steer_steps.csv
mode,step,done,root_x,root_y,root_yaw_deg,fork_center_x,fork_center_y,tip_x,tip_y,raw_drive,raw_steer,applied_drive,applied_steer,drive_target_rad_s,steer_target_rad,left_steer_joint_pos_rad,right_steer_joint_pos_rad,mean_steer_joint_pos_rad,root_y_signed_m,center_y_signed_m,tip_y_signed_m,yaw_err_signed_deg,yaw_err_abs_deg,d_traj_m,d_traj_signed_m,yaw_traj_signed_deg,traj_s_norm,traj_closest_idx,dist_front_m,insert_depth_m,pallet_disp_xy_m,hold_counter,inserted,push_free,hold_entry,clean_insert_ready,dirty_insert,success,policy_vx_r,policy_vy_r,policy_yaw_rate,policy_lift_pos,policy_lift_vel,policy_prev_drive,policy_prev_steer,policy_prev_lift
zero_steer,0,False,-3.5,0.0,0.0,-2.233297824859619,0.0,-1.6332979202270508,0.0,nan,nan,nan,nan,nan,nan,0.0,0.0,0.0,0.0,0.0,0.0,0.0,0.0,0.0,0.0,0.0,0.0,0,0.5532978773117065,0.0,0.0,0.0,False,True,False,False,False,False,0.0,0.0,0.0,0.0,0.0,0.0,0.0,0.0
zero_steer,1,False,-3.4997715950012207,-9.406358003616333e-07,-0.00012278215002187957,-2.23306941986084,-3.6551182347466238e-06,-1.6330695152282715,-4.94088999403175e-06,0.36905983090400696,-0.5543234348297119,0.36905983090400696,0.0,7.381196618080139,0.0,0.00012172054994152859,-0.00012173739378340542,-8.421920938417315e-09,1.345421082987741e-06,-1.3647027117258403e-06,-2.6484099180379417e-06,-0.00012258500407783774,0.0001225849991897121,0.00022843423357699066,-3.654787406048854e-06,-0.00012278215002187957,0.0,0,0.5530694723129272,0.0,2.2988722321315436e-06,0.0,False,True,False,False,False,False,-0.0010068188421428204,6.732896508765407e-06,-0.00011456458742031828,0.0,9.37852655624738e-06,0.36905983090400696,0.0,0.0
zero_steer,2,False,-3.4991402626037598,-3.7671998143196106e-06,-0.0004628397920752886,-2.232438087463379,-1.3999718248669524e-05,-1.6324381828308105,-1.884656558104325e-05,0.370365709066391,-0.5560035705566406,0.370365709066391,0.0,7.40731418132782,0.0,0.00022121320944279432,-0.00022003969934303313,5.86755049880594e-07,8.028387128433678e-07,-9.425320968148299e-06,-1.4270103747549001e-05,-0.0004626426591587987,0.0004626426671165973,0.0008598513668403029,-1.3998450413055252e-05,-0.0004628397920752886,0.0,0,0.5524383783340454,0.0,4.5855667849536985e-06,0.0,False,True,False,False,False,False,-0.0020254577975720167,1.3389993910095654e-05,-0.00022762584558222443,0.0,7.703152732574381e-06,0.370365709066391,0.0,0.0
zero_steer,3,False,-3.4986960887908936,-5.016569048166275e-06,-0.0005706947906581709,-2.231994152069092,-1.7633557945373468e-05,-1.6319940090179443,-2.3609860363649204e-05,0.37057140469551086,-0.5561823844909668,0.37057140469551086,0.0,7.411428093910217,0.0,0.0002922046696767211,-0.0003062265459448099,-7.010938134044409e-06,1.837450440689281e-06,-1.0775179362099152e-05,-1.6749416317907162e-05,-0.000570497657741681,0.0005704976501874626,0.0013037919998168945,-1.7631960872677155e-05,-0.0005706947906581709,0.0,0,0.5519942045211792,0.0,6.8725234996236395e-06,0.0,False,True,False,False,False,False,0.03371664136648178,8.21271023596637e-05,-1.6565483747399412e-05,0.0,-5.8550074754748493e-05,0.37057140469551086,0.0,0.0
zero_steer,4,False,-3.496882438659668,-5.274079740047455e-06,-0.0006084385790123916,-2.230180263519287,-1.8725513655226678e-05,-1.6301803588867188,-2.50970679189777e-05,0.37125131487846375,-0.5570405721664429,0.37125131487846375,0.0,7.425026297569275,0.0,0.0002644490741658956,-0.00027861061971634626,-7.080772775225341e-06,3.863926394842565e-06,-9.583149221725762e-06,-1.595263893250376e-05,-0.0006082414460959018,0.0006082414765842259,0.0031176176853477955,-1.8723818357102573e-05,-0.0006084385790123916,0.0,0,0.5501807928085327,0.0,9.15954660740681e-06,0.0,False,True,False,False,False,False,0.07028055191040039,-7.407461816910654e-05,-9.761377441463992e-05,2.127468157198109e-08,0.00031886243959888816,0.37125131487846375,0.0,0.0
zero_steer,5,False,-3.4938549995422363,-4.598870873451233e-06,-0.0005923990049102257,-2.2271528244018555,-1.7695700080366805e-05,-1.627152919769287,-2.3899288862594403e-05,0.37177494168281555,-0.5576530694961548,0.37177494168281555,0.0,7.435498833656311,0.0,0.0002475491783116013,-0.0002559711574576795,-4.2109895730391145e-06,6.823127023380948e-06,-6.269343430176377e-06,-1.2470867659430951e-05,-0.0005922018719937359,0.0005922018899582326,0.004904063884168863,-1.769383561622817e-05,-0.0005923990049102257,0.009580372832715511,1,0.5471533536911011,0.0,1.1446596545283683e-05,0.0,False,True,False,False,False,False,0.10658935457468033,0.0001724727771943435,-0.00027535323170013726,0.0,0.0005890949396416545,0.37177494168281555,0.0,0.0
zero_steer,6,False,-3.489659309387207,-4.71062958240509e-06,-0.0005703543025597451,-2.222957134246826,-1.732009150146041e-05,-1.6229572296142578,-2.3292828700505197e-05,0.37292492389678955,-0.558740496635437,0.37292492389678955,0.0,7.458498477935791,0.0,0.0002280536136822775,-0.00024421163834631443,-8.079012332018465e-06,6.084836968511809e-06,-6.338515049719717e-06,-1.2223097655805759e-05,-0.0005619361069141543,0.0005619361181743443,0.0007085532997734845,-1.7318267055088654e-05,-0.0005703543025597451,0.009580372832715511,1,0.5429576635360718,0.0,1.1319528312014882e-05,0.0,False,True,False,False,False,False,0.14000841975212097,-3.864350219373591e-05,-0.0001372155820718035,1.8025711767677421e-07,-9.273058822145686e-05,0.37292492389678955,0.0,0.0
zero_steer,7,False,-3.484480142593384,-4.430301487445831e-06,-0.0006087778164658278,-2.217778205871582,-1.7889235095935874e-05,-1.6177780628204346,-2.426434184599202e-05,0.3734332323074341,-0.5593967437744141,0.3734332323074341,0.0,7.468664646148682,0.0,0.00017157041293103248,-0.00020802186918444932,-1.8225728126708418e-05,6.428304004657548e-06,-6.8678532443300355e-06,-1.3165857126296032e-05,-0.0006014150609710659,0.0006014150567352772,0.004470622632652521,-1.78873506229138e-05,-0.0006087778164658278,0.009580372832715511,1,0.537778377532959,0.0,1.131301269197138e-05,0.0,False,True,False,False,False,False,0.1674521118402481,0.00013094767928123474,-0.0001999781816266477,1.0937861816273653e-07,-0.0001446479291189462,0.3734332323074341,0.0,0.0
zero_steer,8,False,-3.4785029888153076,-4.015862941741943e-06,-0.0006344659603323374,-2.211801052093506,-1.804271414584946e-05,-1.6118009090423584,-2.4686825781827793e-05,0.37381482124328613,-0.5597957372665405,0.37381482124328613,0.0,7.476296424865723,0.0,0.00014269335952121764,-0.00014086649753153324,9.134309948422015e-07,6.4633882175257895e-06,-7.240293143695453e-06,-1.3731329090660438e-05,-0.0006198482653629609,0.000619848258793354,0.0009502693428657949,-1.8040520444628783e-05,-0.0006344659603323374,0.017815569415688515,2,0.5318013429641724,0.0,1.1377996088413056e-05,0.0,False,True,False,False,False,False,0.18947161734104156,0.0003548577369656414,-0.0004369144153315574,5.166010907942109e-08,-0.00014377811749000102,0.37381482124328613,0.0,0.0
zero_steer,9,False,-3.4718878269195557,-4.046130925416946e-06,-0.0006497889669656553,-2.205185890197754,-1.841174525907263e-05,-1.6051857471466064,-2.5216319045284763e-05,0.3742069900035858,-0.5602480173110962,0.3742069900035858,0.0,7.484139800071716,0.0,0.00010092042793985456,-7.466539682354778e-05,1.3127515558153391e-05,6.3921734181349166e-06,-7.64080868975725e-06,-1.4287824342318345e-05,-0.0006347432387485792,0.0006347432499751449,0.0006630592979490757,-1.8409204130875878e-05,-0.0006497889669656553,0.024949943646788597,3,0.5251861810684204,0.0,1.1360023563611321e-05,0.0,False,True,False,False,False,False,0.20710180699825287,0.00017261710308957845,-0.00028680235845968127,4.9617558062209355e-08,-4.807161167263985e-05,0.3742069900035858,0.0,0.0
zero_steer,10,False,-3.46475887298584,-4.568137228488922e-06,-0.0006482946546438835,-2.198056697845459,-1.8900715076597407e-05,-1.5980567932128906,-2.5689640096970834e-05,0.3746459186077118,-0.5607039928436279,0.3746459186077118,0.0,7.492918372154236,0.0,6.388627662090585e-05,-2.414707705611363e-05,1.9869599782396108e-05,5.91554589846055e-06,-8.095167686406057e-06,-1.4731635928910691e-05,-0.0006337360526502667,0.0006337360828183591,0.0007743758615106344,-1.8897824702435173e-05,-0.0006482946546438835,0.031228050589561462,4,0.5180572271347046,0.0,1.1372853805369232e-05,0.0,False,True,False,False,False,False,0.22133700549602509,-0.00023360220075119287,0.0001050135979312472,2.5647338475209835e-08,1.6471967683173716e-06,0.3746459186077118,0.0,0.0
zero_steer,11,False,-3.4572153091430664,-3.873370587825775e-06,-0.0006626973428954601,-2.1905131340026855,-1.8524364350014366e-05,-1.5905132293701172,-2.5464114514761604e-05,0.3747454881668091,-0.5609579086303711,0.3747454881668091,0.0,7.494909763336182,0.0,1.8017961338046007e-05,4.2175728594884276e-05,3.0096845875959843e-05,7.011731213424355e-06,-7.485011337848846e-06,-1.4351697245729156e-05,-0.0006557202029391663,0.0006557201850228012,0.00023438339121639729,-1.852133391366806e-05,-0.0006626973428954601,0.03689507395029068,5,0.5105136632919312,0.0,1.1316151358187199e-05,0.0,False,True,False,False,False,False,0.23283763229846954,0.00018119567539542913,-0.00019209992024116218,3.2400149052591587e-07,-0.00011234630073886365,0.3747454881668091,0.0,0.0
zero_steer,12,False,-3.4493372440338135,-5.152542144060135e-06,-0.0006497062680657163,-2.1826353073120117,-1.9516328393365256e-05,-1.5826351642608643,-2.63200363406213e-05,0.3747829496860504,-0.5611158609390259,0.3747829496860504,0.0,7.495658993721008,0.0,-2.217078144894913e-05,6.115782161941752e-05,1.9493520085234195e-05,5.076257366454229e-06,-8.870961210050154e-06,-1.547735337226186e-05,-0.0006308639985417977,0.0006308640004135668,0.0019994734320789576,-1.9513061488396488e-05,-0.0006497062680657163,0.04219473898410797,6,0.5026355981826782,0.0,1.1371938853699248e-05,0.0,False,True,False,False,False,False,0.242095947265625,-8.633525430923328e-05,2.9864053431083448e-05,2.0847153336944757e-07,-0.0001869257539510727,0.3747829496860504,0.0,0.0
zero_steer,13,False,-3.4411871433258057,-5.0961971282958984e-06,-0.000666648547299353,-2.174485206604004,-1.9834544218610972e-05,-1.5744850635528564,-2.6815670935320668e-05,0.3751259744167328,-0.5614244937896729,0.3751259744167328,0.0,7.502519488334656,0.0,-3.80623278033454e-05,0.0001377585722366348,4.98481240356341e-05,5.084184522274882e-06,-9.224217137671076e-06,-1.600169161974918e-05,-0.0006472011740412868,0.0006472012028098106,0.0019343915628269315,-1.9831510144285858e-05,-0.000666648547299353,0.052672307938337326,8,0.49448561668395996,0.0,1.136251103162067e-05,0.0,False,True,False,False,False,False,0.2495996505022049,0.0003495342971291393,-0.00043555558659136295,8.304912313406021e-08,-9.464250615565106e-05,0.3751259744167328,0.0,0.0
zero_steer,14,False,-3.432819366455078,-6.462913006544113e-06,-0.0006921486254255475,-2.1661171913146973,-2.1765019482700154e-05,-1.566117286682129,-2.90131829387974e-05,0.37541332840919495,-0.5616130828857422,0.37541332840919495,0.0,7.508266568183899,0.0,-0.00010430599650135264,0.00022729999909643084,6.149700493551791e-05,3.7797824461449636e-06,-1.1114889275631867e-05,-1.8170061593991704e-05,-0.000673719433519661,0.0006737194489687681,0.0001038721893564798,-2.1762014512205496e-05,-0.0006921486254255475,0.058338917791843414,9,0.48611772060394287,0.0,1.1358168194419704e-05,0.0,False,True,False,False,False,False,0.25568079948425293,0.00035501981619745493,-0.00041644537122920156,1.2245725322657108e-08,4.271656507626176e-05,0.37541332840919495,0.0,0.0
zero_steer,15,False,-3.424274444580078,-7.295049726963043e-06,-0.000723872382011994,-2.1575722694396973,-2.3298505766433664e-05,-1.557572364807129,-3.0878880352247506e-05,0.3755251169204712,-0.5617810487747192,0.3755251169204712,0.0,7.510502338409424,0.0,-0.00014205591287463903,0.0002180102892452851,3.797718818532303e-05,3.175198571625515e-06,-1.2510666238085832e-05,-1.9940607671742328e-05,-0.0007095070567794823,0.0007095070905052125,0.0012030473444610834,-2.3295673599932343e-05,-0.000723872382011994,0.06461702287197113,10,0.47757279872894287,0.0,1.1337608157191426e-05,0.0,False,True,False,False,False,False,0.26047563552856445,-4.863960202783346e-05,-2.8876393116661347e-06,3.1950162338034716e-07,-0.0002660419559106231,0.3755251169204712,0.0,0.0
zero_steer,16,False,-3.41558837890625,-7.492490112781525e-06,-0.0006712960483012204,-2.148886203765869,-2.233358463854529e-05,-1.5488862991333008,-2.936338023573626e-05,0.3754335939884186,-0.5619267225265503,0.3754335939884186,0.0,7.508671879768372,0.0,-0.00015449881902895868,0.0003432761877775192,9.438868437428027e-05,3.3892833926074672e-06,-1.129318570747273e-05,-1.824784339987673e-05,-0.000664121045885526,0.0006641210638917983,0.0016607355792075396,-2.2331232685246505e-05,-0.0006712960483012204,0.07175160199403763,11,0.46888673305511475,0.0,1.1319546501908917e-05,0.0,False,True,False,False,False,False,0.2645333707332611,0.0006748323794454336,-0.0006409739144146442,2.58769659922109e-07,-0.0002866832946892828,0.3754335939884186,0.0,0.0
zero_steer,17,False,-3.4067866802215576,-7.4007548391819e-06,-0.0006100832813941661,-2.140084743499756,-2.0888550352538005e-05,-1.5400846004486084,-2.72773268079618e-05,0.3756706118583679,-0.5620700120925903,0.3756706118583679,0.0,7.513412237167358,0.0,-0.00021968425426166505,0.0004241150163579732,0.00010221538104815409,2.7685455279424787e-06,-1.0277111869072542e-05,-1.6456460798508488e-05,-0.0005900843736956747,0.0005900843534618616,0.0009648677078075707,-2.0886658603558317e-05,-0.0006100832813941661,0.07998659461736679,12,0.46008503437042236,0.0,1.1366088983777445e-05,0.0,False,True,False,False,False,False,0.2676597237586975,0.0005028138402849436,-0.0004808283119928092,1.9453612765119033e-07,-0.00019945850363001227,0.3756706118583679,0.0,0.0
zero_steer,18,False,-3.3978939056396484,-8.005183190107346e-06,-0.0005330802356195448,-2.1311917304992676,-1.979058470169548e-05,-1.5311918258666992,-2.5372988602612168e-05,0.375669926404953,-0.5620275735855103,0.375669926404953,0.0,7.51339852809906,0.0,-0.0002941773273050785,0.0006113441195338964,0.00015858339611440897,1.622112563381961e-06,-9.482690074946731e-06,-1.4742714483872987e-05,-0.0005022951923182288,0.0005022952100262046,0.001191780436784029,0.0,-0.0005330802356195448,0.08956717699766159,13,0.45119214057922363,0.0,1.1457674190751277e-05,0.0,False,True,False,False,False,False,0.27018940448760986,0.0001892603759188205,-0.00016091681027319282,2.0381881427056214e-07,-0.0002931328199338168,0.375669926404953,0.0,0.0
zero_steer,19,False,-3.388930082321167,-9.411945939064026e-06,-0.00044542060021894104,-2.1222281455993652,-1.925935794133693e-05,-1.5222280025482178,-2.392379246884957e-05,0.37550321221351624,-0.5619778633117676,0.37550321221351624,0.0,7.510064244270325,0.0,-0.0002971379435621202,0.0007781668682582676,0.00024051446234807372,3.3896242257469567e-07,-8.87260557647096e-06,-1.3235860023996793e-05,-0.00041665996032927085,0.00041665995377115905,0.007771992590278387,-0.0,-0.00044542060021894104,0.08956717699766159,13,0.4422283172607422,0.0,1.1458594599389471e-05,0.0,False,True,False,False,False,False,0.27197790145874023,0.0007384874625131488,-0.0009142105118371546,1.1171486136163367e-07,-0.00030178407905623317,0.37550321221351624,0.0,0.0
zero_steer,20,False,-3.379908323287964,-9.032897651195526e-06,-0.00041527971725259445,-2.113206386566162,-1.8213951989309862e-05,-1.5132062435150146,-2.2562751837540418e-05,0.37546584010124207,-0.5619736909866333,0.37546584010124207,0.0,7.509316802024841,0.0,-0.0004148906737100333,0.0009788472671061754,0.00028197828214615583,7.010220315351035e-07,-7.832706614863127e-06,-1.1874886695295572e-05,-0.00038599972097587795,0.0003859997377730906,0.016793737187981606,-0.0,-0.00041527971725259445,0.08956717699766159,13,0.43320655822753906,0.0,1.146674003393855e-05,0.0,False,True,False,False,False,False,0.2736465334892273,0.000489714671857655,-0.0004925852990709245,2.379081820436113e-07,-0.00037602114025503397,0.37546584010124207,0.0,0.0
zero_steer,21,False,-3.370840549468994,-9.597744792699814e-06,-0.00032435879054560436,-2.1041383743286133,-1.676870851952117e-05,-1.504138469696045,-2.01653856493067e-05,0.37546858191490173,-0.5619550943374634,0.37546858191490173,0.0,7.509371638298035,0.0,-0.0005214711418375373,0.0012350368779152632,0.00035678286803886294,1.1453369097580435e-07,-6.400473466783296e-06,-9.486443559580948e-06,-0.0002946884106463968,0.0002946884196717292,0.025861745700240135,-0.0,-0.00032435879054560436,0.08956717699766159,13,0.4241389036178589,0.0,1.1466571777418721e-05,0.0,False,True,False,False,False,False,0.2748681902885437,0.00011590041685849428,-0.00032642591395415366,1.1198898697273307e-08,-0.00011959801486227661,0.37546858191490173,0.0,0.0
zero_steer,22,False,-3.3617372512817383,-9.937211871147156e-06,-0.00023624848001196794,-2.0950350761413574,-1.5160222574195359e-05,-1.495035171508789,-1.763421096256934e-05,0.3753988444805145,-0.5619962215423584,0.3753988444805145,0.0,7.5079768896102905,0.0,-0.0006261898088268936,0.0014949075412005186,0.0004343588661868125,3.834111339529045e-08,-4.651279596146196e-06,-6.872616722830571e-06,-0.00021212205302115032,0.00021212206047493964,0.034965042024850845,-0.0,-0.00023624848001196794,0.08956717699766159,13,0.4150354862213135,0.0,1.1397718481021002e-05,0.0,False,True,False,False,False,False,0.27555474638938904,7.581701356684789e-05,-0.0003320277319289744,8.040039034540314e-08,-0.0003791677299886942,0.3753988444805145,0.0,0.0
zero_steer,23,False,-3.352613925933838,-1.1043623089790344e-05,-0.00010797562720039737,-2.085911750793457,-1.3430761100607924e-05,-1.4859118461608887,-1.4561479474650696e-05,0.3755512535572052,-0.5619988441467285,0.3755512535572052,0.0,7.511025071144104,0.0,-0.0006993984570726752,0.0019031758420169353,0.0006018886924721301,-1.247323439201864e-06,-3.0089022402535193e-06,-3.843311333184829e-06,-7.968016862288429e-05,7.968016871018335e-05,0.044088367372751236,-0.0,-0.00010797562720039737,0.08956717699766159,13,0.40591228008270264,0.0,1.1461906979093328e-05,0.0,False,True,False,False,False,False,0.27605298161506653,-9.996379230869934e-05,-0.00019281079585198313,2.1434905761452683e-07,-0.0003159508923999965,0.3755512535572052,0.0,0.0
zero_steer,24,False,-3.343475341796875,-1.1951662600040436e-05,2.1083917135416116e-05,-2.076773166656494,-1.148553656094009e-05,-1.4767732620239258,-1.1264746717642993e-05,0.3753935396671295,-0.5619214773178101,0.3753935396671295,0.0,7.50787079334259,0.0,-0.0007501746877096593,0.0024423091672360897,0.0008460672106593847,-1.944434188771993e-06,-9.490173056292406e-07,-4.775178581439832e-07,4.502491972208167e-05,4.5024920837022364e-05,0.05322695150971413,-0.0,2.1083917135416116e-05,0.08956717699766159,13,0.3967735767364502,0.0,1.1409903891035356e-05,0.0,False,True,False,False,False,False,0.2763662338256836,-0.0004041680658701807,0.000260703032836318,2.549401472151658e-07,-0.00017881362873595208,0.3753935396671295,0.0,0.0
zero_steer,25,False,-3.3343257904052734,-1.2526754289865494e-05,0.00013294892974869568,-2.0676236152648926,-9.58750388235785e-06,-1.4676237106323242,-8.195265763788484e-06,0.3753412663936615,-0.5619238615036011,0.3753412663936615,0.0,7.50682532787323,0.0,-0.0009535226272419095,0.003049107501283288,0.0010477923788130283,-2.4512598884030012e-06,9.983450581785291e-07,2.632323230500333e-06,0.00015603341313253087,0.00015603342035319656,0.06237649917602539,-0.0,0.00013294892974869568,0.08956717699766159,13,0.38762402534484863,0.0,1.1423599971749354e-05,0.0,False,True,False,False,False,False,0.27668634057044983,-0.0004395226133055985,-0.00015070528024807572,1.6491921428496426e-07,-8.608228381490335e-05,0.3753412663936615,0.0,0.0
zero_steer,26,False,-3.325169563293457,-1.2109987437725067e-05,0.00020942683490319367,-2.058467388153076,-7.479953637812287e-06,-1.4584674835205078,-5.286840860208031e-06,0.3754741847515106,-0.561963677406311,0.3754741847515106,0.0,7.509483695030212,0.0,-0.0009781859116628766,0.003724464448168874,0.0013731392100453377,-2.198881020376575e-06,3.002294761245139e-06,5.46594083061791e-06,0.00023526086129672239,0.00023526085715275258,0.0715327262878418,-0.0,0.00020942683490319367,0.08956717699766159,13,0.3784679174423218,0.0,1.1418013855291065e-05,0.0,False,True,False,False,False,False,0.27671167254447937,3.993326754425652e-05,7.489466952392831e-05,1.8507783750010276e-08,-0.00025987974368035793,0.3754741847515106,0.0,0.0
zero_steer,27,False,-3.316011905670166,-1.166248694062233e-05,0.0001993083483115499,-2.049309730529785,-7.256154276547022e-06,-1.4493098258972168,-5.1690017244254705e-06,0.3754100203514099,-0.5619784593582153,0.3754100203514099,0.0,7.508200407028198,0.0,-0.0012532963883131742,0.004313088487833738,0.001529896049760282,-1.9901535779354163e-06,3.099434707110049e-06,5.510225491889287e-06,0.0002302135186696299,0.00023021352535579354,0.08069038391113281,-0.0,0.0001993083483115499,0.08956717699766159,13,0.3693101406097412,0.0,1.1467527656350285e-05,0.0,False,True,False,False,False,False,0.2768265902996063,-0.0009228760027326643,0.0008239971939474344,8.182872335282809e-08,-0.0003580303455237299,0.3754100203514099,0.0,0.0
zero_steer,28,False,-3.3068509101867676,-1.4090444892644882e-05,0.0001273277104295404,-2.0401487350463867,-1.1275468750682194e-05,-1.4401488304138184,-9.942095857695676e-06,0.37532839179039,-0.5618982315063477,0.37532839179039,0.0,7.5065678358078,0.0,-0.0014353545848280191,0.004855697974562645,0.001710171694867313,-4.354666998551693e-06,-8.787609431237797e-07,7.676752602492343e-07,0.00015722306312380898,0.000157223068526946,0.08514857292175293,-1.1275404176558368e-05,0.0001273277104295404,0.24130578339099884,15,0.3601492643356323,0.0,1.1468792763480451e-05,0.0,False,True,False,False,False,False,0.2770482897758484,-0.0001112767931772396,-0.0002817002241499722,2.286773792548047e-07,-2.426136052235961e-05,0.37532839179039,0.0,0.0
zero_steer,29,False,-3.2976882457733154,-1.1474359780550003e-05,-0.00022163114981404669,-2.0309863090515137,-1.6374207916669548e-05,-1.4309861660003662,-1.8695123799261637e-05,0.37546807527542114,-0.5619879961013794,0.37546807527542114,0.0,7.509361505508423,0.0,-0.0018972153775393963,0.005296353716403246,0.0016995691694319248,-1.7090907249439624e-06,-5.96276640862925e-06,-7.977609129738994e-06,-0.0001924033158554392,0.0001924033131217584,0.07598614692687988,-1.6374113329220563e-05,-0.00022163114981404669,0.24130578339099884,15,0.3509865999221802,0.0,1.1456217180239037e-05,0.0,False,True,False,False,False,False,0.27672263979911804,-0.0024498580023646355,0.0022508539259433746,2.5446041718169e-07,-0.00032062589889392257,0.37546807527542114,0.0,0.0
zero_steer,30,False,-3.2885310649871826,-9.560026228427887e-06,-0.000665218017872052,-2.021829128265381,-2.4266744730994105e-05,-1.4218289852142334,-3.12328920699656e-05,0.37546467781066895,-0.5620250701904297,0.37546467781066895,0.0,7.509293556213379,0.0,-0.0024785962887108326,0.005743405316025019,0.001632404513657093,7.305868621187983e-08,-1.3934462913312018e-05,-2.056942139461171e-05,-0.0006335917594845886,0.0006335917860269547,0.06682897359132767,-2.4266606487799436e-05,-0.000665218017872052,0.24130578339099884,15,0.34182941913604736,0.0,1.145589612860931e-05,0.0,False,True,False,False,False,False,0.27659305930137634,0.0009935173438861966,-0.0013593873009085655,4.009545477856591e-07,-0.00011436361819505692,0.37546467781066895,0.0,0.0
zero_steer,31,False,-3.2793824672698975,-2.432148903608322e-06,-0.0022833555015320697,-2.0126805305480957,-5.2912851970177144e-05,-1.4126803874969482,-7.682409341214225e-05,0.3755703270435333,-0.5620969533920288,0.3755703270435333,0.0,7.5114065408706665,0.0,-0.00363646331243217,0.0058432831428945065,0.0011034099152311683,7.3401006375206634e-06,-4.24939498770982e-05,-6.609888805542141e-05,-0.002254106041837183,0.002254106104373932,0.057680390775203705,-5.2912550017936155e-05,-0.0022833555015320697,0.24130578339099884,15,0.3326808214187622,0.0,1.1455102139734663e-05,0.0,False,True,False,False,False,False,0.27631285786628723,0.0006271432503126562,-0.0008040213142521679,2.7880258812729153e-07,-0.00016531955043319613,0.3755703270435333,0.0,0.0
zero_steer,32,False,-3.2702412605285645,6.70040026307106e-06,-0.004032640152392394,-2.0035390853881836,-8.245370554504916e-05,-1.4035391807556152,-0.00012468341446947306,0.37542787194252014,-0.561941385269165,0.37542787194252014,0.0,7.508557438850403,0.0,-0.004725312814116478,0.005940105300396681,0.0006073962431401014,1.621658338990528e-05,-7.21810502000153e-05,-0.00011405244731577113,-0.003998423756121207,0.0039984239265322685,0.048538994044065475,-8.245323260780424e-05,-0.004032640152392394,0.24130578339099884,15,0.32353949546813965,0.0,1.1475689461803995e-05,0.0,False,True,False,False,False,False,0.2760625183582306,0.0003282263642176986,-0.0005450526368804276,3.0715065690856136e-07,-7.139951048884541e-05,0.37542787194252014,0.0,0.0
zero_steer,33,False,-3.261108160018921,1.4369376003742218e-05,-0.005747544155606228,-1.9944061040878296,-0.00011269802052993327,-1.3944060802459717,-0.00017288616800215095,0.3753983676433563,-0.5618646144866943,0.3753983676433563,0.0,7.5079673528671265,0.0,-0.005713422782719135,0.006018985994160175,0.00015278160572052002,2.449346902722027e-05,-0.00010207305604126304,-0.00016202394908759743,-0.005724888721619146,0.005724888760596514,0.039406102150678635,-0.00011269737296970561,-0.005747544155606228,0.24130578339099884,15,0.3144063949584961,0.0,1.1420158443797845e-05,0.0,False,True,False,False,False,False,0.27580687403678894,0.0009578469325788319,-0.001007472281344235,2.917745405284222e-07,-0.00016401699394918978,0.3753983676433563,0.0,0.0
zero_steer,34,False,-3.2519829273223877,2.266792580485344e-05,-0.00751768956489352,-1.9852808713912964,-0.0001435340818716213,-1.3852808475494385,-0.00022225914290174842,0.37532535195350647,-0.5618619918823242,0.37532535195350647,0.0,7.506507039070129,0.0,-0.00655833724886179,0.006096161901950836,-0.00023108767345547676,3.2459083740832284e-05,-0.0001330993982264772,-0.00021151965484023094,-0.007488582053404956,0.007488582283258438,0.030281050130724907,-0.00014353326696436852,-0.00751768956489352,0.24130578339099884,15,0.30528128147125244,0.0,1.1453173101472203e-05,0.0,False,True,False,False,False,False,0.27560603618621826,0.0008390944567508996,-0.0010590923484414816,4.4363343931763666e-07,-0.00016639725072309375,0.37532535195350647,0.0,0.0
zero_steer,35,False,-3.242863893508911,3.0502211302518845e-05,-0.00945649112113854,-1.9761618375778198,-0.00017856305930763483,-1.376161813735962,-0.00027759119984693825,0.37538036704063416,-0.5617949962615967,0.37538036704063416,0.0,7.507607340812683,0.0,-0.007338755298405886,0.006173760164529085,-0.0005824975669384003,4.0034661651588976e-05,-0.00016827158106025308,-0.00026694018743000925,-0.009422158414883317,0.00942215882241726,0.021162429824471474,-0.00017856204067356884,-0.00945649112113854,0.24130578339099884,15,0.29616212844848633,0.0,1.1482179615995847e-05,0.0,False,True,False,False,False,False,0.27539217472076416,0.00046618367196060717,-0.0006016056868247688,3.6768622635463544e-07,-0.0001715757534839213,0.37538036704063416,0.0,0.0
zero_steer,36,False,-3.233750104904175,3.663869574666023e-05,-0.01116575263104084,-1.9670480489730835,-0.00021021513384766877,-1.3670480251312256,-0.0003271426248829812,0.3753415644168854,-0.5617454051971436,0.3753415644168854,0.0,7.5068312883377075,0.0,-0.00795774906873703,0.006292261648923159,-0.0008327437099069357,4.6129527618177235e-05,-0.00019994212198071182,-0.00031649912125431,-0.011130372718047638,0.011130372993648052,0.012049720622599125,-0.0002102139260387048,-0.01116575263104084,0.24130578339099884,15,0.28704845905303955,0.0,1.1495215403556358e-05,0.0,False,True,False,False,False,False,0.2752940356731415,0.0008699230966158211,-0.001006833161227405,4.7449404405597306e-07,-0.00013027765089645982,0.3753415644168854,0.0,0.0
zero_steer,37,False,-3.224642753601074,4.486739635467529e-05,-0.0131691733463732,-1.957940697669983,-0.0002462783013470471,-1.357940673828125,-0.0003841855505015701,0.3754471242427826,-0.5618342161178589,0.3754471242427826,0.0,7.508942484855652,0.0,-0.008494113571941853,0.006369507405906916,-0.0010623030830174685,5.492948184837587e-05,-0.00023569604672957212,-0.0003733568883035332,-0.013145644545301698,0.013145645149052143,0.002950830850750208,-0.00024627690436318517,-0.0131691733463732,0.24130578339099884,15,0.2779409885406494,0.0,1.1391013686079532e-05,0.0,False,True,False,False,False,False,0.2750946581363678,0.0004685147141572088,-0.0005693769198842347,2.506057512619009e-07,-0.00015921081649139524,0.3754471242427826,0.0,0.0
zero_steer,38,False,-3.215540647506714,5.21363690495491e-05,-0.015066306746617174,-1.948838710784912,-0.00028095138259232044,-1.3488386869430542,-0.00043872540118172765,0.3755315840244293,-0.5618892908096313,0.3755315840244293,0.0,7.510631680488586,0.0,-0.008946885354816914,0.006460533477365971,-0.0012431759387254715,6.19625425315462e-05,-0.0002704742946662009,-0.00042793998727574944,-0.01503686656356137,0.015036867000162601,0.006167853716760874,-0.0002809497818816453,-0.015066308414143827,0.24130578339099884,15,0.26883912086486816,0.0,1.1487233678053599e-05,0.0,False,True,False,False,False,False,0.2749110162258148,0.0007849930552765727,-0.000879879342392087,2.899781179621641e-07,-7.651806663488969e-05,0.3755315840244293,0.0,0.0
zero_steer,39,False,-3.2064454555511475,5.962280556559563e-05,-0.016967860760017814,-1.9397435188293457,-0.0003155047306790948,-1.3397434949874878,-0.0004931917646899819,0.37547045946121216,-0.5619112253189087,0.37547045946121216,0.0,7.509409189224243,0.0,-0.009323714300990105,0.006555268540978432,-0.0013842228800058365,6.931638199603185e-05,-0.00030511250952258706,-0.00048246863298118114,-0.01693626112994659,0.01693626120686531,0.015259905718266964,-0.0003155029262416065,-0.016967862427544465,0.24130578339099884,15,0.25974392890930176,0.0,1.1470800018287264e-05,0.0,False,True,False,False,False,False,0.27483025193214417,0.001055483822710812,-0.001204867148771882,2.9286005087669764e-07,-0.00011252659896854311,0.37547045946121216,0.0,0.0
zero_steer,40,False,-3.1973509788513184,6.745569407939911e-05,-0.019000805868501947,-1.9306490421295166,-0.00035261642187833786,-1.3306490182876587,-0.0005515923839993775,0.37545204162597656,-0.5619075298309326,0.37545204162597656,0.0,7.509040832519531,0.0,-0.009649909101426601,0.006622618995606899,-0.001513645052909851,7.716783875366673e-05,-0.0003422040899749845,-0.0005408484139479697,-0.018969137869837956,0.018969137221574783,0.024353671818971634,-0.00035261441371403635,-0.019000807536028598,0.24130578339099884,15,0.2506493330001831,0.0,1.1487053598102648e-05,0.0,False,True,False,False,False,False,0.2747028172016144,0.0004161809920333326,-0.0005234116106294096,2.391182647443202e-07,-0.00016940044588409364,0.37545204162597656,0.0,0.0
zero_steer,41,False,-3.1882612705230713,7.463525980710983e-05,-0.020815758552714246,-1.9215593338012695,-0.00038556207437068224,-1.3215593099594116,-0.00060354417655617,0.3755998909473419,-0.5618795156478882,0.3755998909473419,0.0,7.511997818946838,0.0,-0.009906710125505924,0.0067236460745334625,-0.0015915320254862309,8.453344344161451e-05,-0.0003750598698388785,-0.0005927558522671461,-0.020788437796034193,0.020788438618183136,0.03344304859638214,-0.00038555986247956753,-0.020815758552714246,0.24130578339099884,15,0.24155962467193604,0.0,1.1425046977819875e-05,0.0,False,True,False,False,False,False,0.27474379539489746,0.0007633342174813151,-0.0009960526367649436,3.359937181812711e-07,-4.329242801759392e-05,0.3755998909473419,0.0,0.0
zero_steer,42,False,-3.179170608520508,7.920525968074799e-05,-0.022849800893735943,-1.912468671798706,-0.00042596092680469155,-1.3124686479568481,-0.0006652434822171926,0.37566083669662476,-0.5619450807571411,0.37566083669662476,0.0,7.513216733932495,0.0,-0.01016625203192234,0.006816284731030464,-0.0016749836504459381,8.892075129551813e-05,-0.00041554716881364584,-0.0006544989882968366,-0.022818217938931247,0.022818218916654587,0.04253362491726875,-0.0004259584820829332,-0.022849800893735943,0.24130578339099884,15,0.23246896266937256,0.0,1.1474487109808251e-05,0.0,False,True,False,False,False,False,0.27458101511001587,0.0016919584013521671,-0.00159627350512892,2.667891578767012e-07,1.7763522919267416e-07,0.37566083669662476,0.0,0.0
zero_steer,43,False,-3.170090436935425,8.69976356625557e-05,-0.02497761326102652,-1.903388500213623,-0.00046521046897396445,-1.3033885955810547,-0.0007267754408530891,0.3756304085254669,-0.5619701147079468,0.3756304085254669,0.0,7.512608170509338,0.0,-0.010113054886460304,0.006888873875141144,-0.0016120905056595802,9.652395965531468e-05,-0.0004549162113107741,-0.0007161174435168505,-0.024942880348374618,0.024942880496382713,0.051613759249448776,-0.0004652078205253929,-0.024977614928553174,0.24130578339099884,15,0.2233889102935791,0.0,1.1452875696704723e-05,0.0,False,True,False,False,False,False,0.2740960717201233,0.0006704299012199044,-0.000821380817797035,2.4620618432891206e-07,9.534857235848904e-05,0.3756304085254669,0.0,0.0
zero_steer,44,False,-3.161019802093506,9.268010035157204e-05,-0.027027488767616886,-1.894317865371704,-0.0005048468592576683,-1.2943179607391357,-0.0007878780597820878,0.3756234049797058,-0.5619735717773438,0.3756234049797058,0.0,7.512468099594116,0.0,-0.010369556955993176,0.006986081600189209,-0.0016917376779019833,0.0001026267564157024,-0.0004943124367855489,-0.0007770651718601584,-0.027000901722664082,0.027000902220606804,0.06068439781665802,-0.0005048439488746226,-0.027027488767616886,0.24130578339099884,15,0.2143183946609497,0.0,1.1421100680308882e-05,0.0,False,True,False,False,False,False,0.2739977240562439,0.0010554571636021137,-0.001164214569143951,2.370831140297014e-07,-0.00011056827497668564,0.3756234049797058,0.0,0.0
zero_steer,45,False,-3.1519479751586914,9.814929217100143e-05,-0.029126701385284687,-1.8852460384368896,-0.0005457873921841383,-1.2852461338043213,-0.0008508014725521207,0.3756081163883209,-0.5619246959686279,0.3756081163883209,0.0,7.5121623277664185,0.0,-0.010538601316511631,0.007064825389534235,-0.001736887963488698,0.00010781535092974082,-0.0005353809101507068,-0.0008400442311540246,-0.02909320744493584,0.02909320779144764,0.06975626200437546,-0.000545784248970449,-0.029126701385284687,0.24130578339099884,15,0.2052464485168457,0.0,1.1515051483002026e-05,0.0,False,True,False,False,False,False,0.2741337716579437,0.0017039856174960732,-0.0015554818091914058,1.6719364737127762e-07,6.885878974571824e-05,0.3756081163883209,0.0,0.0
zero_steer,46,False,-3.1428756713867188,0.00010419217869639397,-0.03132088965099137,-1.8761738538742065,-0.0005882538971491158,-1.2761739492416382,-0.0009162455098703504,0.3756020963191986,-0.5619927644729614,0.3756020963191986,0.0,7.512041926383972,0.0,-0.010624679736793041,0.007135918829590082,-0.0017443804536014795,0.00011392009764676914,-0.0005778229678981006,-0.0009054815745912492,-0.0312890932527751,0.03128909319639206,0.07882849872112274,-0.0005882505211047828,-0.03132089298604467,0.24130578339099884,15,0.19617438316345215,0.0,1.1480894499982242e-05,0.0,False,True,False,False,False,False,0.2741503417491913,0.000725873454939574,-0.000966181221883744,2.018623348476467e-07,0.0002865112037397921,0.3756020963191986,0.0,0.0
zero_steer,47,False,-3.133803606033325,0.00010899454355239868,-0.03332167484044892,-1.867101788520813,-0.0006276849890127778,-1.2671018838882446,-0.0009766287403181195,0.37544339895248413,-0.5618878602981567,0.37544339895248413,0.0,7.508867979049683,0.0,-0.010776660405099392,0.007240470964461565,-0.0017680947203189135,0.00011882290709763765,-0.0006172002176754177,-0.0009658330236561596,-0.03329198286086854,0.03329198434948921,0.08710407465696335,-0.0006276813801378012,-0.03332167484044892,0.3930446207523346,16,0.18710219860076904,0.0,1.1459889719844796e-05,0.0,False,True,False,False,False,False,0.27407264709472656,0.0012426405446603894,-0.0012816142989322543,3.309119449568243e-07,1.3571785530075431e-05,0.37544339895248413,0.0,0.0
zero_steer,48,False,-3.12473464012146,0.00011479388922452927,-0.03529390196845002,-1.8580328226089478,-0.0006654878379777074,-1.2580329179763794,-0.0010350847151130438,0.37535548210144043,-0.5619359016418457,0.37535548210144043,0.0,7.507109642028809,0.0,-0.010737466625869274,0.007336909417062998,-0.0017002786044031382,0.00012468695058487356,-0.0006549727404490113,-0.0010242750868201256,-0.035265767458763385,0.03526576608419418,0.07803568989038467,-0.000665484054479748,-0.03529390196845002,0.3930446207523346,16,0.1780332326889038,0.0,1.1433092367951758e-05,0.0,False,True,False,False,False,False,0.2739740312099457,0.001626961282454431,-0.0016215430805459619,2.1625844226491608e-07,0.00012018438428640366,0.37535548210144043,0.0,0.0
zero_steer,49,False,-3.115665912628174,0.0001196512021124363,-0.03762693183832506,-1.8489642143249512,-0.0007122094975784421,-1.2489643096923828,-0.0011062377598136663,0.37547174096107483,-0.5619117021560669,0.37547174096107483,0.0,7.509434819221497,0.0,-0.010653163306415081,0.007409031968563795,-0.001622065668925643,0.00012968458759132773,-0.0007015964947640896,-0.001095350249670446,-0.037600714984289185,0.03760071471333504,0.06896792352199554,-0.0007122054230421782,-0.03762693183832506,0.3930446207523346,16,0.16896462440490723,0.0,1.1464558156148996e-05,0.0,False,True,False,False,False,False,0.27390360832214355,0.0007345456397160888,-0.0007002490456216037,3.453711769907386e-07,5.635694833472371e-05,0.37547174096107483,0.0,0.0
zero_steer,50,False,-3.106600522994995,0.0001247962936758995,-0.039854627384593805,-1.8398988246917725,-0.0007563145481981337,-1.239898920059204,-0.0011736712185665965,0.3752512037754059,-0.561921238899231,0.3752512037754059,0.0,7.505024075508118,0.0,-0.01048197504132986,0.007498642895370722,-0.0014916660729795694,0.0001345906057395041,-0.0007458412437699735,-0.0011628763750195503,-0.03982391487870189,0.03982391580939293,0.05990362912416458,-0.0007563102408312261,-0.039854627384593805,0.3930446207523346,16,0.15989935398101807,0.0,1.1470698154880665e-05,0.0,False,True,False,False,False,False,0.27394646406173706,0.0004541241214610636,-0.000640686834231019,5.4070934396577286e-08,-0.0001409805699950084,0.3752512037754059,0.0,0.0
zero_steer,51,False,-3.097534418106079,0.00013021565973758698,-0.041980593799879694,-1.8308327198028564,-0.0007978962967172265,-1.2308329343795776,-0.0012375160586088896,0.37534114718437195,-0.5618888139724731,0.37534114718437195,0.0,7.506822943687439,0.0,-0.010435372591018677,0.007576150819659233,-0.0014296108856797218,0.0001400649343850091,-0.0007873910944908857,-0.0012267002603039145,-0.041950925165672455,0.041950926184654236,0.050839006900787354,-0.0007978917565196753,-0.041980597134933004,0.3930446207523346,16,0.15083324909210205,0.0,1.145880924013909e-05,0.0,False,True,False,False,False,False,0.2739189863204956,0.0010301659349352121,-0.0012091106036677957,3.6219697108208493e-07,0.00015593745047226548,0.37534114718437195,0.0,0.0
zero_steer,52,False,-3.0884673595428467,0.00013442756608128548,-0.044230921017880724,-1.821765661239624,-0.0008434349438175559,-1.2217658758163452,-0.0013066200772300363,0.3753046989440918,-0.5618331432342529,0.3753046989440918,0.0,7.506093978881836,0.0,-0.01046706922352314,0.00770488241687417,-0.0013810934033244848,0.00014464287960436195,-0.0008327383548021317,-0.0012956955470144749,-0.04420915312495461,0.04420915246009827,0.0417742058634758,-0.0008434301125817001,-0.044230921017880724,0.3930446207523346,16,0.14176619052886963,0.0,1.1392678061383776e-05,0.0,False,True,False,False,False,False,0.27389538288116455,0.0014459831872954965,-0.0017036760691553354,3.733704261321691e-07,8.071644697338343e-05,0.3753046989440918,0.0,0.0
zero_steer,53,False,-3.079401731491089,0.0001382194459438324,-0.046609100839407926,-1.8127001523971558,-0.000892220064997673,-1.212700366973877,-0.0013803093461319804,0.37531179189682007,-0.5617966651916504,0.37531179189682007,0.0,7.506235837936401,0.0,-0.010392485186457634,0.007798862177878618,-0.0012968115042895079,0.0001481090730521828,-0.0008816811605356634,-0.001369462930597365,-0.04657973235999819,0.04657973349094391,0.03271235153079033,-0.0008922149427235126,-0.046609100839407926,0.3930446207523346,16,0.13270080089569092,0.0,1.1476798135845456e-05,0.0,False,True,False,False,False,False,0.2739822268486023,0.0004243183066137135,-0.0007944567478261888,0.0,8.764664380578324e-05,0.37531179189682007,0.0,0.0
zero_steer,54,False,-3.07033371925354,0.00014314055442810059,-0.04880388274460301,-1.803632140159607,-0.0009358214447274804,-1.2036323547363281,-0.0014468944864347577,0.37534835934638977,-0.5617718696594238,0.37534835934638977,0.0,7.506967186927795,0.0,-0.010399346239864826,0.007873025722801685,-0.0012631602585315704,0.00015314552001655102,-0.0009252236341126263,-0.001436015940271318,-0.04877706558097212,0.04877706617116928,0.02365068905055523,-0.0009358160896226764,-0.04880387940954971,0.3930446207523346,16,0.12363266944885254,0.0,1.1448408258729614e-05,0.0,False,True,False,False,False,False,0.27401188015937805,0.001139825559221208,-0.0012800440890714526,1.86158516157775e-07,0.0003300789394415915,0.37534835934638977,0.0,0.0
zero_steer,55,False,-3.061265468597412,0.00014655105769634247,-0.051195496160845455,-1.7945640087127686,-0.000985285034403205,-1.1945642232894897,-0.001521402969956398,0.375334233045578,-0.5618150234222412,0.375334233045578,0.0,7.50668466091156,0.0,-0.010379000566899776,0.007958246394991875,-0.0012103770859539509,0.00015652146248612553,-0.0009747006697580218,-0.0015105277998372912,-0.05116772850702245,0.05116773024201393,0.014597327448427677,-0.0009852794464677572,-0.051195496160845455,0.3930446207523346,16,0.11456453800201416,0.0,1.1461685062386096e-05,0.0,False,True,False,False,False,False,0.27405139803886414,0.0009993916610255837,-0.0014703040942549706,3.744344567735425e-08,0.00010308113996870816,0.375334233045578,0.0,0.0
zero_steer,56,False,-3.0521974563598633,0.0001520109362900257,-0.053588623691288674,-1.7854959964752197,-0.0010327326599508524,-1.185496211051941,-0.0015939114382490516,0.3753124177455902,-0.5617431402206421,0.3753124177455902,0.0,7.506248354911804,0.0,-0.010392751544713974,0.00803820788860321,-0.0011772718280553818,0.00016202863480430096,-0.0010221367701888084,-0.0015830417396500707,-0.05356247353831892,0.0535624735057354,0.005592211149632931,-0.0010327267227694392,-0.053588623691288674,0.3930446207523346,16,0.10549652576446533,0.0,1.14155182018294e-05,0.0,False,True,False,False,False,False,0.273844450712204,0.0009090870153158903,-0.0009924268815666437,2.640766467720823e-07,0.00031642778776586056,0.3753124177455902,0.0,0.0
zero_steer,57,False,-3.043133020401001,0.00015569711104035378,-0.0558451240929585,-1.7764315605163574,-0.0010789334774017334,-1.1764317750930786,-0.001663742121309042,0.3753889203071594,-0.5618329048156738,0.3753889203071594,0.0,7.5077784061431885,0.0,-0.010424497537314892,0.008144794031977654,-0.0011398517526686192,0.00016566927661187947,-0.0010683613363653421,-0.0016528856940567493,-0.055817980094103645,0.05581798031926155,0.0037279557436704636,-0.0010789273073896766,-0.0558451240929585,0.3930446207523346,16,0.09643220901489258,0.0,1.1422509487601928e-05,0.0,False,True,False,False,False,False,0.2739674150943756,0.0011960763949900866,-0.001436459831893444,2.7798936486078674e-09,-5.5682321544736624e-05,0.3753889203071594,0.0,0.0
zero_steer,58,False,-3.034066915512085,0.0001566670835018158,-0.058052999417431646,-1.7673654556274414,-0.0011267755180597305,-1.1673657894134521,-0.0017347050597891212,0.37524738907814026,-0.5617562532424927,0.37524738907814026,0.0,7.504947781562805,0.0,-0.010541358031332493,0.008275187574326992,-0.0011330852285027504,0.00016624531417619437,-0.0011164216557517648,-0.0017239837907254696,-0.05801792132676261,0.05801792070269585,0.012684660963714123,-0.00112676911521703,-0.05805300608753826,0.3930446207523346,16,0.08736622333526611,0.0,1.144381440099096e-05,0.0,False,True,False,False,False,False,0.27366191148757935,-0.0004655735974665731,0.0003840666322503239,2.7771199029302807e-07,5.250316462479532e-06,0.37524738907814026,0.0,0.0
zero_steer,59,False,-3.025006055831909,0.00015920866280794144,-0.060356167220007716,-1.7583045959472656,-0.0011751526035368443,-1.1583049297332764,-0.0018072007223963737,0.37516266107559204,-0.5617430210113525,0.37516266107559204,0.0,7.503253221511841,0.0,-0.010457564145326614,0.008377669379115105,-0.0010399473831057549,0.0001694880484137684,-0.0011644084006547928,-0.0017962362617254257,-0.06033514304396877,0.06033514440059662,0.021727178245782852,-0.0011751458514481783,-0.060356167220007716,0.3930446207523346,16,0.07830536365509033,0.0,1.1398260539863259e-05,0.0,False,True,False,False,False,False,0.27370336651802063,0.001490962691605091,-0.0015125401550903916,1.8264087486841163e-07,0.00033179461024701595,0.37516266107559204,0.0,0.0
zero_steer,60,False,-3.015946388244629,0.00016308575868606567,-0.06277476121749304,-1.749245047569275,-0.0012247459962964058,-1.1492453813552856,-0.0018821216654032469,0.3751986622810364,-0.5617620944976807,0.3751986622810364,0.0,7.5039732456207275,0.0,-0.010420328006148338,0.008477280847728252,-0.000971523579210043,0.0001732798555167392,-0.0012140468461439013,-0.001871183281764388,-0.06275191610234919,0.06275191903114319,0.03077930025756359,-0.0012247390113770962,-0.06277476121749304,0.3930446207523346,16,0.06924569606781006,0.0,1.1402364179957658e-05,0.0,False,True,False,False,False,False,0.27363863587379456,0.0013121813535690308,-0.0013055159943178296,2.3441374707999785e-07,0.00021487585036084056,0.3751986622810364,0.0,0.0
zero_steer,61,False,-3.0068883895874023,0.00016508810222148895,-0.06510974542860519,-1.740187168121338,-0.0012743656989187002,-1.1401875019073486,-0.0019561932422220707,0.3751133978366852,-0.5616812705993652,0.3751133978366852,0.0,7.502267956733704,0.0,-0.010485563427209854,0.008578210137784481,-0.0009536766447126865,0.00017527674208395183,-0.0012636538594961166,-0.0019452335545793176,-0.06508607989034816,0.06508608162403107,0.0398331955075264,-0.0012743583647534251,-0.06510974542860519,0.3930446207523346,16,0.0601879358291626,0.0,1.1438316505518742e-05,0.0,False,True,False,False,False,False,0.2737715244293213,0.0008060893160291016,-0.0014869078295305371,0.0,0.000725790741853416,0.3751133978366852,0.0,0.0
zero_steer,62,False,-2.9978280067443848,0.00016846228390932083,-0.06747606580057744,-1.7311267852783203,-0.0013233065837994218,-1.1311272382736206,-0.0020299141760915518,0.37510570883750916,-0.5617101192474365,0.37510570883750916,0.0,7.502114176750183,0.0,-0.010504656471312046,0.00868142582476139,-0.0009116153232753277,0.0001787603396223858,-0.0013125404948368669,-0.0020189261995255947,-0.06745489488219304,0.06745489686727524,0.0488910973072052,-0.001323299016803503,-0.06747606580057744,0.3930446207523346,16,0.05112767219543457,0.0,1.1415808330639265e-05,0.0,False,True,False,False,False,False,0.2737923860549927,0.0013495583552867174,-0.0015154487919062376,0.0,0.00011749312398023903,0.37510570883750916,0.0,0.0
zero_steer,63,False,-2.9887678623199463,0.00017006276175379753,-0.0699111016108597,-1.7220666408538818,-0.0013755399268120527,-1.1220670938491821,-0.0021076470147818327,0.3752644956111908,-0.5618070363998413,0.3752644956111908,0.0,7.505289912223816,0.0,-0.010458572767674923,0.00877915695309639,-0.0008397079072892666,0.00017949203902389854,-0.0013652467168867588,-0.0020969444885849953,-0.06987201478611725,0.06987201422452927,0.05794965848326683,-0.0013755320105701685,-0.0699110949407531,0.3930446207523346,16,0.04206740856170654,0.0,1.1475426617835183e-05,0.0,False,True,False,False,False,False,0.27380022406578064,0.0014158873818814754,-0.001530997222289443,0.0,1.9577450075303204e-05,0.3752644956111908,0.0,0.0
zero_steer,64,False,-2.9797074794769287,0.0001718960702419281,-0.07226185395400107,-1.7130063772201538,-0.0014256772119551897,-1.113006830215454,-0.0021824014838784933,0.3753162622451782,-0.5617555379867554,0.3753162622451782,0.0,7.5063252449035645,0.0,-0.010503154247999191,0.008910588920116425,-0.0007962826639413834,0.0001818377204472199,-0.0014151042560115457,-0.002171529456973076,-0.07223329255749131,0.07223329693078995,0.06700876355171204,-0.0014256690628826618,-0.07226184728389447,0.3930446207523346,16,0.033007144927978516,0.0,1.1431486200308427e-05,0.0,False,True,False,False,False,False,0.27380314469337463,0.001488783280365169,-0.0015470493817701936,0.0,6.131888221716508e-05,0.3753162622451782,0.0,0.0
zero_steer,65,False,-2.9706480503082275,0.00017186766490340233,-0.07478098646843913,-1.7039470672607422,-0.0014813991729170084,-1.1039475202560425,-0.0022645036224275827,0.3751438558101654,-0.5616844892501831,0.3751438558101654,0.0,7.502877116203308,0.0,-0.010537788271903992,0.009019100107252598,-0.0007593440823256969,0.00018204963998869061,-0.001470693969167769,-0.0022535505704581738,-0.07475732093018209,0.07475732266902924,0.07606732845306396,-0.001481390674598515,-0.07478098646843913,0.3930446207523346,16,0.023947954177856445,0.0,1.1418846952437889e-05,0.0,False,True,False,False,False,False,0.273820698261261,0.0014914998319000006,-0.001712414319626987,0.0,4.039306804770604e-05,0.3751438558101654,0.0,0.0
zero_steer,66,False,-2.9615862369537354,0.00017506303265690804,-0.07716371530267527,-1.69488525390625,-0.0015308812726289034,-1.0948858261108398,-0.0023389377165585756,0.3753351867198944,-0.5617051124572754,0.3753351867198944,0.0,7.506703734397888,0.0,-0.010607310570776463,0.009130803868174553,-0.0007382533513009548,0.00018494906544219702,-0.0015203136717900634,-0.0023280472960323095,-0.07713287939981103,0.07713288068771362,0.08512848615646362,-0.0015308725414797664,-0.07716371530267527,0.3930446207523346,16,0.014886260032653809,0.0,1.1487351002870128e-05,0.0,False,True,False,False,False,False,0.27382776141166687,0.0016172162722796202,-0.0016396703431382775,0.0,7.147944415919483e-05,0.3753351867198944,0.0,0.0
zero_steer,67,False,-2.9525251388549805,0.00017633847892284393,-0.07968940453191227,-1.6858242750167847,-0.0015854439698159695,-1.0858248472213745,-0.0024199492763727903,0.37532201409339905,-0.5617762804031372,0.37532201409339905,0.0,7.506440281867981,0.0,-0.010622111149132252,0.009241362102329731,-0.0006903745234012604,0.000186069737537764,-0.0015749658923596144,-0.002409117529168725,-0.07965562044192583,0.07965562492609024,0.08083980530500412,-0.001585434889420867,-0.07968939786180565,0.5447832345962524,17,0.005825161933898926,0.0,1.1476546205813065e-05,0.0,False,True,False,False,False,False,0.27381613850593567,0.0015399950789287686,-0.0016784219769760966,0.0,5.4889511375222355e-05,0.37532201409339905,0.0,0.0
zero_steer,68,False,-2.94346284866333,0.00017740856856107712,-0.08225360695672315,-1.6767621040344238,-0.0016410637181252241,-1.0767626762390137,-0.002502421149984002,0.375200480222702,-0.5617365837097168,0.375200480222702,0.0,7.5040096044540405,0.0,-0.010655444115400314,0.009347707033157349,-0.0006538685411214828,0.00018718192586675286,-0.0016305564204230905,-0.002491566352546215,-0.0822204098361185,0.0822204127907753,0.07178084552288055,-0.0016410542884841561,-0.08225360695672315,0.5447832345962524,17,0.0,0.0032368898391723633,1.1488718882901594e-05,0.0,False,True,False,False,False,False,0.2738896906375885,0.0016506996471434832,-0.0016669834731146693,0.0,6.063037653802894e-05,0.375200480222702,0.0,0.0
zero_steer,69,False,-2.934399127960205,0.00017608841881155968,-0.0848792010427848,-1.6676983833312988,-0.0017004304099828005,-1.0676990747451782,-0.0025892830453813076,0.3751130998134613,-0.5616213083267212,0.3751130998134613,0.0,7.502261996269226,0.0,-0.010698574595153332,0.009462200105190277,-0.0006181872449815273,0.00018599677423480898,-0.0016898670000955462,-0.002578409155830741,-0.08484957242921723,0.08484957367181778,0.06272141635417938,-0.001700420631095767,-0.0848792010427848,0.5447832345962524,17,0.0,0.012300610542297363,1.1430557606217917e-05,0.0,False,True,False,False,False,False,0.2738797664642334,0.001605194411240518,-0.0018652973230928183,0.0,0.00015869649359956384,0.3751130998134613,0.0,0.0
zero_steer,70,False,-2.925342082977295,0.00017568236216902733,-0.08696497673068405,-1.6586415767669678,-0.0017469492740929127,-1.0586421489715576,-0.002657643985003233,0.3750692903995514,-0.5614348649978638,0.3750692903995514,0.0,7.501385807991028,0.0,-0.010760683566331863,0.009520281106233597,-0.0006202012300491333,0.00018566315702628344,-0.0017363309161737561,-0.0026467235293239355,-0.08693613518969662,0.08693613857030869,0.0536700002849102,-0.0017469392623752356,-0.08696497673068405,0.5447832345962524,17,0.0,0.02135753631591797,1.1459882443887182e-05,0.0,False,True,False,False,False,False,0.2734743356704712,0.0020293965935707092,-0.0020084755960851908,0.0,-0.0001685388124315068,0.3750692903995514,0.0,0.0
zero_steer,71,False,-2.9162914752960205,0.00017732055857777596,-0.08964653301121486,-1.6495909690856934,-0.0018045951146632433,-1.0495917797088623,-0.0027433710638433695,0.3749069273471832,-0.5614523887634277,0.3749069273471832,0.0,7.4981385469436646,0.0,-0.01080118678510189,0.0096477335318923,-0.0005767266266047955,0.00018712568271439523,-0.001794070703908801,-0.002732505789026618,-0.08961400290127136,0.08961400389671326,0.04462745040655136,-0.0018045847536996007,-0.08964653968132148,0.5447832345962524,17,0.0,0.03040790557861328,1.1467790500319097e-05,0.0,False,True,False,False,False,False,0.27349838614463806,0.0017445378471165895,-0.0017554323421791196,0.0,-4.588564843288623e-05,0.3749069273471832,0.0,0.0
zero_steer,72,False,-2.9072399139404297,0.00017727632075548172,-0.09231703025498407,-1.6405396461486816,-0.0018636789172887802,-1.040540337562561,-0.0028304201550781727,0.3750215768814087,-0.5614547729492188,0.3750215768814087,0.0,7.500431537628174,0.0,-0.010830954648554325,0.00975137110799551,-0.0005397917702794075,0.00018742740212474018,-0.0018529610242694616,-0.002819433808326721,-0.09229139036517008,0.09229139238595963,0.03558845818042755,-0.0018636682070791721,-0.09231703025498407,0.5447832345962524,17,0.0,0.03945934772491455,1.1457605978648644e-05,0.0,False,True,False,False,False,False,0.27354252338409424,0.0016981083899736404,-0.0017537884414196014,0.0,1.5386979157483438e-07,0.3750215768814087,0.0,0.0
zero_steer,73,False,-2.8981873989105225,0.00017251912504434586,-0.0943032145810694,-1.6314870119094849,-0.0019123469246551394,-1.0314878225326538,-0.0028998875059187412,0.374962717294693,-0.5614829063415527,0.374962717294693,0.0,7.49925434589386,0.0,-0.01101579237729311,0.009881165809929371,-0.0005673132836818695,0.00018249169806949794,-0.0019017289159819484,-0.002888963557779789,-0.09427401952443157,0.09427402168512344,0.02655593864619732,-0.0019123359816148877,-0.0943032145810694,0.5447832345962524,17,0.0,0.04851186275482178,1.1456980246293824e-05,0.0,False,True,False,False,False,False,0.2731589376926422,-0.007447806186974049,0.00814805831760168,0.0,-0.0005074709188193083,0.374962717294693,0.0,0.0
zero_steer,74,False,-2.8891425132751465,0.0001719496212899685,-0.09685162886353124,-1.6224422454833984,-0.001969256903976202,-1.0224430561065674,-0.0029834844172000885,0.37490537762641907,-0.5614558458328247,0.37490537762641907,0.0,7.498107552528381,0.0,-0.010999789461493492,0.009983710944652557,-0.0005080392584204674,0.00018221224308945239,-0.001958502223715186,-0.002972496673464775,-0.09682937071776919,0.0968293696641922,0.017553040757775307,-0.0019692457281053066,-0.09685162886353124,0.5447832345962524,17,0.0,0.0575566291809082,1.1391430234652944e-05,0.0,False,True,False,False,False,False,0.27311426401138306,0.001948102144524455,-0.0012004310265183449,0.0,0.00010607618605718017,0.37490537762641907,0.0,0.0
zero_steer,75,False,-2.8800981044769287,0.00017036311328411102,-0.09959225560821208,-1.6133978366851807,-0.0020314333960413933,-1.0133987665176392,-0.0030743605457246304,0.3748476505279541,-0.5614842176437378,0.3748476505279541,0.0,7.496953010559082,0.0,-0.010981909930706024,0.010111655108630657,-0.0004351274110376835,0.0001803045452106744,-0.002020828891545534,-0.003063441952690482,-0.09956226013878088,0.09956226497888565,0.008640026673674583,-0.0020314217545092106,-0.09959224893810546,0.5447832345962524,17,0.0,0.06660079956054688,1.145893293141853e-05,0.0,False,True,False,False,False,False,0.27312779426574707,0.0005297065363265574,0.0002826293639373034,1.1341889916138825e-07,-0.00010353350080549717,0.3748476505279541,0.0,0.0
zero_steer,76,False,-2.8710544109344482,0.00016929768025875092,-0.10240347209116073,-1.6043543815612793,-0.0020946497097611427,-1.0043553113937378,-0.0031670157331973314,0.3747677505016327,-0.5614937543869019,0.3747677505016327,0.0,7.495355010032654,0.0,-0.010979860089719296,0.010218620300292969,-0.0003806198947131634,0.00017917176592163742,-0.002084072446450591,-0.003156105289235711,-0.10237166902283786,0.10237167030572891,0.0021918953862041235,-0.0020946378353983164,-0.10240347876126735,0.5447832345962524,17,0.0,0.07564437389373779,1.1474597158667166e-05,0.0,False,True,False,False,False,False,0.27317556738853455,0.0021018153056502342,-0.0015772213228046894,0.0,-0.0004042403888888657,0.3747677505016327,0.0,0.0
zero_steer,77,False,-2.8620071411132812,0.00016714120283722878,-0.10527260510981566,-1.5953071117401123,-0.002160237170755863,-0.9953081607818604,-0.003262648591771722,0.3747234344482422,-0.5615187883377075,0.3747234344482422,0.0,7.494468688964844,0.0,-0.01099071279168129,0.01031473558396101,-0.00033798860386013985,0.00017704995116218925,-0.002149625215679407,-0.003251703456044197,-0.10524078870127956,0.10524079203605652,0.009930714033544064,-0.0021602248307317495,-0.10527259843970904,0.5447832345962524,17,0.0,0.08469152450561523,1.150328080257168e-05,0.0,False,True,False,False,False,False,0.2732599079608917,0.0019264485454186797,-0.0007969218422658741,0.0,-0.0002695416915230453,0.3747234344482422,0.0,0.0
zero_steer,78,False,-2.8529582023620605,0.00016632350161671638,-0.1082898411756688,-1.5862584114074707,-0.0022277599200606346,-0.9862594604492188,-0.0033617678564041853,0.37483641505241394,-0.5615586042404175,0.37483641505241394,0.0,7.496728301048279,0.0,-0.010989385657012463,0.010400455445051193,-0.0002944651059806347,0.0001764755870681256,-0.0022170369047671556,-0.0033507742919027805,-0.10826400785276306,0.1082640066742897,0.01887354627251625,-0.0022277471143752337,-0.1082898411756688,0.5447832345962524,17,0.0,0.09374010562896729,1.1447064935055096e-05,0.0,False,True,False,False,False,False,0.2734009325504303,0.0014610805083066225,-0.001031561754643917,0.0,-0.0005362998344935477,0.37483641505241394,0.0,0.0
zero_steer,79,False,-2.8439090251922607,0.00016376608982682228,-0.11122406776474379,-1.57720947265625,-0.0022951876744627953,-0.977210521697998,-0.0034599227365106344,0.3747701346874237,-0.5614869594573975,0.3747701346874237,0.0,7.495402693748474,0.0,-0.010980868712067604,0.010495041497051716,-0.0002429136075079441,0.00017371104331687093,-0.0022845484782010317,-0.0034489547833800316,-0.11119267824303082,0.11119268089532852,0.027885165065526962,-0.0022951746359467506,-0.1112240744348504,0.5447832345962524,17,0.0,0.10278916358947754,1.1508989700814709e-05,0.0,False,True,False,False,False,False,0.27326035499572754,0.00192622235044837,-0.0014860922237858176,0.0,-0.0004414590075612068,0.3747701346874237,0.0,0.0
zero_steer,80,False,-2.83486008644104,0.00016078166663646698,-0.11416062222102615,-1.5681605339050293,-0.0023630934301763773,-0.9681617021560669,-0.003558579832315445,0.37463733553886414,-0.5614255666732788,0.37463733553886414,0.0,7.492746710777283,0.0,-0.011006095446646214,0.010596898384392262,-0.000204598531126976,0.0001708021736703813,-0.0023524253629148006,-0.003547605127096176,-0.11413134045300237,0.11413133889436722,0.03691519796848297,-0.0023630799259990454,-0.11416062222102615,0.5447832345962524,17,0.0,0.11183792352676392,1.1476967301859986e-05,0.0,False,True,False,False,False,False,0.273459792137146,0.0016938872868195176,-0.0011970457853749394,0.0,-0.00034151991712860763,0.37463733553886414,0.0,0.0
zero_steer,81,False,-2.8258056640625,0.00015727058053016663,-0.11720184399025366,-1.5591063499450684,-0.002433840185403824,-0.959107518196106,-0.003661174327135086,0.3746994733810425,-0.5613832473754883,0.3746994733810425,0.0,7.49398946762085,0.0,-0.011002425104379654,0.01069450844079256,-0.00015395833179354668,0.00016711543139535934,-0.0024232694413512945,-0.0036502599250525236,-0.11716901372551264,0.11716901510953903,0.04595816135406494,-0.0024338262155652046,-0.11720184399025366,0.5447832345962524,17,0.0,0.12089216709136963,1.1468487173260655e-05,0.0,False,True,False,False,False,False,0.27367162704467773,0.0018819490214809775,-0.0014947063755244017,0.0,-0.0005129175260663033,0.3746994733810425,0.0,0.0
zero_steer,82,False,-2.816746473312378,0.0001549525186419487,-0.1202210277272373,-1.5500472784042358,-0.0025029066018760204,-0.950048565864563,-0.003761857282370329,0.37477391958236694,-0.5612475872039795,0.37477391958236694,0.0,7.495478391647339,0.0,-0.011004350148141384,0.010787023231387138,-0.00010866345837712288,0.0001651084457989782,-0.002492170548066497,-0.00375084625557065,-0.12019478752782829,0.12019478529691696,0.055009711533784866,-0.002502892166376114,-0.1202210277272373,0.5447832345962524,17,0.0,0.1299511194229126,1.1451817954366561e-05,0.0,False,True,False,False,False,False,0.2737177014350891,0.0017859789077192545,-0.0020012876484543085,0.0,0.00032233260571956635,0.37477391958236694,0.0,0.0
zero_steer,83,False,-2.807685136795044,0.00015311641618609428,-0.12335771206228632,-1.5409860610961914,-0.0025740889832377434,-0.9409873485565186,-0.0038658869452774525,0.3748219907283783,-0.5612728595733643,0.3748219907283783,0.0,7.496439814567566,0.0,-0.011033941991627216,0.010878479108214378,-7.773144170641899e-05,0.00016304290329571813,-0.0025634735357016325,-0.003854945069178939,-0.12332654932419815,0.12332654744386673,0.06406568735837936,-0.002574074314907193,-0.12335771206228632,0.5447832345962524,17,0.0,0.13901221752166748,1.1463445844128728e-05,0.0,False,True,False,False,False,False,0.27375513315200806,0.0018287766724824905,-0.0018834176007658243,0.0,0.000287806149572134,0.3748219907283783,0.0,0.0
zero_steer,84,False,-2.7986233234405518,0.000149482861161232,-0.12631622450953323,-1.5319242477416992,-0.0026431293226778507,-0.9319257736206055,-0.003965908661484718,0.3746732175350189,-0.5611907243728638,0.3746732175350189,0.0,7.493464350700378,0.0,-0.011070973239839077,0.011004146188497543,-3.341352567076683e-05,0.00015950584202073514,-0.0026324596256017685,-0.003954932559281588,-0.12628696942193587,0.12628696858882904,0.07312355935573578,-0.0026431141886860132,-0.12631622450953323,0.5447832345962524,17,0.0,0.14807391166687012,1.145673195424024e-05,0.0,False,True,False,False,False,False,0.27400490641593933,0.0022435463033616543,-0.0013205144787207246,0.0,-0.0004147516447119415,0.3746732175350189,0.0,0.0
zero_steer,85,False,-2.789553165435791,0.00014663347974419594,-0.12955145299965817,-1.5228543281555176,-0.002717503346502781,-0.9228558540344238,-0.004074161872267723,0.3747589588165283,-0.5613415241241455,0.3747589588165283,0.0,7.495179176330566,0.0,-0.011065978556871414,0.011093376204371452,1.3698823750019073e-05,0.00015670928405597806,-0.0027068054769188166,-0.004063169471919537,-0.12952331848997153,0.12952332198619843,0.0821906253695488,-0.002717487746849656,-0.12955145299965817,0.5447832345962524,17,0.0,0.15714377164840698,1.145305850513978e-05,0.0,False,True,False,False,False,False,0.2739860415458679,0.001352863386273384,-0.001228547771461308,0.0,-0.0004587514267768711,0.3747589588165283,0.0,0.0
zero_steer,86,False,-2.780484199523926,0.00014318013563752174,-0.13267723838050427,-1.5137856006622314,-0.0027900617569684982,-0.9137871265411377,-0.004179453477263451,0.37465405464172363,-0.5613714456558228,0.37465405464172363,0.0,7.493081092834473,0.0,-0.011080913245677948,0.0111945029348135,5.6794844567775726e-05,0.00015338977391365916,-0.0027793017216026783,-0.004168432671576738,-0.13265234554263075,0.13265234231948853,0.08383197337388992,-0.002790045691654086,-0.13267723838050427,0.6965218186378479,18,0.0,0.1662125587463379,1.1422186616982799e-05,0.0,False,True,False,False,False,False,0.27388134598731995,0.0015708399005234241,-0.001736003439873457,0.0,0.00019772301311604679,0.37465405464172363,0.0,0.0
zero_steer,87,False,-2.7714171409606934,0.00013816403225064278,-0.1358595062241352,-1.5047186613082886,-0.002865431597456336,-0.9047203063964844,-0.004288147669285536,0.37491700053215027,-0.5615450143814087,0.37491700053215027,0.0,7.498340010643005,0.0,-0.011090857908129692,0.01129835657775402,0.0001037493348121643,0.00014860906230751425,-0.0028545500244945288,-0.004277059342712164,-0.13583976270856563,0.13583976030349731,0.07477352023124695,-0.0028654152993112803,-0.1358595062241352,0.6965218186378479,18,0.0,0.1752793788909912,1.1406393241486512e-05,0.0,False,True,False,False,False,False,0.2741018831729889,0.0018739590886980295,-0.001718749525025487,3.1641872055843123e-07,-0.0003465496702119708,0.37491700053215027,0.0,0.0
zero_steer,88,False,-2.7623462677001953,0.0001343800686299801,-0.13892964957562948,-1.49564790725708,-0.0029370905831456184,-0.8956496715545654,-0.004391957074403763,0.3747372329235077,-0.5614330768585205,0.3747372329235077,0.0,7.494744658470154,0.0,-0.011118702590465546,0.011408681981265545,0.00014498969539999962,0.00014422183448914438,-0.00292650586925447,-0.004381020087748766,-0.13889604557852153,0.13889604806900024,0.06571350991725922,-0.0029370738193392754,-0.13892964957562948,0.6965218186378479,18,0.0,0.1843498945236206,1.147075181506807e-05,0.0,False,True,False,False,False,False,0.2739378809928894,0.0015911280643194914,-0.0018189463298767805,0.0,0.0003006165788974613,0.3747372329235077,0.0,0.0
zero_steer,89,False,-2.7532763481140137,0.00012884847819805145,-0.14212777893278217,-1.4865782260894775,-0.003013326320797205,-0.8865801095962524,-0.004501683637499809,0.37484416365623474,-0.5615588426589966,0.37484416365623474,0.0,7.496883273124695,0.0,-0.01111114863306284,0.011513203382492065,0.00020102737471461296,0.00013889267574995756,-0.0030026210006326437,-0.0044906651601195335,-0.1420978701747369,0.14209787547588348,0.05665834620594978,-0.0030133090913295746,-0.14212777893278217,0.6965218186378479,18,0.0,0.19341939687728882,1.1493945748952683e-05,0.0,False,True,False,False,False,False,0.27385857701301575,0.0018740345258265734,-0.0017099807737395167,0.0,6.96307179168798e-05,0.37484416365623474,0.0,0.0
zero_steer,90,False,-2.7442119121551514,0.0001223236322402954,-0.14513851831479585,-1.4775139093399048,-0.0030864127911627293,-0.8775157928466797,-0.004606298170983791,0.3746913969516754,-0.561508059501648,0.3746913969516754,0.0,7.493827939033508,0.0,-0.011175230145454407,0.011642834171652794,0.00023380201309919357,0.00013257698446977884,-0.0030756299383938313,-0.0045952643267810345,-0.1451145592918479,0.14511455595493317,0.04761398211121559,-0.0030863950960338116,-0.14513851831479585,0.6965218186378479,18,0.0,0.20248383283615112,1.1408254977141041e-05,0.0,False,True,False,False,False,False,0.2737118899822235,0.002003720263019204,-0.002324167639017105,0.0,0.0002462606644257903,0.3746913969516754,0.0,0.0
zero_steer,91,False,-2.735151767730713,0.00011725025251507759,-0.1483675569459855,-1.4684538841247559,-0.00316287437453866,-0.8684558868408203,-0.004716574214398861,0.3747658431529999,-0.5614628791809082,0.3747658431529999,0.0,7.495316863059998,0.0,-0.011185108684003353,0.011741784401237965,0.00027833785861730576,0.00012702208186965436,-0.0031523259822279215,-0.004705657716840506,-0.14833243216457018,0.14833243191242218,0.038583673536777496,-0.003162856213748455,-0.1483675569459855,0.6965218186378479,18,0.0,0.21154379844665527,1.1453245861048345e-05,0.0,False,True,False,False,False,False,0.27384573221206665,0.0024461252614855766,-0.0024003174621611834,0.0,0.00029309949604794383,0.3747658431529999,0.0,0.0
zero_steer,92,False,-2.7260868549346924,0.00010543270036578178,-0.1505859943842777,-1.4593892097473145,-0.003223736770451069,-0.8593912124633789,-0.0048006679862737656,0.3748616874217987,-0.5615592002868652,0.3748616874217987,0.0,7.497233748435974,0.0,-0.01125906128436327,0.011571202427148819,0.00015607057139277458,0.00011570342758204788,-0.003212935524061322,-0.004789615515619516,-0.1505619953406901,0.15056200325489044,0.029565421864390373,-0.0032237183768302202,-0.1505859943842777,0.6965218186378479,18,0.0,0.22060835361480713,1.1421107046771795e-05,0.0,False,True,False,False,False,False,0.27356696128845215,-0.0035567483864724636,0.003857032163068652,1.4203861553596653e-07,-0.0001515234325779602,0.3748616874217987,0.0,0.0
zero_steer,93,False,-2.7170321941375732,9.750761091709137e-05,-0.15369814606721022,-1.4503346681594849,-0.0033004656434059143,-0.8503367900848389,-0.004909987095743418,0.3747645616531372,-0.5613598823547363,0.3747645616531372,0.0,7.495291233062744,0.0,-0.01114404946565628,0.011659516952931881,0.0002577337436378002,0.00010755304538179189,-0.003289765678346157,-0.0048989770002663136,-0.15366851745364263,0.15366852283477783,0.020600706338882446,-0.0033004467841237783,-0.15369813272699698,0.6965218186378479,18,0.0,0.22966289520263672,1.1456308129709214e-05,0.0,False,True,False,False,False,False,0.2736108899116516,0.0023566517047584057,-0.0021537281572818756,0.0,1.3827109796693549e-05,0.3747645616531372,0.0,0.0
zero_steer,94,False,-2.7079803943634033,8.937343955039978e-05,-0.1567478255316209,-1.441283106803894,-0.003376021981239319,-0.8412853479385376,-0.005017479415982962,0.37479889392852783,-0.561525821685791,0.37479889392852783,0.0,7.495977878570557,0.0,-0.011210027150809765,0.01179358921945095,0.0002917810343205929,9.941684402292594e-05,-0.003365314332768321,-0.0050064572133123875,-0.15671778337144343,0.15671779215335846,0.011777288280427456,-0.0033760026562958956,-0.1567478255316209,0.6965218186378479,18,0.0,0.23871421813964844,1.147212151408894e-05,0.0,False,True,False,False,False,False,0.27344584465026855,0.0023459400981664658,-0.0021530010271817446,0.0,7.589729648316279e-06,0.37479889392852783,0.0,0.0
zero_steer,95,False,-2.6989328861236572,7.911073043942451e-05,-0.16011031965589026,-1.432235836982727,-0.0034606228582561016,-0.8322381973266602,-0.005137292202562094,0.37477174401283264,-0.5615496635437012,0.37477174401283264,0.0,7.495434880256653,0.0,-0.011255570687353611,0.011913275346159935,0.000328852329403162,8.923717541620135e-05,-0.0034498833119869232,-0.005126262083649635,-0.16008257201238707,0.16008257865905762,0.0041200220584869385,-0.003460603067651391,-0.16011031965589026,0.6965218186378479,18,0.0,0.24776148796081543,1.1437567991379183e-05,0.0,False,True,False,False,False,False,0.2735077738761902,0.0023737377487123013,-0.0019598454236984253,0.0,-8.825843542581424e-05,0.37477174401283264,0.0,0.0
zero_steer,96,False,-2.689882755279541,6.966572254896164e-05,-0.1632725504992607,-1.4231858253479004,-0.00353997852653265,-0.8231881856918335,-0.005249762441962957,0.37485742568969727,-0.5616576671600342,0.37485742568969727,0.0,7.497148513793945,0.0,-0.011298331432044506,0.012048271484673023,0.0003749700263142586,8.000808884389699e-05,-0.0035291470121592283,-0.0052386992610991,-0.1632504324257375,0.16325043141841888,0.007678888738155365,-0.003539958270266652,-0.1632725504992607,0.6965218186378479,18,0.0,0.25681138038635254,1.1389774954295717e-05,0.0,False,True,False,False,False,False,0.27337646484375,0.002316761529073119,-0.002108945045620203,0.0,-8.082610293058679e-06,0.37485742568969727,0.0,0.0
zero_steer,97,False,-2.6808393001556396,5.81592321395874e-05,-0.16595986975190372,-1.4141424894332886,-0.0036108968779444695,-0.8141449689865112,-0.0053488221019506454,0.37465474009513855,-0.5614848136901855,0.37465474009513855,0.0,7.493094801902771,0.0,-0.011335009709000587,0.012159423902630806,0.00041220709681510925,6.850776844657958e-05,-0.003600048366934061,-0.005337736569344997,-0.16593725809049126,0.16593725979328156,0.01626349799335003,-0.0036108761560171843,-0.16595986975190372,0.6965218186378479,18,0.0,0.2658545970916748,1.1415540939196944e-05,0.0,False,True,False,False,False,False,0.27304598689079285,-0.00010184780694544315,0.0009234108147211373,0.0,0.00014627224300056696,0.37465474009513855,0.0,0.0
zero_steer,98,False,-2.6718006134033203,4.756171256303787e-05,-0.16904599467883877,-1.4051040410995483,-0.0036897226236760616,-0.8051066398620605,-0.005459965672343969,0.3746415972709656,-0.5614418983459473,0.3746415972709656,0.0,7.4928319454193115,0.0,-0.011374780908226967,0.012273845262825489,0.0004495321772992611,5.768828123109415e-05,-0.0036789702717214823,-0.005448917392641306,-0.16901770008659345,0.1690177023410797,0.025167958810925484,-0.003689701436087489,-0.16904599467883877,0.6965218186378479,18,0.0,0.27489304542541504,1.1451683349150699e-05,0.0,False,True,False,False,False,False,0.2729230225086212,-0.002067767782136798,0.0029018009081482887,0.0,-0.0002566289622336626,0.3746415972709656,0.0,0.0
zero_steer,99,False,-2.662766933441162,3.408454358577728e-05,-0.1719001332978314,-1.3960705995559692,-0.00376629875972867,-0.796073317527771,-0.005566430278122425,0.37471243739128113,-0.5615369081497192,0.37471243739128113,0.0,7.494248747825623,0.0,-0.011387450620532036,0.012352635152637959,0.00048259226605296135,4.423250720719807e-05,-0.003755535464733839,-0.005555375479161739,-0.1718723056130489,0.1718723028898239,0.03413786366581917,-0.0037662771064788103,-0.1719001332978314,0.6965218186378479,18,0.0,0.2839263677597046,1.1447096767369658e-05,0.0,False,True,False,False,False,False,0.27290552854537964,0.0005909125902689993,-0.00036644600913859904,0.0,-1.8131366232410073e-05,0.37471243739128113,0.0,0.0
zero_steer,100,False,-2.6537320613861084,2.467166632413864e-05,-0.1753302356227133,-1.3870360851287842,-0.003851544111967087,-0.7870388031005859,-0.005687595345079899,0.37465760111808777,-0.5616075992584229,0.37465760111808777,0.0,7.493152022361755,0.0,-0.011356019414961338,0.012453777715563774,0.000548879150301218,3.4972254070453346e-05,-0.0038407056126743555,-0.005676502361893654,-0.17530591641400833,0.17530591785907745,0.043136272579431534,-0.0038515219930559397,-0.1753302356227133,0.6965218186378479,18,0.0,0.29296088218688965,1.1432856808823999e-05,0.0,False,True,False,False,False,False,0.27300018072128296,0.002506470074877143,-0.0023173121735453606,0.0,3.425695467740297e-05,0.37465760111808777,0.0,0.0
zero_steer,101,False,-2.6446943283081055,1.3112090528011322e-05,-0.1785557124169725,-1.3779983520507812,-0.003934412728995085,-0.7780013084411621,-0.005804240703582764,0.3746661841869354,-0.5615955591201782,0.3746661841869354,0.0,7.4933236837387085,0.0,-0.011408076621592045,0.012554091401398182,0.0005730073899030685,2.331685936951544e-05,-0.003923607990145683,-0.005793151445686817,-0.1785285517428511,0.1785285472869873,0.052150338888168335,-0.003934390377253294,-0.1785557124169725,0.6965218186378479,18,0.0,0.3019983768463135,1.146479644376086e-05,0.0,False,True,False,False,False,False,0.2729034423828125,7.500272477045655e-05,0.0004310601798351854,0.0,-0.0004535306943580508,0.3746661841869354,0.0,0.0
zero_steer,102,False,-2.6356608867645264,-3.2708048820495605e-06,-0.1811587081818349,-1.3689651489257812,-0.004008342977613211,-0.7689681053161621,-0.005905429366976023,0.37465542554855347,-0.5617057085037231,0.37465542554855347,0.0,7.493108510971069,0.0,-0.01140465959906578,0.012474196031689644,0.0005347682163119316,6.951268915145192e-06,-0.003997547086328268,-0.00589436199516058,-0.1811327614671168,0.18113276362419128,0.061166394501924515,-0.004008320160210133,-0.1811587081818349,0.6965218186378479,18,0.0,0.3110314607620239,1.142686596722342e-05,0.0,False,True,False,False,False,False,0.2728234529495239,0.0027809045277535915,-0.0028776538092643023,0.0,-0.00012395258818287402,0.37465542554855347,0.0,0.0
zero_steer,103,False,-2.6266322135925293,-1.5492551028728485e-05,-0.1839754141625247,-1.3599365949630737,-0.004082836210727692,-0.7599396705627441,-0.006009418983012438,0.37471458315849304,-0.5617094039916992,0.37471458315849304,0.0,7.494291663169861,0.0,-0.011420552618801594,0.012508590705692768,0.0005440190434455872,-5.1138681556039955e-06,-0.0040719639509916306,-0.005998312961310148,-0.18395308264558993,0.18395309150218964,0.07018233090639114,-0.004082812927663326,-0.1839754141625247,0.6965218186378479,18,0.0,0.3200600743293762,1.1406164048821665e-05,0.0,False,True,False,False,False,False,0.27260178327560425,-0.002384678926318884,0.002815414685755968,0.0,7.569332956336439e-05,0.37471458315849304,0.0,0.0
zero_steer,104,False,-2.617612838745117,-3.2013747841119766e-05,-0.18647390269700065,-1.3509175777435303,-0.004154594149440527,-0.7509206533432007,-0.006107341032475233,0.37469038367271423,-0.5615073442459106,0.37469038367271423,0.0,7.493807673454285,0.0,-0.011471751146018505,0.0125650679692626,0.0005466584116220474,-2.1853704311070032e-05,-0.004143798723816872,-0.006096244789659977,-0.18644518121793222,0.1864451766014099,0.07919154316186905,-0.004154570400714874,-0.18647390269700065,0.6965218186378479,18,0.0,0.32907891273498535,1.1483528396638576e-05,0.0,False,True,False,False,False,False,0.2722912132740021,-0.0002063221763819456,0.0005105282762087882,0.0,-0.00016011667321436107,0.37469038367271423,0.0,0.0
zero_steer,105,False,-2.6085994243621826,-4.40194271504879e-05,-0.1896950439219625,-1.3419044017791748,-0.00423781294375658,-0.7419075965881348,-0.006224290933459997,0.374596506357193,-0.5613758563995361,0.374596506357193,0.0,7.49193012714386,0.0,-0.011457988992333412,0.012669148854911327,0.0006055799312889576,-3.389014091226272e-05,-0.004227054305374622,-0.006213234271854162,-0.18966658924715848,0.18966658413410187,0.0870075523853302,-0.00423778872936964,-0.1896950439219625,0.8482604622840881,19,0.0,0.3380920886993408,1.1429699952714145e-05,0.0,False,True,False,False,False,False,0.27249154448509216,0.0024304972030222416,-0.00232454645447433,0.0,6.432563532143831e-05,0.374596506357193,0.0,0.0
zero_steer,106,False,-2.599583625793457,-5.9956684708595276e-05,-0.19289101216457308,-1.3328888416290283,-0.004324406385421753,-0.7328921556472778,-0.006344352848827839,0.3746638596057892,-0.5614824295043945,0.3746638596057892,0.0,7.493277192115784,0.0,-0.011501234024763107,0.012810123153030872,0.0006544445641338825,-4.9606267566559836e-05,-0.004313538316637278,-0.00633323984220624,-0.19286760009036727,0.19286760687828064,0.07800868153572083,-0.004324381705373526,-0.19289101216457308,0.8482604622840881,19,0.0,0.3471074104309082,1.1422312127251644e-05,0.0,False,True,False,False,False,False,0.2723412811756134,0.002581967506557703,-0.002577511826530099,0.0,-3.4085867810063064e-05,0.3746638596057892,0.0,0.0
zero_steer,107,False,-2.5905728340148926,-7.808627560734749e-05,-0.19540466852148322,-1.3238780498504639,-0.004398108460009098,-0.7238816022872925,-0.006444377359002829,0.37452271580696106,-0.5613921880722046,0.37452271580696106,0.0,7.490454316139221,0.0,-0.01151678990572691,0.01279472280293703,0.0006389664486050606,-6.807118916185573e-05,-0.004387400578707457,-0.006433341186493635,-0.19537334570083636,0.19537334144115448,0.06901820749044418,-0.0043980833142995834,-0.19540468186169646,0.8482604622840881,19,0.0,0.35611796379089355,1.1443138646427542e-05,0.0,False,True,False,False,False,False,0.27217668294906616,0.0024978613946586847,-0.0023159703705459833,0.0,-8.386392437387258e-06,0.37452271580696106,0.0,0.0
zero_steer,108,False,-2.5815625190734863,-9.690131992101669e-05,-0.1975343802016314,-1.3148679733276367,-0.00446400698274374,-0.7148715257644653,-0.0065325782634317875,0.3745141923427582,-0.5613609552383423,0.3745141923427582,0.0,7.490283846855164,0.0,-0.011602526530623436,0.01273198239505291,0.0005647279322147369,-8.714925206732005e-05,-0.004453396890312433,-0.006521561648696661,-0.19749556018115338,0.19749556481838226,0.06003405526280403,-0.004463981371372938,-0.1975343802016314,0.8482604622840881,19,0.0,0.3651280403137207,1.1510764124977868e-05,0.0,False,True,False,False,False,False,0.2720276415348053,-0.0027467594482004642,0.003237042110413313,0.0,9.830448834691197e-05,0.3745141923427582,0.0,0.0
zero_steer,109,False,-2.5725584030151367,-0.00011630170047283173,-0.20014220512368044,-1.3058640956878662,-0.004541060887277126,-0.7058676481246948,-0.006636940874159336,0.37457287311553955,-0.5613948106765747,0.37457287311553955,0.0,7.491457462310791,0.0,-0.011646999977529049,0.012768472544848919,0.000560736283659935,-0.00010594679042696953,-0.004530195612460375,-0.006625833921134472,-0.20011909987437876,0.20011910796165466,0.051066286861896515,-0.004541034810245037,-0.2001421917834672,0.8482604622840881,19,0.0,0.37413203716278076,1.1396222362236585e-05,0.0,False,True,False,False,False,False,0.2717900276184082,-0.003721252316609025,0.004402104765176773,0.0,-0.00010020866466220468,0.37457287311553955,0.0,0.0
zero_steer,110,False,-2.563563585281372,-0.00013597076758742332,-0.20266936177637193,-1.2968695163726807,-0.004616600461304188,-0.6968731880187988,-0.006738944444805384,0.37472453713417053,-0.5614410638809204,0.37472453713417053,0.0,7.494490742683411,0.0,-0.011601272970438004,0.012852886691689491,0.0006258068606257439,-0.00012579260510392487,-0.004605790600180626,-0.006727835163474083,-0.20264078703964894,0.20264078676700592,0.04212315008044243,-0.004616573918610811,-0.20266936177637193,0.8482604622840881,19,0.0,0.3831263780593872,1.1466681826277636e-05,0.0,False,True,False,False,False,False,0.27183741331100464,0.0025090035051107407,-0.002353908959776163,0.0,4.941820225212723e-05,0.37472453713417053,0.0,0.0
zero_steer,111,False,-2.5545661449432373,-0.0001510418951511383,-0.20557959599196593,-1.287872314453125,-0.004696010611951351,-0.6878761053085327,-0.006848830729722977,0.37470129132270813,-0.5614454746246338,0.37470129132270813,0.0,7.494025826454163,0.0,-0.011651047505438328,0.012941155582666397,0.0006450540386140347,-0.0001409148535458371,-0.004685231950134039,-0.006837743334472179,-0.2055501141207438,0.20555011928081512,0.03320593386888504,-0.004695983603596687,-0.20557959599196593,0.8482604622840881,19,0.0,0.3921234607696533,1.145129954238655e-05,0.0,False,True,False,False,False,False,0.27176156640052795,0.0026781854685395956,-0.002790701575577259,0.0,0.00010789053339976817,0.37470129132270813,0.0,0.0
zero_steer,112,False,-2.545565605163574,-0.000168580561876297,-0.20864245558704064,-1.278872013092041,-0.0047812629491090775,-0.6788759231567383,-0.0069661568850278854,0.37457558512687683,-0.5613851547241211,0.37457558512687683,0.0,7.491511702537537,0.0,-0.011652791872620583,0.01303110457956791,0.0006891563534736633,-0.0001582619152031839,-0.004770393017679453,-0.006955025717616081,-0.20861750938831422,0.20861750841140747,0.02434600703418255,-0.004781235475093126,-0.2086424422468274,0.8482604622840881,19,0.0,0.4011237621307373,1.1432020073698368e-05,0.0,False,True,False,False,False,False,0.27184730768203735,-0.0019827873911708593,0.002836462575942278,0.0,-0.00019029731629416347,0.37457558512687683,0.0,0.0
zero_steer,113,False,-2.5365657806396484,-0.00018561538308858871,-0.21146919340807388,-1.2698723077774048,-0.004860791377723217,-0.6698763370513916,-0.007075286470353603,0.3748421370983124,-0.5614917278289795,0.3748421370983124,0.0,7.496842741966248,0.0,-0.01173397246748209,0.013148733414709568,0.000707380473613739,-0.00017522323469165713,-0.00484988559037447,-0.007064137142151594,-0.21144595475663996,0.21144595742225647,0.01564638689160347,-0.0048607634380459785,-0.21146919340807388,0.8482604622840881,19,0.0,0.410123348236084,1.1426268429204356e-05,0.0,False,True,False,False,False,False,0.2716943621635437,-0.0026850709691643715,0.0031669316813349724,1.4802881764808262e-07,-0.00015666273247916251,0.3748421370983124,0.0,0.0
zero_steer,114,False,-2.5275774002075195,-0.0002170642837882042,-0.21189201146616676,-1.2608840465545654,-0.004901587963104248,-0.6608880758285522,-0.007120511028915644,0.374985009431839,-0.5614831447601318,0.374985009431839,0.0,7.49970018863678,0.0,-0.01169812772423029,0.013044815510511398,0.0006733438931405544,-0.00020669036894105375,-0.004890697542577982,-0.007109376136213541,-0.21186865275281386,0.21186865866184235,0.007658082060515881,-0.00490156002342701,-0.21189202480637997,0.8482604622840881,19,0.0,0.4191114902496338,1.1414664186304435e-05,0.0,False,True,False,False,False,False,0.2714650332927704,0.0006849768687970936,-0.0010751299560070038,0.0,0.0005428956937976182,0.374985009431839,0.0,0.0
zero_steer,115,False,-2.518594741821289,-0.00023691635578870773,-0.21470937111730445,-1.251901626586914,-0.00498372595757246,-0.6519057750701904,-0.007232151925563812,0.3749530613422394,-0.5614612102508545,0.3749530613422394,0.0,7.499061226844788,0.0,-0.011587667278945446,0.012940269894897938,0.0006763013079762459,-0.00022707674361299723,-0.00497306976467371,-0.0072211092337965965,-0.21467243206689085,0.21467243134975433,0.005868402775377035,-0.004983697552233934,-0.21470937111730445,0.8482604622840881,19,0.0,0.42809391021728516,1.146995691669872e-05,0.0,False,True,False,False,False,False,0.27135348320007324,-0.0014832810265943408,0.0017585356254130602,0.0,-0.0004485631361603737,0.3749530613422394,0.0,0.0
zero_steer,116,False,-2.5096089839935303,-0.0002669156529009342,-0.2159748771044609,-1.2429158687591553,-0.0050417035818099976,-0.6429201364517212,-0.007303381804376841,0.3749542832374573,-0.5615125894546509,0.3749542832374573,0.0,7.4990856647491455,0.0,-0.011668344028294086,0.01276459265500307,0.0005481243133544922,-0.0002565415052231401,-0.005030804313719273,-0.007292233873158693,-0.2159511181847113,0.2159511148929596,0.013093806803226471,-0.0050416747108101845,-0.2159748771044609,0.8482604622840881,19,0.0,0.43707942962646484,1.1424809599702712e-05,0.0,False,True,False,False,False,False,0.2714569866657257,-0.0038450583815574646,0.002671110210940242,4.321624373915256e-07,0.0004037658218294382,0.3749542832374573,0.0,0.0
zero_steer,117,False,-2.5006303787231445,-0.00028609996661543846,-0.21839725972250146,-1.2339375019073486,-0.005114440806210041,-0.6339418888092041,-0.0074014863930642605,0.37480464577674866,-0.5615358352661133,0.37480464577674866,0.0,7.496092915534973,0.0,-0.011354661546647549,0.012772624380886555,0.000708981417119503,-0.0002757047477643937,-0.00510353734716773,-0.007390342187136412,-0.21837427453511876,0.21837428212165833,0.021674666553735733,-0.005114411469548941,-0.21839725972250146,0.8482604622840881,19,0.0,0.4460577964782715,1.1404829820094164e-05,0.0,False,True,False,False,False,False,0.27123549580574036,0.0024906080216169357,-0.0024818256497383118,0.0,-4.4270302169024944e-05,0.37480464577674866,0.0,0.0
zero_steer,118,False,-2.491647243499756,-0.00031594885513186455,-0.2194996282421577,-1.2249544858932495,-0.00516866147518158,-0.624958872795105,-0.007467250805348158,0.37479957938194275,-0.5613816976547241,0.37479957938194275,0.0,7.495991587638855,0.0,-0.01154533214867115,0.01260274276137352,0.0005287053063511848,-0.00030542572494596243,-0.005157690495252609,-0.007456067483872175,-0.21947937779848567,0.21947938203811646,0.03048696182668209,-0.005168631672859192,-0.21949964158237092,0.8482604622840881,19,0.0,0.45504069328308105,1.1414522305130959e-05,0.0,False,True,False,False,False,False,0.2713456451892853,-0.004967452492564917,0.00398213230073452,3.506001746700349e-07,0.0008868289878591895,0.37479957938194275,0.0,0.0
zero_steer,119,False,-2.4826672077178955,-0.00032997503876686096,-0.2226207712288023,-1.2159748077392578,-0.005251689814031124,-0.6159793138504028,-0.007582962978631258,0.3748321831226349,-0.561397910118103,0.3748321831226349,0.0,7.496643662452698,0.0,-0.011203759349882603,0.012688831426203251,0.0007425360381603241,-0.0003199536877218634,-0.005240937229245901,-0.007571863941848278,-0.22258770084022328,0.2225877046585083,0.039377085864543915,-0.005251659546047449,-0.2226207712288023,0.8482604622840881,19,0.0,0.464020311832428,1.146172326116357e-05,0.0,False,True,False,False,False,False,0.27148333191871643,0.0022022081539034843,-0.0022717418614774942,0.0,5.4182703024707735e-05,0.3748321831226349,0.0,0.0
zero_steer,120,False,-2.4736785888671875,-0.0003589601255953312,-0.22409538505822424,-1.2069861888885498,-0.005313275381922722,-0.6069906949996948,-0.007659991271793842,0.37475648522377014,-0.5613540410995483,0.37475648522377014,0.0,7.495129704475403,0.0,-0.011034597642719746,0.012563765980303288,0.0007645841687917709,-0.0003485119086690247,-0.005302336532622576,-0.00764882005751133,-0.2240731869434217,0.22407318651676178,0.048307016491889954,-0.005313245113939047,-0.22409538505822424,0.8482604622840881,19,0.0,0.473008930683136,1.1413992979214527e-05,0.0,False,True,False,False,False,False,0.27173125743865967,0.0027155778370797634,-0.002054051961749792,0.0,-7.697182445554063e-05,0.37475648522377014,0.0,0.0
zero_steer,121,False,-2.464689016342163,-0.0003853193484246731,-0.22569010082729,-1.197996735572815,-0.005374890752136707,-0.5980013608932495,-0.007738305721431971,0.37479808926582336,-0.5614681243896484,0.37479808926582336,0.0,7.495961785316467,0.0,-0.011114325374364853,0.012462025508284569,0.0006738500669598579,-0.0003750253526959568,-0.005364014767110348,-0.007727154530584812,-0.22566379392681488,0.22566379606723785,0.057256218045949936,-0.005374860018491745,-0.22569010082729,0.8482604622840881,19,0.0,0.4819983243942261,1.1430589438532479e-05,0.0,False,True,False,False,False,False,0.271467000246048,0.0027201054617762566,-0.0028131543658673763,0.0,-0.00010395364370197058,0.37479808926582336,0.0,0.0
zero_steer,122,False,-2.455702781677246,-0.00040958868339657784,-0.22798389713007713,-1.189010739326477,-0.0054498715326189995,-0.5890154838562012,-0.007837306708097458,0.3747289180755615,-0.5613694190979004,0.3747289180755615,0.0,7.4945783615112305,0.0,-0.011248395778238773,0.01250622607767582,0.000628915149718523,-0.0003995258011855185,-0.005439084954559803,-0.007826176472008228,-0.22795116024682868,0.22795116901397705,0.06621403992176056,-0.00544984033331275,-0.22798389713007713,0.8482604622840881,19,0.0,0.4909842014312744,1.147273178503383e-05,0.0,False,True,False,False,False,False,0.2716379761695862,0.0025335242971777916,-0.0024180361069738865,0.0,-5.639160372084007e-05,0.3747289180755615,0.0,0.0
zero_steer,123,False,-2.446713447570801,-0.00045256130397319794,-0.22696091621930906,-1.1800212860107422,-0.005470228381454945,-0.5800260305404663,-0.007846951484680176,0.3747458755970001,-0.5613911151885986,0.3747458755970001,0.0,7.494917511940002,0.0,-0.011356974951922894,0.012383815832436085,0.0005134204402565956,-0.0004423365753609687,-0.005459344480186701,-0.007835755124688148,-0.22693111418296957,0.2269311100244522,0.0751781091094017,-0.005470197182148695,-0.2269609428997355,0.8482604622840881,19,0.0,0.4999736547470093,1.1503724635986146e-05,0.0,False,True,False,False,False,False,0.27164748311042786,-0.0014855848858132958,0.0015452062943950295,0.0,0.00042829348240047693,0.3747458755970001,0.0,0.0
zero_steer,124,False,-2.437718391418457,-0.00047650234773755074,-0.2285599808978854,-1.171026349067688,-0.0055295201018452644,-0.5710310935974121,-0.007922988384962082,0.37486955523490906,-0.5614469051361084,0.37486955523490906,0.0,7.497391104698181,0.0,-0.011392765678465366,0.012442204169929028,0.0005247192457318306,-0.00046605151146650314,-0.005518571939319372,-0.007911804132163525,-0.22853748929839196,0.22853748500347137,0.0841556265950203,-0.0055294884368777275,-0.2285599808978854,0.8482604622840881,19,0.0,0.5089684724807739,1.1417068890295923e-05,0.0,False,True,False,False,False,False,0.2717447280883789,0.0016224945429712534,-0.002469627885147929,3.2935545846157765e-07,-0.00018470284703653306,0.37486955523490906,0.0,0.0
zero_steer,125,False,-2.4287195205688477,-0.000501762144267559,-0.2307512976826959,-1.1620277166366577,-0.005603226367384195,-0.5620325803756714,-0.008019641973078251,0.37474021315574646,-0.5613102912902832,0.37474021315574646,0.0,7.494804263114929,0.0,-0.01157547440379858,0.012499727308750153,0.0004621264524757862,-0.0004913769080303609,-0.005592303350567818,-0.008008463308215141,-0.23072696513377772,0.23072697222232819,0.08221882581710815,-0.005603194236755371,-0.2307512976826959,0.9999991655349731,20,0.0,0.5179669857025146,1.1426755008869804e-05,0.0,False,True,False,False,False,False,0.2716473639011383,-0.010269248858094215,0.010798635892570019,3.063496478716843e-08,-0.0006279739318415523,0.37474021315574646,0.0,0.0
zero_steer,126,False,-2.4197332859039307,-0.0005429629236459732,-0.22977791568468975,-1.1530413627624512,-0.00562290707603097,-0.5530462265014648,-0.008029129356145859,0.37477579712867737,-0.5614423751831055,0.37477579712867737,0.0,7.495515942573547,0.0,-0.011602853424847126,0.012306895107030869,0.00035202084109187126,-0.000532735837623477,-0.005612049251794815,-0.008017972111701965,-0.2297493676283932,0.22974936664104462,0.0732574313879013,-0.005622874945402145,-0.22977791568468975,0.9999991655349731,20,0.0,0.5269534587860107,1.1438152796472423e-05,0.0,False,True,False,False,False,False,0.27144381403923035,-0.004841125104576349,0.0050054993480443954,1.1038380876016163e-08,-0.000133056819322519,0.37477579712867737,0.0,0.0
zero_steer,127,False,-2.410738229751587,-0.0005705272778868675,-0.23097551998654273,-1.144046425819397,-0.005676948465406895,-0.5440512895584106,-0.008095712400972843,0.3747919499874115,-0.5613803863525391,0.3747919499874115,0.0,7.49583899974823,0.0,-0.01169783715158701,0.012463314458727837,0.0003827386535704136,-0.0005603728350251913,-0.0056661153212189674,-0.008084557950496674,-0.23094483749613057,0.23094484210014343,0.06429748982191086,-0.005676915869116783,-0.23097551998654273,0.9999991655349731,20,0.0,0.5359482765197754,1.1454661944299005e-05,0.0,False,True,False,False,False,False,0.27185162901878357,0.001572601730003953,-0.0024423871655017138,2.874926678941847e-07,-0.00011455785715952516,0.3747919499874115,0.0,0.0
zero_steer,128,False,-2.401742696762085,-0.0006110952235758305,-0.22997348321053424,-1.1350507736206055,-0.005695363041013479,-0.5350556373596191,-0.008103633299469948,0.3748309910297394,-0.5613476037979126,0.3748309910297394,0.0,7.496619820594788,0.0,-0.01138996984809637,0.012348301708698273,0.000479165930300951,-0.0006009848439134657,-0.005684557370841503,-0.00809249747544527,-0.22994202698775518,0.22994202375411987,0.055344559252262115,-0.005695330444723368,-0.22997348321053424,0.9999991655349731,20,0.0,0.5449439287185669,1.1437511602707673e-05,0.0,False,True,False,False,False,False,0.27182328701019287,0.002459330949932337,-0.002357310615479946,3.548446159129526e-08,2.159387804567814e-05,0.3748309910297394,0.0,0.0
zero_steer,129,False,-2.3927412033081055,-0.0006292187608778477,-0.23357806218415558,-1.1260497570037842,-0.005793176591396332,-0.5260546207427979,-0.008239193819463253,0.3749268054962158,-0.5614006519317627,0.3749268054962158,0.0,7.498536109924316,0.0,-0.01132575236260891,0.01245963852852583,0.0005669430829584599,-0.0006188284023664892,-0.005782246123999357,-0.008228006772696972,-0.23355364959395808,0.23355364799499512,0.04641268029808998,-0.005793143529444933,-0.23357808886458203,0.9999991655349731,20,0.0,0.5539450645446777,1.141774464485934e-05,0.0,False,True,False,False,False,False,0.27213054895401,0.0025048102252185345,-0.0023957956582307816,0.0,3.5381235647946596e-05,0.3749268054962158,0.0,0.0
zero_steer,130,False,-2.383735179901123,-0.0006521651521325111,-0.23638740436714645,-1.1170438528060913,-0.005878231953829527,-0.5170489549636841,-0.00835366826504469,0.37486210465431213,-0.5615633726119995,0.37486210465431213,0.0,7.497242093086243,0.0,-0.011414800770580769,0.01255548745393753,0.000570343341678381,-0.0006416769465431571,-0.0058672502636909485,-0.008342452347278595,-0.23636509953063814,0.23636510968208313,0.037507299333810806,-0.005878198426216841,-0.2363874310475729,0.9999991655349731,20,0.0,0.5629507303237915,1.142342352977721e-05,0.0,False,True,False,False,False,False,0.2722145617008209,0.002518202643841505,-0.002436953829601407,0.0,4.8305118980351835e-05,0.37486210465431213,0.0,0.0
zero_steer,131,False,-2.374722480773926,-0.0006725299172103405,-0.23925368258017174,-1.1080313920974731,-0.005961963906884193,-0.5080366134643555,-0.00846741534769535,0.3749690353870392,-0.5616954565048218,0.3749690353870392,0.0,7.499380707740784,0.0,-0.011449831537902355,0.012568626552820206,0.0005593975074589252,-0.0006624171510338783,-0.005951142404228449,-0.008456258103251457,-0.23922163938801086,0.23922164738178253,0.028658360242843628,-0.00596192991361022,-0.23925368258017174,0.9999991655349731,20,0.0,0.5719630718231201,1.1446923963376321e-05,0.0,False,True,False,False,False,False,0.2722363770008087,-0.0021391373593360186,0.002364112064242363,0.0,-0.00017937012307811528,0.3749690353870392,0.0,0.0
zero_steer,132,False,-2.3657069206237793,-0.0007047881372272968,-0.24091400551786663,-1.0990159511566162,-0.006030927412211895,-0.4990212917327881,-0.008553765714168549,0.3750319182872772,-0.5617215633392334,0.3750319182872772,0.0,7.500638365745544,0.0,-0.011581850238144398,0.012422185391187668,0.00042016757652163506,-0.0006946339854039252,-0.006020060274749994,-0.00854256097227335,-0.2408817488822942,0.2408817559480667,0.019949356094002724,-0.006030892953276634,-0.24091400551786663,0.9999991655349731,20,0.0,0.580978274345398,1.149670879385667e-05,0.0,False,True,False,False,False,False,0.2724127471446991,-0.005306927487254143,0.004183853976428509,3.997324711235706e-07,0.0008992260554805398,0.3750319182872772,0.0,0.0
zero_steer,133,False,-2.3566975593566895,-0.0007448107935488224,-0.23960140857803414,-1.0900065898895264,-0.006041932851076126,-0.4900118112564087,-0.00855102576315403,0.3752453029155731,-0.5618274211883545,0.3752453029155731,0.0,7.504906058311462,0.0,-0.011384199373424053,0.012387054972350597,0.0005014277994632721,-0.0007345795165747404,-0.006031040567904711,-0.008539821021258831,-0.23957155318084178,0.23957155644893646,0.011689137667417526,-0.006041898392140865,-0.2396014352584606,0.9999991655349731,20,0.0,0.5899878144264221,1.1468383490864653e-05,0.0,False,True,False,False,False,False,0.27150899171829224,-0.014059449546039104,0.013328875415027142,1.1611742678496739e-07,0.0021991818211972713,0.3752453029155731,0.0,0.0
zero_steer,134,False,-2.34770131111145,-0.0007915436290204525,-0.2377449578255394,-1.081010103225708,-0.006047622300684452,-0.4810152053833008,-0.008537274785339832,0.3751165568828583,-0.5618096590042114,0.3751165568828583,0.0,7.5023311376571655,0.0,-0.01139727234840393,0.012387258000671864,0.0004949928261339664,-0.0007810521638020873,-0.0060366312973201275,-0.008526047691702843,-0.23772233282391372,0.23772233724594116,0.006131391040980816,-0.006047587841749191,-0.23774493114511294,0.9999991655349731,20,0.0,0.5989844799041748,1.142283326771576e-05,0.0,False,True,False,False,False,False,0.27135488390922546,-0.013948659412562847,0.010572407394647598,8.66774030328088e-07,0.0015010249335318804,0.3751165568828583,0.0,0.0
zero_steer,135,False,-2.3387134075164795,-0.0008268537931144238,-0.2378668340135418,-1.0720221996307373,-0.006085626780986786,-0.47202742099761963,-0.00857655517756939,0.3752254247665405,-0.5619112253189087,0.3752254247665405,0.0,7.5045084953308105,0.0,-0.010867670178413391,0.012404094450175762,0.0007682121358811855,-0.0008165427716448903,-0.006074703298509121,-0.008565341122448444,-0.23783911305046507,0.23783911764621735,0.010033983737230301,-0.006085591856390238,-0.2378668340135418,0.9999991655349731,20,0.0,0.6079720854759216,1.1454947525635362e-05,0.0,False,True,False,False,False,False,0.27174821496009827,0.0022336491383612156,-0.0022445409558713436,0.0,-1.936816261149943e-06,0.3752254247665405,0.0,0.0
