Su2050/forklift_sim/outputs/exp83_single_point_steer_diag/exp83_force_steering_guidance_v3_seed42_point_ypos0p1_yaw0_zero_steer_steps.csv
mode,step,done,root_x,root_y,root_yaw_deg,fork_center_x,fork_center_y,tip_x,tip_y,raw_drive,raw_steer,applied_drive,applied_steer,drive_target_rad_s,steer_target_rad,left_steer_joint_pos_rad,right_steer_joint_pos_rad,mean_steer_joint_pos_rad,root_y_signed_m,center_y_signed_m,tip_y_signed_m,yaw_err_signed_deg,yaw_err_abs_deg,d_traj_m,d_traj_signed_m,yaw_traj_signed_deg,traj_s_norm,traj_closest_idx,dist_front_m,insert_depth_m,pallet_disp_xy_m,hold_counter,inserted,push_free,hold_entry,clean_insert_ready,dirty_insert,success,policy_vx_r,policy_vy_r,policy_yaw_rate,policy_lift_pos,policy_lift_vel,policy_prev_drive,policy_prev_steer,policy_prev_lift,policy_y_err_obs,policy_yaw_err_obs,policy_d_traj_signed_obs,policy_yaw_traj_err_obs,steer_target_cmd,steer_target_abs,steer_guidance_gate,steer_enforce_gate,steer_penalty_gate,steer_match,steer_wrong_sign,steer_shortfall
zero_steer,0,False,-3.5,0.10000000149011612,0.0,-2.233297824859619,0.10000000149011612,-1.6332979202270508,0.10000000149011612,nan,nan,nan,nan,nan,nan,0.0,0.0,0.0,0.10000000149011612,0.10000000149011612,0.10000000149011612,0.0,0.0,0.0,0.0,6.537130939050068,0.0,0,0.5532978773117065,0.0,0.0,0.0,False,True,False,False,False,False,0.0,0.0,0.0,0.0,0.0,0.0,0.0,0.0,0.125,0.0,0.0,0.4358087182044983,0.16520217061042786,0.16520217061042786,0.12126544862985611,0.0,0.0,0.8347978591918945,False,0.16520217061042786
zero_steer,1,False,-3.499774694442749,0.09999904036521912,-0.00012126640737710835,-2.2330727577209473,0.09999635815620422,-1.6330726146697998,0.09999509155750275,0.3143669068813324,0.20263364911079407,0.3143669068813324,0.0,6.287338137626648,0.0,0.0001200105034513399,-0.00011998945410596207,1.0524672688916326e-08,0.09999735653400421,0.09999468177556992,0.09999341517686844,-0.00012106926143306652,0.0001210692644235678,0.00022509662085212767,2.200210110459011e-05,6.5370092763054775,0.0,0,0.5530718564987183,0.0,1.7946005073099514e-06,0.0,False,True,False,False,False,False,-0.0010054039303213358,6.730898348905612e-06,-0.0001145294081652537,0.0,3.620954885263927e-05,0.3143669068813324,0.0,0.0,0.12499669194221497,-8.0712843555375e-06,6.28631460131146e-05,0.43580061197280884,0.16520610451698303,0.16520610451698303,0.121269591152668,0.0,0.0,0.962572455406189,False,0.0
zero_steer,2,False,-3.4991466999053955,0.09999625384807587,-0.00045960609312398594,-2.2324447631835938,0.09998609125614166,-1.6324446201324463,0.09998127818107605,0.3314415514469147,0.22210024297237396,0.3314415514469147,0.0,6.6288310289382935,0.0,0.0002192872780142352,-0.00021807085431646556,6.082118488848209e-07,0.09999288618564606,0.09998273104429245,0.09997791796922684,-0.00045940896020749605,0.00045940896961838007,0.0008531750645488501,8.329315460287035e-05,6.536670755054739,0.0,0,0.5524433851242065,0.0,3.5810819554171758e-06,0.0,False,True,False,False,False,False,-0.0020244887564331293,1.3387862054514699e-05,-0.00022759240528102964,0.0,2.2385936972568743e-05,0.3314415514469147,0.0,0.0,0.12499110400676727,-3.0627263186033815e-05,0.00023798045003786683,0.43577805161476135,0.16521860659122467,0.16521860659122467,0.12128274887800217,0.0,0.0,0.9431183338165283,False,0.0
zero_steer,3,False,-3.498696804046631,0.09999483823776245,-0.0005701034440189092,-2.23199462890625,0.09998223185539246,-1.6319947242736816,0.09997626394033432,0.3324320316314697,0.22319762408733368,0.3324320316314697,0.0,6.6486406326293945,0.0,0.000260238564806059,-0.000257497449638322,1.3705575838685036e-06,0.09998978674411774,0.09997718781232834,0.0999712198972702,-0.0005699063111024193,0.0005699063185602427,0.0013033170253038406,0.00013070210115984082,6.536560618254372,0.0,0,0.5519927740097046,0.0,5.367906851461157e-06,0.0,False,True,False,False,False,False,0.033954519778490067,3.1625721021555364e-05,1.0507331353437621e-05,0.0,3.23447966366075e-05,0.3324320316314697,0.0,0.0,0.12498722970485687,-3.7993755540810525e-05,0.0003734345955308527,0.4357706904411316,0.1652374267578125,0.1652374267578125,0.12130255997180939,0.0,0.0,0.9420397877693176,False,0.0
zero_steer,4,False,-3.496884346008301,0.09999469667673111,-0.0005843006096105239,-2.23018217086792,0.09998177736997604,-1.6301822662353516,0.09997566044330597,0.3324078917503357,0.2231907993555069,0.3324078917503357,0.0,6.648157835006714,0.0,0.00023166995379142463,-0.000228907068958506,1.381442416459322e-06,0.0999879539012909,0.09997504204511642,0.09996892511844635,-0.0005841034766940341,0.0005841034580953419,0.0031157073099166155,0.00033657968742772937,6.536546104102386,0.0,0,0.5501798391342163,0.0,7.154817467380781e-06,0.0,False,True,False,False,False,False,0.07052625715732574,9.770367796591017e-06,-0.00015056705160532147,1.1327920823589466e-09,0.0003258736396674067,0.3324078917503357,0.0,0.0,0.12498494237661362,-3.894023029715754e-05,0.0009616562747396529,0.4357697367668152,0.1653532087802887,0.1653532087802887,0.12142443656921387,0.0,0.0,0.9421623945236206,False,0.0
zero_steer,5,False,-3.493856906890869,0.09999454021453857,-0.000591331370970748,-2.2271547317504883,0.09998146444559097,-1.62715482711792,0.09997527301311493,0.3324572443962097,0.2232414036989212,0.3324572443962097,0.0,6.649144887924194,0.0,0.00021060870494693518,-0.00020293805573601276,3.83532460546121e-06,0.09998611360788345,0.09997304528951645,0.0999668538570404,-0.0005911342380542582,0.0005911342450417578,0.006143121048808098,0.0006809105980210006,6.536539273913216,0.0,0,0.5471516847610474,0.0,8.941762644099072e-06,0.0,False,True,False,False,False,False,0.10690884292125702,0.00019743874145206064,-0.0002574361569713801,0.0,0.00010925153037533164,0.3324572443962097,0.0,0.0,0.12498264014720917,-3.940894748666324e-05,0.0019454589346423745,0.43576928973197937,0.16554851830005646,0.16554851830005646,0.12163002789020538,0.0,0.0,0.9423071146011353,False,0.0
zero_steer,6,False,-3.4896585941314697,0.09999565780162811,-0.0005815385080407262,-2.222956657409668,0.09998279809951782,-1.6229565143585205,0.09997671097517014,0.33276665210723877,0.22354203462600708,0.33276665210723877,0.0,6.655333042144775,0.0,0.00017404822574462742,-0.00013889778347220272,1.757522113621235e-05,0.09998656064271927,0.09997393190860748,0.09996794909238815,-0.0005712989042983683,0.0005712989368475974,0.004663514439016581,-0.0001262148143723607,22.49325922940874,0.012250503525137901,1,0.5429538488388062,0.0,8.870932106219698e-06,0.0,False,True,False,False,False,False,0.14061596989631653,0.00031424881308339536,-0.000635990931186825,2.1050881571227364e-07,5.426598363555968e-05,0.33276665210723877,0.0,0.0,0.12498319894075394,-3.80865931219887e-05,-0.00036061377613805234,1.0,0.3061460852622986,0.3061460852622986,0.2696274518966675,0.0,0.0,0.9173959493637085,False,0.0826040506362915
zero_steer,7,False,-3.4844810962677,0.09999530017375946,-0.0006472513561714956,-2.2177791595458984,0.09998099505901337,-1.617779016494751,0.09997421503067017,0.3022298216819763,0.18516458570957184,0.3022298216819763,0.0,6.044596433639526,0.0,5.6265816965606064e-05,8.891592005966231e-05,7.259086851263419e-05,0.09998549520969391,0.09997165203094482,0.09996508806943893,-0.0006264623535008078,0.0006264623370952904,0.0018569811945781112,0.0018527862848713994,22.493194342611623,0.012250503525137901,1,0.5377765893936157,0.0,8.87166697793873e-06,0.0,False,True,False,False,False,False,0.16795088350772858,3.8270816730801016e-05,-0.00012107154907425866,1.7285860565152689e-07,-0.00017159940034616739,0.3022298216819763,0.0,0.0,0.12498186528682709,-4.176415677648038e-05,0.005293675232678652,1.0,0.3072739839553833,0.3072739839553833,0.2708147168159485,0.0,0.0,0.8778905868530273,False,0.12210939824581146
zero_steer,8,False,-3.4785079956054688,0.09999535977840424,-0.0006469189451552944,-2.211805820465088,0.09998105466365814,-1.6118059158325195,0.09997428208589554,0.3006718158721924,0.18338146805763245,0.3006718158721924,0.0,6.013436317443848,0.0,2.4133822080329992e-05,0.00012144601350883022,7.27899168850854e-05,0.09998448938131332,0.09997104853391647,0.0999646857380867,-0.000607722897417078,0.0006077229045331478,0.006996451411396265,0.00413795979693532,22.493194342611623,0.012250503525137901,1,0.5318036079406738,0.0,8.81861888046842e-06,0.0,False,True,False,False,False,False,0.18987922370433807,0.0001014174340525642,-0.0002599422005005181,1.373635427626141e-07,-0.000162327938596718,0.3006718158721924,0.0,0.0,0.1249806135892868,-4.0514860302209854e-05,0.011822742410004139,1.0,0.30858004093170166,0.30858004093170166,0.27218952775001526,0.0,0.0,0.8748013973236084,False,0.1251985728740692
zero_steer,9,False,-3.4718971252441406,0.09999510645866394,-0.000624310931457403,-2.2051949501037598,0.09998130053281784,-1.6051950454711914,0.09997476637363434,0.3006185293197632,0.18333503603935242,0.3006185293197632,0.0,6.012370586395264,0.0,-6.873274833196774e-05,0.00027211103588342667,0.00010168914741370827,0.09998451173305511,0.0999714583158493,0.09996528178453445,-0.0005902440393726837,0.0005902440752834082,0.006686827167868614,0.006212642416357994,39.857145429880866,0.02239859662950039,2,0.5251926183700562,0.0,8.858994988258928e-06,0.0,False,True,False,False,False,False,0.20757393538951874,0.00013149860023986548,-0.00024499432765878737,3.452725394481604e-08,2.0902924006804824e-05,0.3006185293197632,0.0,0.0,0.12498064339160919,-3.934960113838315e-05,0.01775040663778782,1.0,0.30976632237434387,0.30976632237434387,0.2734382450580597,0.0,0.0,0.8735687136650085,False,0.12643128633499146
zero_steer,10,False,-3.4647722244262695,0.09999466687440872,-0.000685536986467472,-2.1980700492858887,0.09997951239347458,-1.5980701446533203,0.09997233003377914,0.3006570637226105,0.18330006301403046,0.3006570637226105,0.0,6.0131412744522095,0.0,-7.538869249401614e-05,0.00026850830181501806,9.655980102252215e-05,0.0999833419919014,0.09996923059225082,0.09996253997087479,-0.0006382872539879329,0.0006382872816175222,0.011187437921762466,0.010777095332741737,39.857087373272925,0.02239859662950039,2,0.5180679559707642,0.0,8.766317478148267e-06,0.0,False,True,False,False,False,False,0.22172532975673676,0.0001345341734122485,-0.0002554167003836483,1.4956147253997187e-07,-0.00035475147888064384,0.3006570637226105,0.0,0.0,0.1249791756272316,-4.255248495610431e-05,0.03079170174896717,1.0,0.3123718798160553,0.3123718798160553,0.2761809229850769,0.0,0.0,0.870928168296814,False,0.12907181680202484
zero_steer,11,False,-3.4572343826293945,0.0999947041273117,-0.000653860441729384,-2.1905322074890137,0.09998025000095367,-1.5905323028564453,0.0999734029173851,0.3007943332195282,0.18341493606567383,0.3007943332195282,0.0,6.015886664390564,0.0,-0.00018039414135273546,0.00043303571874275804,0.00012632078141905367,0.09998399764299393,0.09997036308050156,0.09996391087770462,-0.000616519830053694,0.0006165198283270001,0.01578778401017189,0.014480670914053917,54.705638591124675,0.031632695347070694,3,0.5105301141738892,0.0,8.748050277063157e-06,0.0,False,True,False,False,False,False,0.2331564575433731,0.00012431503273546696,-0.00018661768990568817,1.890556404759991e-07,-0.00022564054233953357,0.3007943332195282,0.0,0.0,0.12497999519109726,-4.1101320675807074e-05,0.041373346000909805,1.0,0.314489483833313,0.314489483833313,0.2784099876880646,0.0,0.0,0.8689254522323608,False,0.13107454776763916
zero_steer,12,False,-3.449366331100464,0.09999466687440872,-0.0006623964064448312,-2.182664394378662,0.09998001903295517,-1.5826642513275146,0.09997308254241943,0.30087825655937195,0.1835671067237854,0.30087825655937195,0.0,6.017565131187439,0.0,-0.0002976729010697454,0.0006064295885153115,0.00015437834372278303,0.09998402744531631,0.09997015446424484,0.09996358305215836,-0.0006273114372283482,0.0006273114704526961,0.02097593992948532,0.020901674404740334,54.705628345840914,0.031632695347070694,3,0.502661943435669,0.0,8.854834049998317e-06,0.0,False,True,False,False,False,False,0.24234125018119812,4.0949333197204396e-05,-0.00010744235623860732,0.0,-0.000371036643628031,0.30087825655937195,0.0,0.0,0.12498003244400024,-4.1820763726718724e-05,0.05971907079219818,1.0,0.31815820932388306,0.31815820932388306,0.2822718024253845,0.0,0.0,0.8654088973999023,False,0.13459110260009766
zero_steer,13,False,-3.4412295818328857,0.09999344497919083,-0.0005635539204286518,-2.174527645111084,0.09998098760843277,-1.5745275020599365,0.0999750867486,0.3011239767074585,0.18370786309242249,0.3011239767074585,0.0,6.02247953414917,0.0,-0.0003250001755077392,0.0009880937868729234,0.0003315468202345073,0.09998253732919693,0.0999709889292717,0.09996552020311356,-0.0005224834685122328,0.0005224834894761443,0.02770385332405567,0.027542859315872192,54.705730798678466,0.031632695347070694,3,0.4945251941680908,0.0,8.754846930969507e-06,0.0,False,True,False,False,False,False,0.24933940172195435,0.0005479627288877964,-0.0007266682223416865,8.043660670864483e-08,-0.0002364454121561721,0.3011239767074585,0.0,0.0,0.12497816979885101,-3.483223190414719e-05,0.07869388908147812,1.0,0.3219567835330963,0.3219567835330963,0.28627029061317444,0.0,0.0,0.8617510795593262,False,0.13824892044067383
zero_steer,14,False,-3.432882785797119,0.09999319911003113,-0.0005296937495386762,-2.1661806106567383,0.09998148679733276,-1.56618070602417,0.09997594356536865,0.3012602627277374,0.18393400311470032,0.3012602627277374,0.0,6.0252052545547485,0.0,-0.0005632871179841459,0.0014234674163162708,0.0004300901491660625,0.09998232871294022,0.09997150301933289,0.0999663770198822,-0.0004897990081329217,0.0004897990147583187,0.034518130123615265,0.0332225039601326,64.92337277812655,0.04082300513982773,4,0.48617851734161377,0.0,8.765063284954522e-06,0.0,False,True,False,False,False,False,0.2554125487804413,0.00012166427040938288,-0.00027088107890449464,0.0,-0.00035439469502307475,0.3012602627277374,0.0,0.0,0.12497790902853012,-3.265326813561842e-05,0.09492143988609314,1.0,0.3252035677433014,0.3252035677433014,0.28968796133995056,0.0,0.0,0.8587304353713989,False,0.14126956462860107
zero_steer,15,False,-3.424365997314453,0.09999259561300278,-0.0004045820647827859,-2.1576638221740723,0.09998365491628647,-1.557663917541504,0.09997941553592682,0.30133408308029175,0.18411168456077576,0.30133408308029175,0.0,6.026681661605835,0.0,-0.0005659845191985369,0.0018497469136491418,0.0006418811972253025,0.09998202323913574,0.09997384250164032,0.09996996819972992,-0.00037020649788156447,0.0003702065150719136,0.04134224355220795,0.040936797857284546,64.92350255172079,0.04082300513982773,4,0.4776616096496582,0.0,8.825797522149514e-06,0.0,False,True,False,False,False,False,0.25970250368118286,0.00010950327850878239,-0.0003528185188770294,1.1803270894006346e-07,-0.00029558068490587175,0.30133408308029175,0.0,0.0,0.12497752904891968,-2.4680433853063732e-05,0.11696228384971619,1.0,0.32961663603782654,0.32961663603782654,0.2943333089351654,0.0,0.0,0.8544950485229492,False,0.14550495147705078
zero_steer,16,False,-3.4157214164733887,0.09999151527881622,-0.00019238118204463318,-2.149019241333008,0.09998726099729538,-1.5490193367004395,0.09998524934053421,0.30156755447387695,0.18436671793460846,0.30156755447387695,0.0,6.031351089477539,0.0,-0.0006989466492086649,0.002631489420309663,0.000966271385550499,0.09998083114624023,0.09997738152742386,0.09997574985027313,-0.00015618343842107812,0.0001561834360472858,0.048816435039043427,0.04876743629574776,64.92371428758506,0.04082300513982773,4,0.46901702880859375,0.0,8.85300960362656e-06,0.0,False,True,False,False,False,False,0.2630313038825989,-0.00033627820084802806,-0.0011284505017101765,2.0085914798073645e-07,0.00020985567243769765,0.30156755447387695,0.0,0.0,0.12497603893280029,-1.0412229130452033e-05,0.1393355429172516,1.0,0.3340997099876404,0.3340997099876404,0.29905232787132263,0.0,0.0,0.8502669930458069,False,0.14973299205303192
zero_steer,17,False,-3.4069786071777344,0.09999018907546997,-7.770394109844304e-05,-2.1402764320373535,0.09998846799135208,-1.5402765274047852,0.09998765587806702,0.3016895055770874,0.18445047736167908,0.3016895055770874,0.0,6.033790111541748,0.0,-0.0008070525946095586,0.003389374352991581,0.001291160937398672,0.09997975826263428,0.0999787449836731,0.09997826814651489,-4.579283528704022e-05,4.5792836317559704e-05,0.056713927537202835,0.05668602138757706,64.92383040080094,0.04082300513982773,4,0.4602741003036499,0.0,8.8521064753877e-06,0.0,False,True,False,False,False,False,0.2657419443130493,0.0002620090963318944,-0.0006980931502766907,0.0,7.00906093697995e-05,0.3016895055770874,0.0,0.0,0.12497469782829285,-3.052855618079775e-06,0.16196006536483765,1.0,0.3386286795139313,0.3386286795139313,0.3038196563720703,0.0,0.0,0.8458217978477478,False,0.1541782021522522
zero_steer,18,False,-3.398160934448242,0.09998952597379684,0.00020939037078521487,-2.1314587593078613,0.09999416023492813,-1.531458854675293,0.09999635070562363,0.3018646836280823,0.18459466099739075,0.3018646836280823,0.0,6.0372936725616455,0.0,-0.0009431312792003155,0.004235289990901947,0.0016460793558508158,0.09997905790805817,0.09998441487550735,0.09998694062232971,0.00024189787792604578,0.0002418978838250041,0.06490051001310349,0.06467431038618088,64.92411726874609,0.04082300513982773,4,0.4514564275741577,0.0,8.861984497343656e-06,0.0,False,True,False,False,False,False,0.2677774727344513,-0.0015337044605985284,0.0007247329340316355,2.3399606163820863e-07,-0.00012185254308860749,0.3018646836280823,0.0,0.0,0.12497381865978241,1.6126525224535726e-05,0.18478374183177948,1.0,0.3432052433490753,0.3432052433490753,0.3086370825767517,0.0,0.0,0.8413894176483154,False,0.15861058235168457
zero_steer,19,False,-3.3892858028411865,0.09998801350593567,0.0004591238131498613,-2.1225838661193848,0.09999816864728928,-1.5225837230682373,0.10000297427177429,0.3019852042198181,0.1846899390220642,0.3019852042198181,0.0,6.039704084396362,0.0,-0.0009129460668191314,0.0050961957313120365,0.0020916247740387917,0.099977508187294,0.09998840093612671,0.09999355673789978,0.0004923156185132974,0.0004923156229779124,0.07275974750518799,0.0721178725361824,70.61113084718463,0.05035323277115822,5,0.44258129596710205,0.0,8.859940862748772e-06,0.0,False,True,False,False,False,False,0.2692027986049652,-0.0015556893777102232,0.0007239148253574967,3.44431128951328e-07,-0.00011188226926606148,0.3019852042198181,0.0,0.0,0.12497188150882721,3.282104080426507e-05,0.2060510665178299,1.0,0.34746846556663513,0.34746846556663513,0.3131246864795685,0.0,0.0,0.8372215032577515,False,0.16277852654457092
zero_steer,20,False,-3.3803670406341553,0.09999013692140579,0.0003850967813484717,-2.1136651039123535,0.09999865293502808,-1.513664960861206,0.10000268369913101,0.30205976963043213,0.18480759859085083,0.30205976963043213,0.0,6.041195392608643,0.0,-0.0010173560585826635,0.0057771760039031506,0.0023799100890755653,0.0999792143702507,0.09998864680528641,0.09999311715364456,0.00042667267622642735,0.00042667269008234143,0.0808100700378418,0.08053025603294373,70.61105571510376,0.05035323277115822,5,0.43366265296936035,0.0,8.782692020758986e-06,0.0,False,True,False,False,False,False,0.27046728134155273,0.00066346675157547,-0.001079369569197297,3.165048099162959e-07,-0.0001807117077987641,0.30205976963043213,0.0,0.0,0.12497401982545853,2.8444845156627707e-05,0.23008644580841064,1.0,0.35227370262145996,0.35227370262145996,0.3181828558444977,0.0,0.0,0.8325338959693909,False,0.16746610403060913
zero_steer,21,False,-3.3714120388031006,0.09999005496501923,0.00024398450092592548,-2.104710102081299,0.0999954491853714,-1.5047099590301514,0.09999800473451614,0.3023325204849243,0.185146763920784,0.3023325204849243,0.0,6.046650409698486,0.0,-0.0011219085427001119,0.006296501960605383,0.0025872967671602964,0.0999794453382492,0.09998565167188644,0.09998858720064163,0.00028054137507478296,0.000280541367828846,0.08905836939811707,0.08897560089826584,70.61091911132036,0.05035323277115822,5,0.42470788955688477,0.0,8.741938472667243e-06,0.0,False,True,False,False,False,False,0.2712980806827545,-0.0008777650073170662,0.0006506355130113661,1.72561357203449e-07,-0.00035217171534895897,0.3023325204849243,0.0,0.0,0.1249743103981018,1.870275809778832e-05,0.2542160153388977,1.0,0.35709354281425476,0.35709354281425476,0.32325637340545654,0.0,0.0,0.8280532360076904,False,0.17194677889347076
zero_steer,22,False,-3.3624320030212402,0.0999884158372879,5.7214871756881944e-05,-2.0957298278808594,0.09998968243598938,-1.495729923248291,0.09999027848243713,0.30245640873908997,0.1852881759405136,0.30245640873908997,0.0,6.049128174781799,0.0,-0.0013365066843107343,0.006705050356686115,0.0026842718943953514,0.09997717291116714,0.0999794751405716,0.09998056292533875,0.00010410832023122527,0.0001041083232848905,0.09745444357395172,0.09744393080472946,70.6107278660236,0.05035323277115822,5,0.41572773456573486,0.0,8.787292244960554e-06,0.0,False,True,False,False,False,False,0.27220550179481506,-0.0005434268969111145,0.0002751340507529676,1.7940173790975678e-08,8.554084342904389e-05,0.30245640873908997,0.0,0.0,0.12497146427631378,6.940554612810956e-06,0.27841123938560486,1.0,0.36192381381988525,0.36192381381988525,0.3283408582210541,0.0,0.0,0.8233643770217896,False,0.17663563787937164
zero_steer,23,False,-3.353431463241577,0.09998796880245209,-2.57238654140258e-05,-2.0867295265197754,0.09998740255832672,-1.486729383468628,0.09998713433742523,0.3026335835456848,0.18546633422374725,0.3026335835456848,0.0,6.052671670913696,0.0,-0.0014815906761214137,0.007240366190671921,0.0028793876990675926,0.09997735917568207,0.09997758269309998,0.09997768700122833,9.936126919093886e-06,9.93612684396794e-06,0.1059664860367775,0.10593230277299881,70.61064590375356,0.05035323277115822,5,0.4067270755767822,0.0,8.842838724376634e-06,0.0,False,True,False,False,False,False,0.2726236879825592,0.00021874067897442728,-0.0004678227996919304,8.513455185266139e-08,-2.9754155548289418e-05,0.3026335835456848,0.0,0.0,0.12497170269489288,6.624084676332131e-07,0.30266374349594116,1.0,0.3667704463005066,0.3667704463005066,0.3334425687789917,0.0,0.0,0.8186959028244019,False,0.18130411207675934
zero_steer,24,False,-3.3444151878356934,0.0999896377325058,-0.0002347760539775145,-2.0777130126953125,0.09998444467782974,-1.4777131080627441,0.09998198598623276,0.3028075695037842,0.18568605184555054,0.3028075695037842,0.0,6.056151390075684,0.0,-0.0015971255488693714,0.007719769142568111,0.00306132179684937,0.09997933357954025,0.09997481107711792,0.099972665309906,-0.0002045875031984904,0.0002045875007752329,0.1128309816122055,0.0,-0.0002347760539775145,0.1304512321949005,13,0.3977106809616089,0.0,8.855694431986194e-06,0.0,False,True,False,False,False,False,0.272709459066391,-0.0017021102830767632,0.0015444603050127625,1.890586247554893e-07,-0.00026329990942031145,0.3028075695037842,0.0,0.0,0.12497416883707047,-1.363916635455098e-05,0.0,-1.5651736248400994e-05,0.05622578039765358,0.05622578039765358,0.0065534524619579315,0.0,0.0,0.8705397248268127,False,0.0
zero_steer,25,False,-3.3353772163391113,0.09999091178178787,-0.0009221503682102673,-2.0686750411987305,0.09997052699327469,-1.468675136566162,0.09996087104082108,0.3529520630836487,0.24964843690395355,0.3529520630836487,0.0,7.059041261672974,0.0,-0.002124977298080921,0.008018393069505692,0.002946707885712385,0.09998054057359695,0.09996085613965988,0.09995152801275253,-0.000890479242933801,0.000890479248482734,0.11728116124868393,0.0,-0.0009221503682102673,0.1304512321949005,13,0.38867270946502686,0.0,8.847598110151011e-06,0.0,False,True,False,False,False,False,0.2735078036785126,-0.000761882052756846,0.00012486054038163275,3.0322803468152415e-07,0.00011971483763772994,0.3529520630836487,0.0,0.0,0.12497567385435104,-5.9365283959778026e-05,0.0,-6.147669046185911e-05,0.056185897439718246,0.056185897439718246,0.006511470302939415,0.0,0.0,0.8065374493598938,False,0.0
zero_steer,26,False,-3.326327323913574,0.09999626129865646,-0.0016324812873766662,-2.0596251487731934,0.09996016323566437,-1.459625244140625,0.09994307160377502,0.355299174785614,0.25244414806365967,0.355299174785614,0.0,7.10598349571228,0.0,-0.002632835879921913,0.008286114782094955,0.002826639451086521,0.09998580813407898,0.09995044022798538,0.0999336987733841,-0.0015994025611643754,0.0015994026325643063,0.12224839627742767,0.0,-0.0016324812873766662,0.1304512321949005,13,0.37962281703948975,0.0,8.853411600284744e-06,0.0,False,True,False,False,False,False,0.27373239398002625,-0.003018426476046443,0.0027608289383351803,2.573507345005055e-07,-9.43310878938064e-05,0.355299174785614,0.0,0.0,0.12498226016759872,-0.00010662683780537918,0.0,-0.0001088320859707892,0.056146930903196335,0.056146930903196335,0.0064704529941082,0.0,0.0,0.8037027716636658,False,0.0
zero_steer,27,False,-3.317274570465088,0.10000534355640411,-0.0035402199486918398,-2.050572395324707,0.09992707520723343,-1.4505724906921387,0.09989000111818314,0.35540616512298584,0.2524983882904053,0.35540616512298584,0.0,7.108123302459717,0.0,-0.003464387496933341,0.008517797105014324,0.0025267046876251698,0.09999457746744156,0.09991718828678131,0.09988053143024445,-0.0035003035294395987,0.0035003034863620996,0.12764866650104523,0.0,-0.0035402199486918398,0.1304512321949005,13,0.37057018280029297,0.0,8.76687863637926e-06,0.0,False,True,False,False,False,False,0.27357935905456543,0.0012318968074396253,-0.001320477924309671,3.0899340686119103e-07,-0.00015509669901803136,0.35540616512298584,0.0,0.0,0.1249932199716568,-0.000233353566727601,0.0,-0.0002360146609134972,0.05603940039873123,0.05603940039873123,0.006357262842357159,0.0,0.0,0.8035410046577454,False,0.0
zero_steer,28,False,-3.3082220554351807,0.10001754015684128,-0.00609329997072831,-2.041520118713379,0.0998828262090683,-1.4415199756622314,0.09981901943683624,0.35545623302459717,0.2526372969150543,0.35545623302459717,0.0,7.109124660491943,0.0,-0.004657212179154158,0.008630547672510147,0.0019866677466779947,0.10000693053007126,0.09987302124500275,0.09980960190296173,-0.006056747786498164,0.006056747864931822,0.13214492797851562,0.09988225251436234,-0.00609329997072831,0.2753758430480957,15,0.36151766777038574,0.0,8.820738003123552e-06,0.0,False,True,False,False,False,False,0.27363768219947815,0.0016611843602731824,-0.001873604254797101,2.9569355319836177e-07,-0.00018697732593864202,0.35545623302459717,0.0,0.0,0.12500865757465363,-0.0004037831677123904,0.2853778600692749,-0.0004062200023327023,0.11297088861465454,0.11297088861465454,0.0662851482629776,0.0,0.0,0.8603335618972778,False,0.0
zero_steer,29,False,-3.2991652488708496,0.10003010183572769,-0.008736868326580879,-2.0324630737304688,0.09983694553375244,-1.4324631690979004,0.09974545240402222,0.3564898669719696,0.2537052631378174,0.3564898669719696,0.0,7.129797339439392,0.0,-0.005681138951331377,0.008725585415959358,0.0015222232323139906,0.10001930594444275,0.09982704371213913,0.09973596781492233,-0.008696466657072664,0.00869646668434143,0.12636423110961914,0.09983637183904648,-0.008736868326580879,0.2753758430480957,15,0.35246098041534424,0.0,8.770329259277787e-06,0.0,False,True,False,False,False,False,0.2737824022769928,0.0011573266237974167,-0.0012298362562432885,2.0956086643764138e-07,-0.00010244980512652546,0.3564898669719696,0.0,0.0,0.12502413988113403,-0.0005797644262202084,0.2852467894554138,-0.0005824578693136573,0.11279556155204773,0.11279556155204773,0.0661005973815918,0.0,0.0,0.8590903282165527,False,0.0
zero_steer,30,False,-3.2901058197021484,0.1000417023897171,-0.011207590040997148,-2.0234036445617676,0.0997939258813858,-1.4234037399291992,0.09967655688524246,0.3564748764038086,0.2537083625793457,0.3564748764038086,0.0,7.129497528076172,0.0,-0.006579897832125425,0.008873147889971733,0.0011466250289231539,0.1000310480594635,0.09978412091732025,0.09966715425252914,-0.011169233592928634,0.011169233359396458,0.12098704278469086,0.09979335218667984,-0.011207590040997148,0.2753758430480957,15,0.3434016704559326,0.0,8.734850780456327e-06,0.0,False,True,False,False,False,False,0.27376994490623474,0.0015488816425204277,-0.0016320955473929644,2.8722385536639194e-07,-0.00011157686094520614,0.3564748764038086,0.0,0.0,0.12503880262374878,-0.0007446155650541186,0.28512388467788696,-0.0007471726858057082,0.11263147741556168,0.11263147741556168,0.06592787057161331,0.043988823890686035,0.002900089602917433,0.858923077583313,False,0.0
zero_steer,31,False,-3.2810451984405518,0.10005498677492142,-0.013945338634675194,-2.01434326171875,0.09974668174982071,-1.4143431186676025,0.0996006429195404,0.35645735263824463,0.25373125076293945,0.35645735263824463,0.0,7.129147052764893,0.0,-0.007313332986086607,0.008937801234424114,0.0008122341241687536,0.10004398226737976,0.09973663836717606,0.09959106147289276,-0.013901787007319772,0.013901786878705025,0.11606465280056,0.09974610805511475,-0.013945338634675194,0.2753758430480957,15,0.3343409299850464,0.0,8.80227435118286e-06,0.0,False,True,False,False,False,False,0.27389001846313477,0.0007309475913643837,-0.0009621201315894723,3.1960294677446655e-07,2.4025008315220475e-05,0.35645735263824463,0.0,0.0,0.1250549852848053,-0.000926785811316222,0.2849888801574707,-0.0009296892094425857,0.11245016008615494,0.11245016008615494,0.06573700904846191,0.10439375787973404,0.006862533278763294,0.8587188720703125,False,0.0
zero_steer,32,False,-3.271984338760376,0.10006514936685562,-0.016589965869952313,-2.005282402038574,0.09969837963581085,-1.4052823781967163,0.09952464699745178,0.356486439704895,0.2537870407104492,0.356486439704895,0.0,7.1297287940979,0.0,-0.007976045832037926,0.009050306864082813,0.0005371305160224438,0.10005471110343933,0.09968867152929306,0.09951528906822205,-0.016556823777727214,0.01655682362616062,0.11166051030158997,0.09969780594110489,-0.016589967537478968,0.2753758430480957,15,0.3252800703048706,0.0,8.83963093656348e-06,0.0,False,True,False,False,False,False,0.2737308442592621,0.001394176040776074,-0.00143650162499398,0.0,0.00018762587569653988,0.356486439704895,0.0,0.0,0.12506839632987976,-0.0011037882650271058,0.2848508954048157,-0.001105997827835381,0.11227185279130936,0.11227185279130936,0.0655493214726448,0.16479948163032532,0.01080249436199665,0.8584848046302795,False,0.0
zero_steer,33,False,-3.2629265785217285,0.10007703304290771,-0.01921617527334887,-1.9962246417999268,0.09965220093727112,-1.3962246179580688,0.0994509682059288,0.35650941729545593,0.25375261902809143,0.35650941729545593,0.0,7.130188345909119,0.0,-0.008515543304383755,0.009167405776679516,0.00032593123614788055,0.10006709396839142,0.0996427834033966,0.09944178909063339,-0.019192769869249674,0.01919277012348175,0.10784256458282471,0.09965162724256516,-0.01921617694087552,0.2753758430480957,15,0.31622231006622314,0.0,8.893830454326235e-06,0.0,False,True,False,False,False,False,0.2737998962402344,0.001324551529251039,-0.0010866232914850116,3.892224356150109e-07,-0.0001098967477446422,0.35650941729545593,0.0,0.0,0.12508386373519897,-0.0012795180082321167,0.28471893072128296,-0.001281078439205885,0.11209679394960403,0.11209679394960403,0.06536504626274109,0.22518455982208252,0.014719199389219284,0.8583441972732544,False,0.0
zero_steer,34,False,-3.25386905670166,0.10008847713470459,-0.02191750675245565,-1.9871671199798584,0.09960392862558365,-1.3871670961380005,0.09937440603971481,0.35652610659599304,0.25374042987823486,0.35652610659599304,0.0,7.130522131919861,0.0,-0.008961370214819908,0.009276692755520344,0.00015766127035021782,0.10007767379283905,0.09959401190280914,0.09936491400003433,-0.021877397733875006,0.02187739871442318,0.10466927289962769,0.09960336238145828,-0.02191750675245565,0.2753758430480957,15,0.30716490745544434,0.0,8.82789845491061e-06,0.0,False,True,False,False,False,False,0.27371668815612793,0.001169784925878048,-0.0012761882971972227,2.855146306046663e-07,-1.4469493180513382e-05,0.35652610659599304,0.0,0.0,0.1250970959663391,-0.0014584931777790189,0.2845810353755951,-0.0014611671213060617,0.11191622167825699,0.11191622167825699,0.06517497450113297,0.2855672240257263,0.018611837178468704,0.8581757545471191,False,0.0
zero_steer,35,False,-3.2448153495788574,0.10009646415710449,-0.024512254930493162,-1.9781134128570557,0.09955454617738724,-1.3781135082244873,0.09929785132408142,0.35642820596694946,0.2536923289299011,0.35642820596694946,0.0,7.128564119338989,0.0,-0.009348271414637566,0.009367945604026318,9.837094694375992e-06,0.10008610785007477,0.09954489767551422,0.09928853064775467,-0.024480436854430417,0.024480437859892845,0.1022024005651474,0.09955397993326187,-0.024512256598019817,0.2753758430480957,15,0.2981112003326416,0.0,8.846932360029314e-06,0.0,False,True,False,False,False,False,0.2735859453678131,0.0015955677954480052,-0.0017425809055566788,3.7723177115367434e-07,-4.560931120067835e-05,0.35642820596694946,0.0,0.0,0.12510763108730316,-0.0016320290742442012,0.28443995118141174,-0.0016341503942385316,0.11173903942108154,0.11173903942108154,0.06498846411705017,0.3459252715110779,0.022481152787804604,0.8580467104911804,False,0.0
zero_steer,36,False,-3.235766887664795,0.1001056656241417,-0.02734515092745533,-1.9690649509429932,0.0995011106133461,-1.3690650463104248,0.09921475499868393,0.3564189374446869,0.253695547580719,0.3564189374446869,0.0,7.128378748893738,0.0,-0.009554092772305012,0.00948183611035347,-3.612833097577095e-05,0.10009530931711197,0.09949147701263428,0.09920546412467957,-0.027312375691093856,0.027312375605106354,0.10049024969339371,0.09950054436922073,-0.02734515092745533,0.2753758430480957,15,0.28906285762786865,0.0,8.782897566561587e-06,0.0,False,True,False,False,False,False,0.273495078086853,0.0007566689164377749,-0.0013078743359073997,1.255669133115589e-07,-0.0001552178873680532,0.3564189374446869,0.0,0.0,0.1251191347837448,-0.0018208250403404236,0.2842872738838196,-0.0018230100395157933,0.11154629290103912,0.11154629290103912,0.06478556990623474,0.4062475562095642,0.026318980380892754,0.8578507304191589,False,0.0
zero_steer,37,False,-3.2267212867736816,0.10011527687311172,-0.030119713507048018,-1.9600193500518799,0.09944938868284225,-1.3600194454193115,0.09913397580385208,0.35641974210739136,0.25372183322906494,0.35641974210739136,0.0,7.128394842147827,0.0,-0.009814098477363586,0.00959840975701809,-0.00010784436017274857,0.10010422766208649,0.099439337849617,0.09912439435720444,-0.03007454021002271,0.03007454052567482,0.0995759665966034,0.09944882243871689,-0.030119713507048018,0.2753758430480957,15,0.2800171375274658,0.0,8.817145499051549e-06,0.0,False,True,False,False,False,False,0.27327561378479004,0.001707832794636488,-0.001836344599723816,1.5880156922776223e-07,-0.00013179756933823228,0.35641974210739136,0.0,0.0,0.1251302808523178,-0.002004969399422407,0.2841395139694214,-0.0020079808309674263,0.11135829240083694,0.11135829240083694,0.06458767503499985,0.46655237674713135,0.030133534222841263,0.8576364517211914,False,0.0
zero_steer,38,False,-3.2176809310913086,0.10012105107307434,-0.032613189456405546,-1.9509791135787964,0.09940003603696823,-1.350979208946228,0.09905850887298584,0.35644471645355225,0.2538358271121979,0.35644471645355225,0.0,7.128894329071045,0.0,-0.010135901160538197,0.009779335930943489,-0.00017828261479735374,0.10011035203933716,0.0993901938199997,0.09904907643795013,-0.03257425270906185,0.03257425129413605,0.09948132932186127,0.09939946979284286,-0.032613189456405546,0.2753758430480957,15,0.2709769010543823,0.0,8.838693247525953e-06,0.0,False,True,False,False,False,False,0.2732156813144684,0.0017629486974328756,-0.002119639655575156,1.0299499564325743e-07,-0.00010759438737295568,0.35644471645355225,0.0,0.0,0.12513794004917145,-0.002171616768464446,0.2839984893798828,-0.002174212597310543,0.11118590831756592,0.11118590831756592,0.06440622359514236,0.5268206000328064,0.03393052518367767,0.8573501110076904,False,0.0
zero_steer,39,False,-3.20864200592041,0.10012993216514587,-0.0353477630793366,-1.941940188407898,0.09934845566749573,-1.3419402837753296,0.09897829592227936,0.3565371036529541,0.2539076805114746,0.3565371036529541,0.0,7.130742073059082,0.0,-0.01034598145633936,0.009919417090713978,-0.00021328218281269073,0.10011947900056839,0.09933879226446152,0.098969005048275,-0.03531215138013865,0.03531215339899063,0.10020318627357483,0.09934788942337036,-0.0353477630793366,0.2753758430480957,15,0.26193809509277344,0.0,8.745487320993561e-06,0.0,False,True,False,False,False,False,0.2731608748435974,0.0018831699853762984,-0.001957293599843979,3.6843388784291164e-07,-2.900727849919349e-05,0.3565371036529541,0.0,0.0,0.12514935433864594,-0.0023541434202343225,0.28385111689567566,-0.002356517594307661,0.11099979281425476,0.11099979281425476,0.06421031057834625,0.5870792865753174,0.03769654408097267,0.8570921421051025,False,0.0
zero_steer,40,False,-3.199604034423828,0.10014038532972336,-0.03842642415697356,-1.9329023361206055,0.09929084777832031,-1.332902431488037,0.09888844937086105,0.3564031422138214,0.2538520097732544,0.3564031422138214,0.0,7.128062844276428,0.0,-0.010341901332139969,0.01001718733459711,-0.00016235699877142906,0.10012996196746826,0.0992811769247055,0.0988791361451149,-0.03839223319048383,0.03839223459362984,0.10172013938426971,0.09929028153419495,-0.03842642415697356,0.2753758430480957,15,0.25290000438690186,0.0,8.837365385261364e-06,0.0,False,True,False,False,False,False,0.2733384370803833,0.0004502282536122948,-0.001128169009461999,0.0,-0.0003391744685359299,0.3564031422138214,0.0,0.0,0.12516245245933533,-0.002559482119977474,0.2836865186691284,-0.0025617615319788456,0.11079075932502747,0.11079075932502747,0.0639902725815773,0.6473332643508911,0.04142303019762039,0.8569387197494507,False,0.0
zero_steer,41,False,-3.190561056137085,0.10014966875314713,-0.04114180121307717,-1.9238593578338623,0.09924010187387466,-1.323859453201294,0.09880926460027695,0.35641491413116455,0.2538990378379822,0.35641491413116455,0.0,7.128298282623291,0.0,-0.010287225246429443,0.010153708048164845,-6.675859913229942e-05,0.10013962537050247,0.09923063218593597,0.09880007058382034,-0.04111588451383881,0.041115883737802505,0.10401128232479095,0.0992395356297493,-0.04114180121307717,0.2753758430480957,15,0.24385714530944824,0.0,8.8891447376227e-06,0.0,False,True,False,False,False,False,0.27323973178863525,0.0013735041720792651,-0.0017857567872852087,3.618697519414127e-07,7.879361510276794e-05,0.35641491413116455,0.0,0.0,0.12517453730106354,-0.0027410590555518866,0.2835415303707123,-0.0027427866589277983,0.1106063649058342,0.1106063649058342,0.06379617750644684,0.7076189517974854,0.045143384486436844,0.8567073345184326,False,0.0
zero_steer,42,False,-3.181520938873291,0.10015774518251419,-0.043991104004776585,-1.9148192405700684,0.09918519109487534,-1.3148194551467896,0.09872451424598694,0.35642772912979126,0.25386786460876465,0.35642772912979126,0.0,7.128554582595825,0.0,-0.010209932923316956,0.010295137763023376,4.260241985321045e-05,0.10014666616916656,0.09917513281106949,0.09871494770050049,-0.043944616696748845,0.04394461587071419,0.10701499134302139,0.09918462485074997,-0.043991104004776585,0.2753758430480957,15,0.2348172664642334,0.0,8.796147085377015e-06,0.0,False,True,False,False,False,False,0.2731611728668213,0.0015602284111082554,-0.001781343249604106,4.146647540892445e-07,3.3068296033889055e-05,0.35642772912979126,0.0,0.0,0.1251833289861679,-0.002929641166701913,0.28338465094566345,-0.002932740142568946,0.11041142046451569,0.11041142046451569,0.06359097361564636,0.7678848505020142,0.048830546438694,0.8565435409545898,False,0.0
zero_steer,43,False,-3.1724841594696045,0.10016753524541855,-0.04701893553498183,-1.9057825803756714,0.09912803024053574,-1.3057827949523926,0.09863565117120743,0.35643628239631653,0.2538332939147949,0.35643628239631653,0.0,7.128725647926331,0.0,-0.010208277963101864,0.01040647178888321,9.909691289067268e-05,0.1001570075750351,0.09911830723285675,0.09862630814313889,-0.04698263347974961,0.04698263481259346,0.11067400872707367,0.09912746399641037,-0.04701893553498183,0.2753758430480957,15,0.22578048706054688,0.0,8.838365829433315e-06,0.0,False,True,False,False,False,False,0.2730414867401123,0.0020248370710760355,-0.0021364346612244844,5.891005905311886e-09,6.315440259641036e-05,0.35643628239631653,0.0,0.0,0.12519626319408417,-0.0031321754213422537,0.2832213342189789,-0.0031345956958830357,0.11020518094301224,0.11020518094301224,0.0633738785982132,0.8281300067901611,0.05248181149363518,0.8563718795776367,False,0.0
zero_steer,44,False,-3.1634504795074463,0.10017441213130951,-0.05013288481164609,-1.8967489004135132,0.09906607121229172,-1.2967491149902344,0.09854108095169067,0.3563730716705322,0.2537713944911957,0.3563730716705322,0.0,7.1274614334106445,0.0,-0.010264541022479534,0.010518565773963928,0.00012701237574219704,0.10016407072544098,0.09905648231506348,0.09853184968233109,-0.05009884725760842,0.05009884759783745,0.11492300033569336,0.09906550496816635,-0.05013288147659279,0.2753758430480957,15,0.21674680709838867,0.0,8.7559210442123e-06,0.0,False,True,False,False,False,False,0.2729731500148773,0.001286870101466775,-0.0016843564808368683,3.853643022466713e-07,0.00013284175656735897,0.3563730716705322,0.0,0.0,0.12520508468151093,-0.003339923219755292,0.28304430842399597,-0.003342192154377699,0.10998962074518204,0.10998962074518204,0.06314697116613388,0.8883545398712158,0.05609690025448799,0.8562182188034058,False,0.0
zero_steer,45,False,-3.154416799545288,0.10018281638622284,-0.05306318604298032,-1.8877153396606445,0.0990096926689148,-1.2877155542373657,0.09845401346683502,0.3564455509185791,0.253831148147583,0.3564455509185791,0.0,7.128911018371582,0.0,-0.010175061412155628,0.010657248087227345,0.00024109333753585815,0.10017245262861252,0.09900004416704178,0.09844470769166946,-0.05303089605687482,0.05303089693188667,0.11970867216587067,0.09900912642478943,-0.05306318604298032,0.2753758430480957,15,0.20771324634552002,0.0,8.882668225851376e-06,0.0,False,True,False,False,False,False,0.27291762828826904,0.0016052089631557465,-0.0017585523892194033,3.400421348942473e-07,0.00013008323730900884,0.3564455509185791,0.0,0.0,0.1252155601978302,-0.003535392927005887,0.2828832268714905,-0.0035375456791371107,0.10978886485099792,0.10978886485099792,0.06293565034866333,0.9485782980918884,0.059699393808841705,0.8559577465057373,False,0.0
zero_steer,46,False,-3.145385265350342,0.10019031912088394,-0.05605961137620607,-1.8786838054656982,0.09895094484090805,-1.2786840200424194,0.09836389124393463,0.35650745034217834,0.25386345386505127,0.35650745034217834,0.0,7.130149006843567,0.0,-0.010085473768413067,0.010786651633679867,0.00035058893263339996,0.10018004477024078,0.0989413782954216,0.09835465252399445,-0.05602770825628403,0.05602771043777466,0.12496189773082733,0.09895037859678268,-0.05605961137620607,0.2753758430480957,15,0.19868171215057373,0.0,8.829426406009588e-06,0.0,False,True,False,False,False,False,0.27289390563964844,0.0017460742965340614,-0.0019134508911520243,1.682384578316487e-07,0.00039991107769310474,0.35650745034217834,0.0,0.0,0.12522505223751068,-0.003735180478543043,0.282715380191803,-0.0037373073864728212,0.10958244651556015,0.10958244651556015,0.06271836906671524,1.0,0.06271836906671524,0.8557189702987671,False,0.0
zero_steer,47,False,-3.1363561153411865,0.10019794851541519,-0.0592162993609825,-1.869654655456543,0.09888878464698792,-1.2696549892425537,0.09826867282390594,0.3565908670425415,0.2540191411972046,0.3565908670425415,0.0,7.13181734085083,0.0,-0.00998127181082964,0.01089354045689106,0.0004561343230307102,0.10018773376941681,0.09887923300266266,0.09825944155454636,-0.05918603708728685,0.05918603762984276,0.13062483072280884,0.09888821840286255,-0.0592162993609825,0.2753758430480957,15,0.18965256214141846,0.0,8.87768965185387e-06,0.0,False,True,False,False,False,False,0.27285706996917725,0.0017632910748943686,-0.001940897316671908,2.0271203027277807e-07,0.00036588992225006223,0.3565908670425415,0.0,0.0,0.1252346634864807,-0.00394573574885726,0.2825377881526947,-0.003947753459215164,0.1093645989894867,0.1093645989894867,0.06248905137181282,1.0,0.06248905137181282,0.8553454875946045,False,0.0
zero_steer,48,False,-3.127326250076294,0.10020577162504196,-0.06233128583922483,-1.86062490940094,0.09882774204015732,-1.2606252431869507,0.09817501157522202,0.3566869795322418,0.254144549369812,0.3566869795322418,0.0,7.133739590644836,0.0,-0.009985263459384441,0.011008262634277344,0.0005114995874464512,0.10019605606794357,0.09881848096847534,0.09816596657037735,-0.06231073524075529,0.06231073662638664,0.1275433450937271,0.09882717579603195,-0.06233128583922483,0.4203006625175476,16,0.18062293529510498,0.0,8.885477654985152e-06,0.0,False,True,False,False,False,False,0.27284005284309387,0.001697778352536261,-0.0016452859854325652,2.2595772009026405e-07,0.0002471253974363208,0.3566869795322418,0.0,0.0,0.12524506449699402,-0.00415404886007309,0.2823633551597595,-0.004155418835580349,0.10914988815784454,0.10914988815784454,0.062263041734695435,1.0,0.062263041734695435,0.8550053238868713,False,0.0
zero_steer,49,False,-3.118295669555664,0.10021387785673141,-0.06535612582661489,-1.8515944480895996,0.09876897931098938,-1.2515947818756104,0.09808456897735596,0.3567604422569275,0.2542003393173218,0.3567604422569275,0.0,7.13520884513855,0.0,-0.010045895352959633,0.011140708811581135,0.000547406729310751,0.10020346939563751,0.09875933825969696,0.09807529300451279,-0.06532129452989047,0.06532129645347595,0.12198803573846817,0.09876841306686401,-0.06535612582661489,0.4203006625175476,16,0.17159247398376465,0.0,8.840293958201073e-06,0.0,False,True,False,False,False,False,0.2729209363460541,0.0018087211064994335,-0.0019155581248924136,1.217189975477595e-07,0.0005393428145907819,0.3567604422569275,0.0,0.0,0.1252543330192566,-0.004354753065854311,0.28219547867774963,-0.004357074853032827,0.10894232243299484,0.10894232243299484,0.062044549733400345,1.0,0.062044549733400345,0.8547419905662537,False,0.0
zero_steer,50,False,-3.1092636585235596,0.10021988302469254,-0.068437221493165,-1.8425624370574951,0.09870686382055283,-1.2425628900527954,0.09799019247293472,0.3567071557044983,0.2541537880897522,0.3567071557044983,0.0,7.134143114089966,0.0,-0.010113075375556946,0.011276448145508766,0.0005816863849759102,0.10020927339792252,0.09869710355997086,0.09798082709312439,-0.06839890840078945,0.06839890778064728,0.11686362326145172,0.09870629757642746,-0.068437221493165,0.4203006625175476,16,0.1625608205795288,0.0,8.803712262306362e-06,0.0,False,True,False,False,False,False,0.2728956341743469,0.0015636374009773135,-0.0016560436924919486,1.5477735360036604e-07,0.00013122265227138996,0.3567071557044983,0.0,0.0,0.125261589884758,-0.004559927154332399,0.2820180058479309,-0.004562481306493282,0.10872813314199448,0.10872813314199448,0.06181908771395683,1.0,0.06181908771395683,0.8545743227005005,False,0.0
zero_steer,51,False,-3.1002249717712402,0.10022591054439545,-0.0715897139808829,-1.8335238695144653,0.09864319860935211,-1.2335243225097656,0.09789351373910904,0.35669147968292236,0.2541382908821106,0.35669147968292236,0.0,7.133829593658447,0.0,-0.010122472420334816,0.011411851271986961,0.0006446894258260727,0.10021524131298065,0.09863340854644775,0.09788413345813751,-0.07155006019707848,0.07155006378889084,0.11222873628139496,0.09864263236522675,-0.07158970731077628,0.4203006625175476,16,0.15352201461791992,0.0,8.83634766069008e-06,0.0,False,True,False,False,False,False,0.27311286330223083,0.0015879609854891896,-0.001699418993666768,1.0525070592848351e-07,0.0006355863879434764,0.35669147968292236,0.0,0.0,0.1252690553665161,-0.004770004190504551,0.2818360924720764,-0.00477264728397131,0.10850884765386581,0.10850884765386581,0.061588261276483536,1.0,0.061588261276483536,0.8543705940246582,False,0.0
zero_steer,52,False,-3.0911877155303955,0.10023148357868195,-0.07479318609343127,-1.8244867324829102,0.09857794642448425,-1.2244871854782104,0.09779471158981323,0.3566262722015381,0.25409919023513794,0.3566262722015381,0.0,7.132525444030762,0.0,-0.010139863938093185,0.011543728411197662,0.0007019322365522385,0.10022085160017014,0.09856818616390228,0.09778536111116409,-0.07475377910357146,0.0747537836432457,0.10815120488405228,0.09857738018035889,-0.07479318609343127,0.4203006625175476,16,0.14448487758636475,0.0,8.83114535099594e-06,0.0,False,True,False,False,False,False,0.2730773389339447,0.001701384549960494,-0.001587711158208549,5.285239268459918e-08,0.0006159457843750715,0.3566262722015381,0.0,0.0,0.12527605891227722,-0.004983585327863693,0.2816496789455414,-0.0049862125888466835,0.10828536748886108,0.10828536748886108,0.06135302037000656,1.0,0.06135302037000656,0.8541861772537231,False,0.0
zero_steer,53,False,-3.0821495056152344,0.1002388596534729,-0.0779347062557735,-1.8154486417770386,0.09851586818695068,-1.2154492139816284,0.09769973903894424,0.3565734624862671,0.2540660500526428,0.3565734624862671,0.0,7.131469249725342,0.0,-0.01017407700419426,0.011685991659760475,0.0007559573277831078,0.10022860020399094,0.09850633144378662,0.09769055247306824,-0.07790190267145894,0.07790190726518631,0.10469949245452881,0.09851530194282532,-0.0779347062557735,0.4203006625175476,16,0.13544690608978271,0.0,8.781639735389035e-06,0.0,False,True,False,False,False,False,0.2730054557323456,0.001874013221822679,-0.001931323786266148,1.7312898137333832e-07,0.0003389729536138475,0.3565734624862671,0.0,0.0,0.12528574466705322,-0.005193460267037153,0.2814722955226898,-0.00519564701244235,0.1080683022737503,0.1080683022737503,0.0611245296895504,1.0,0.0611245296895504,0.8540022373199463,False,0.0
zero_steer,54,False,-3.0731148719787598,0.10024283826351166,-0.08124473332143804,-1.8064141273498535,0.09844666719436646,-1.2064146995544434,0.09759587794542313,0.356658399105072,0.2541360855102539,0.356658399105072,0.0,7.13316798210144,0.0,-0.010214333422482014,0.011823797598481178,0.0008047320879995823,0.10023213177919388,0.0984368622303009,0.0975864976644516,-0.08120384556791053,0.08120384812355042,0.10192866623401642,0.09844610095024109,-0.08124473332143804,0.4203006625175476,16,0.12641239166259766,0.0,8.830522347125225e-06,0.0,False,True,False,False,False,False,0.2730270326137543,0.0018776619108393788,-0.0016451198607683182,0.0,0.0009139994508586824,0.356658399105072,0.0,0.0,0.1252901703119278,-0.005413589533418417,0.28127458691596985,-0.0054163155145943165,0.10783546417951584,0.10783546417951584,0.06087943911552429,1.0,0.06087943911552429,0.8536993861198425,False,0.0
zero_steer,55,False,-3.0640783309936523,0.10024824738502502,-0.08452991423997534,-1.797377586364746,0.09837944805622101,-1.1973782777786255,0.09749425202608109,0.35661834478378296,0.25406527519226074,0.35661834478378296,0.0,7.132366895675659,0.0,-0.010267415083944798,0.011961725540459156,0.0008471552282571793,0.10023775696754456,0.0983697697520256,0.09748496115207672,-0.0844931352721204,0.08449313789606094,0.0999024361371994,0.09837888181209564,-0.08452991423997534,0.4203006625175476,16,0.11737608909606934,0.0,8.823752978059929e-06,0.0,False,True,False,False,False,False,0.27288883924484253,0.001590919797308743,-0.0012114581186324358,3.0170948406293974e-08,1.5698489733040333e-05,0.35661834478378296,0.0,0.0,0.1252971887588501,-0.005632875487208366,0.28108254075050354,-0.005635327659547329,0.10760587453842163,0.10760587453842163,0.060637764632701874,1.0,0.060637764632701874,0.8535405993461609,False,0.0
zero_steer,56,False,-3.0550460815429688,0.10025408118963242,-0.08777804938639325,-1.7883455753326416,0.09831347316503525,-1.188346266746521,0.09739426523447037,0.356571227312088,0.2540273666381836,0.356571227312088,0.0,7.13142454624176,0.0,-0.01034553162753582,0.01210764143615961,0.0008810549043118954,0.10024366527795792,0.09830387681722641,0.09738505631685257,-0.08774098360395403,0.08774098753929138,0.09866705536842346,0.09831290692090988,-0.08777805605649987,0.4203006625175476,16,0.10834407806396484,0.0,8.725162842893042e-06,0.0,False,True,False,False,False,False,0.27286651730537415,0.0019488376565277576,-0.0018939252477139235,9.403544964925459e-08,0.0002379812067374587,0.356571227312088,0.0,0.0,0.12530457973480225,-0.005849398672580719,0.28089404106140137,-0.0058518704026937485,0.10737954080104828,0.10737954080104828,0.06039951741695404,1.0,0.06039951741695404,0.8533521890640259,False,0.0
zero_steer,57,False,-3.0460140705108643,0.10025700181722641,-0.09104692189426582,-1.779313564300537,0.09824413061141968,-1.179314374923706,0.09729068726301193,0.3566697835922241,0.25411170721054077,0.3566697835922241,0.0,7.133395671844482,0.0,-0.010429559275507927,0.012227760627865791,0.0008991006761789322,0.1002463847398758,0.09823437035083771,0.09728133678436279,-0.09100814189442749,0.09100814163684845,0.09824652969837189,0.09824357181787491,-0.09104692189426582,0.4203006625175476,16,0.0993121862411499,0.0,8.853099643602036e-06,0.0,False,True,False,False,False,False,0.2728438377380371,-0.0018170502735301852,0.0021607745438814163,5.783475387488579e-08,0.0003791642084252089,0.3566697835922241,0.0,0.0,0.12530797719955444,-0.0060672094114124775,0.28069591522216797,-0.00606979476287961,0.10714831203222275,0.10714831203222275,0.060156118124723434,1.0,0.060156118124723434,0.853036642074585,False,0.0
zero_steer,58,False,-3.0369858741760254,0.10026062279939651,-0.0944740760320255,-1.7702854871749878,0.09817197918891907,-1.1702862977981567,0.09718264639377594,0.35663414001464844,0.25397050380706787,0.35663414001464844,0.0,7.132682800292969,0.0,-0.010447514243423939,0.012361888773739338,0.0009571872651576996,0.10025005787611008,0.09816227108240128,0.09717334806919098,-0.09443511593930866,0.09443511813879013,0.0986514464020729,0.0981714203953743,-0.0944740760320255,0.4203006625175476,16,0.09028398990631104,0.0,8.83175653143553e-06,0.0,False,True,False,False,False,False,0.272606760263443,0.0022123069502413273,-0.001252674963325262,0.0,0.0008626438211649656,0.35663414001464844,0.0,0.0,0.12531256675720215,-0.006295674480497837,0.2804897725582123,-0.006298271473497152,0.10690660774707794,0.10690660774707794,0.05990169197320938,1.0,0.05990169197320938,0.8529360890388489,False,0.0
zero_steer,59,False,-3.0279622077941895,0.1002642810344696,-0.09792316148032326,-1.7612619400024414,0.09809938073158264,-1.1612628698349,0.09707393497228622,0.35677140951156616,0.2541368007659912,0.35677140951156616,0.0,7.135428190231323,0.0,-0.010487589053809643,0.012487519532442093,0.000999965239316225,0.10025399178266525,0.09808982908725739,0.09706472605466843,-0.09788988431843929,0.09788988530635834,0.09987293183803558,0.09809882193803787,-0.09792316815042988,0.4203006625175476,16,0.08126068115234375,0.0,8.803866876405664e-06,0.0,False,True,False,False,False,False,0.2726491689682007,0.002136388560757041,-0.0013621645048260689,0.0,-0.00017199275316670537,0.35677140951156616,0.0,0.0,0.12531748414039612,-0.006525992415845394,0.2802823483943939,-0.0065282112918794155,0.10666324943304062,0.10666324943304062,0.059645526111125946,1.0,0.059645526111125946,0.8525264263153076,False,0.0
zero_steer,60,False,-3.0189383029937744,0.1002667024731636,-0.10149272906434167,-1.752238154411316,0.09802288562059402,-1.1522390842437744,0.09696006029844284,0.35679441690444946,0.25412899255752563,0.35679441690444946,0.0,7.135888338088989,0.0,-0.010510397143661976,0.012612178921699524,0.001050890889018774,0.10025648772716522,0.09801335632801056,0.09695085883140564,-0.101461626357213,0.10146162658929825,0.10187838226556778,0.09802232682704926,-0.10149272906434167,0.4203006625175476,16,0.07223677635192871,0.0,8.877367690729443e-06,0.0,False,True,False,False,False,False,0.2727656364440918,0.0022880679462105036,-0.0019356299890205264,0.0,-0.0004972429596818984,0.35679441690444946,0.0,0.0,0.12532061338424683,-0.006764108315110207,0.28006380796432495,-0.006766181904822588,0.10640987753868103,0.10640987753868103,0.05937882140278816,1.0,0.05937882140278816,0.852280855178833,False,0.0
zero_steer,61,False,-3.009915590286255,0.10026896744966507,-0.10505049722976463,-1.743215560913086,0.09794650226831436,-1.143216609954834,0.09684641659259796,0.35683292150497437,0.2542586624622345,0.35683292150497437,0.0,7.136658430099487,0.0,-0.010564771480858326,0.012746813707053661,0.0010910211130976677,0.1002584770321846,0.09793683141469955,0.0968371331691742,-0.10501353149892458,0.10501353442668915,0.10462605208158493,0.09794594347476959,-0.10505049055965802,0.4203006625175476,16,0.06321442127227783,0.0,8.847228855302092e-06,0.0,False,True,False,False,False,False,0.272738516330719,0.002275413367897272,-0.002474708715453744,0.0,0.00029637047555297613,0.35683292150497437,0.0,0.0,0.1253231018781662,-0.007000902201980352,0.27984556555747986,-0.007003366015851498,0.1061573326587677,0.1061573326587677,0.05911298468708992,1.0,0.05911298468708992,0.8518986701965332,False,0.0
zero_steer,62,False,-3.000899314880371,0.10026656091213226,-0.10797548572118293,-1.7341995239257812,0.09787942469120026,-1.1342005729675293,0.0967487096786499,0.35682982206344604,0.25422734022140503,0.35682982206344604,0.0,7.136596441268921,0.0,-0.010643400251865387,0.012805161997675896,0.0010808808729052544,0.10025632381439209,0.09786989539861679,0.0967395156621933,-0.10794354925072783,0.10794354975223541,0.10806509107351303,0.09787886589765549,-0.10797548572118293,0.4203006625175476,16,0.05419814586639404,0.0,8.878118933353107e-06,0.0,False,True,False,False,False,False,0.2724793255329132,0.0023005290422588587,-0.002281918190419674,0.0,-4.368979716673493e-06,0.35682982206344604,0.0,0.0,0.1253204047679901,-0.007196236401796341,0.2796539068222046,-0.007198365870863199,0.10594470053911209,0.10594470053911209,0.05888915807008743,1.0,0.05888915807008743,0.8517173528671265,False,0.0
zero_steer,63,False,-2.9918813705444336,0.10026869177818298,-0.1117340641162469,-1.7251818180084229,0.09779846668243408,-1.125182867050171,0.09662839025259018,0.3568967580795288,0.2542702555656433,0.3568967580795288,0.0,7.137935161590576,0.0,-0.010603385977447033,0.01291391160339117,0.0011552628129720688,0.10025840997695923,0.09778894484043121,0.09661922603845596,-0.11169967971666543,0.111699678003788,0.11211409419775009,0.09779790788888931,-0.1117340641162469,0.4203006625175476,16,0.045180678367614746,0.0,8.75872137839906e-06,0.0,False,True,False,False,False,False,0.27261433005332947,0.0023583639413118362,-0.0023137482348829508,0.0,4.980928133591078e-05,0.3568967580795288,0.0,0.0,0.12532301247119904,-0.00744664529338479,0.2794226109981537,-0.007448937743902206,0.10567756742238998,0.10567756742238998,0.05860796570777893,1.0,0.05860796570777893,0.8514072895050049,False,0.0
zero_steer,64,False,-2.9828619956970215,0.1002696081995964,-0.11535035579707774,-1.7161625623703003,0.09771943092346191,-1.116163730621338,0.09651148319244385,0.35686323046684265,0.2542688250541687,0.35686323046684265,0.0,7.137264609336853,0.0,-0.01063469983637333,0.013033042661845684,0.0011991714127361774,0.1002589538693428,0.09770968556404114,0.0965021625161171,-0.11530948138376344,0.11530948430299759,0.11672317981719971,0.09771887212991714,-0.11535035579707774,0.4203006625175476,16,0.03616154193878174,0.0,8.826224075164646e-06,0.0,False,True,False,False,False,False,0.2727428674697876,0.002601027023047209,-0.002531845588237047,0.0,8.718849858269095e-05,0.35686323046684265,0.0,0.0,0.12532369792461395,-0.007687298581004143,0.2791967988014221,-0.007690023630857468,0.10541926324367523,0.10541926324367523,0.05833606794476509,1.0,0.05833606794476509,0.8511504530906677,False,0.0
zero_steer,65,False,-2.9738376140594482,0.10027218610048294,-0.11938182159382488,-1.7071382999420166,0.09763287752866745,-1.1071395874023438,0.09638271480798721,0.35673439502716064,0.25422996282577515,0.35673439502716064,0.0,7.134687900543213,0.0,-0.010621713474392891,0.013134199194610119,0.001256242860108614,0.10026180744171143,0.09762328863143921,0.09637349843978882,-0.11934622990494677,0.11934623122215271,0.12182364612817764,0.09763231873512268,-0.11938182159382488,0.4203006625175476,16,0.027137398719787598,0.0,8.833983883960173e-06,0.0,False,True,False,False,False,False,0.272811621427536,0.0017282457556575537,-0.001749702962115407,0.0,2.994964233948849e-05,0.35673439502716064,0.0,0.0,0.12532725930213928,-0.00795641541481018,0.278949499130249,-0.007958788424730301,0.10513291507959366,0.10513291507959366,0.05803464725613594,1.0,0.05803464725613594,0.8509029150009155,False,0.0
zero_steer,66,False,-2.9648101329803467,0.10026673972606659,-0.12228470535193318,-1.698110818862915,0.0975632593035698,-1.0981122255325317,0.09628269821405411,0.3566443622112274,0.2541384696960449,0.3566443622112274,0.0,7.132887244224548,0.0,-0.01069927029311657,0.012856392189860344,0.0010785609483718872,0.10025660693645477,0.0975537896156311,0.09627354890108109,-0.12225440972770447,0.12225440889596939,0.12737512588500977,0.09756270051002502,-0.12228470535193318,0.4203006625175476,16,0.018109917640686035,0.0,8.88003887666855e-06,0.0,False,True,False,False,False,False,0.2730042040348053,0.0024001640267670155,-0.0022543035447597504,0.0,8.524511940777302e-08,0.3566443622112274,0.0,0.0,0.12532076239585876,-0.008150293491780758,0.27875056862831116,-0.008152313530445099,0.10491841286420822,0.10491841286420822,0.057808857411146164,1.0,0.057808857411146164,0.8507799506187439,False,0.0
zero_steer,67,False,-2.9559035301208496,0.10026086866855621,-0.12526460216097604,-1.689204454421997,0.09749150276184082,-1.0892058610916138,0.09617973864078522,0.35660502314567566,0.2540664076805115,0.35660502314567566,0.0,7.132100462913513,0.0,-0.010859071277081966,0.01297410111874342,0.0010575149208307266,0.09735415875911713,0.09659683704376221,0.09623812884092331,-0.03425515292565273,0.03425515443086624,0.1288215070962906,0.09749094396829605,-0.12526460216097604,0.5652253031730652,17,0.01420438289642334,0.0,0.005166573915630579,0.0,False,True,False,False,False,False,0.2664406895637512,0.00268849590793252,-0.0029551596380770206,7.558267043350497e-07,-0.00016616357606835663,0.35660502314567566,0.0,0.0,0.1216927021741867,-0.0022836767602711916,0.2785455584526062,-0.008350973017513752,0.10692943632602692,0.10692943632602692,0.05992572382092476,1.0,0.05992572382092476,0.8528630137443542,False,0.0
zero_steer,68,False,-2.9471240043640137,0.10026068240404129,-0.1286247484077182,-1.6804251670837402,0.09741703420877457,-1.080426573753357,0.09607008099555969,0.35647374391555786,0.25384682416915894,0.35647374391555786,0.0,7.129474878311157,0.0,-0.011011399328708649,0.013086402788758278,0.0010375017300248146,0.09259560704231262,0.09507135301828384,0.09624405205249786,0.1119839796707606,0.11198397725820541,0.12320321053266525,0.0974164754152298,-0.1286247484077182,0.5652253031730652,17,0.013358235359191895,0.0,0.013394016772508621,0.0,False,True,False,False,False,False,0.264791876077652,0.0024955710396170616,-0.00238443398848176,4.7898215171926495e-08,-5.784149834653363e-07,0.35647374391555786,0.0,0.0,0.11574450880289078,0.00746559863910079,0.27833279967308044,-0.008574983105063438,0.11035996675491333,0.11035996675491333,0.06353680789470673,1.0,0.06353680789470673,0.8565131425857544,False,0.0
zero_steer,69,False,-2.9383950233459473,0.10025668144226074,-0.13219181470175734,-1.671696424484253,0.09733417630195618,-1.0716979503631592,0.09594986587762833,0.3560906648635864,0.25344693660736084,0.3560906648635864,0.0,7.1218132972717285,0.0,-0.011182574555277824,0.013228533789515495,0.0010229796171188354,0.08773975074291229,0.09350382536649704,0.09623409807682037,0.2607226746888143,0.26072266697883606,0.11799301952123642,0.09733361750841141,-0.13219181470175734,0.5652253031730652,17,0.012495875358581543,0.0,0.021562358364462852,0.0,False,True,False,False,False,False,0.2637650668621063,0.002572912722826004,-0.0025963089428842068,0.0,0.00019541822257451713,0.3560906648635864,0.0,0.0,0.10967469215393066,0.017381511628627777,0.2780960500240326,-0.00881278794258833,0.11383359134197235,0.11383359134197235,0.06719326227903366,1.0,0.06719326227903366,0.8603866696357727,False,0.0
zero_steer,70,False,-2.929692268371582,0.10025399923324585,-0.13568444260601395,-1.6629937887191772,0.09725427627563477,-1.062995433807373,0.09583339095115662,0.3557698130607605,0.2530442476272583,0.3557698130607605,0.0,7.11539626121521,0.0,-0.011295963078737259,0.013350107707083225,0.0010270723141729832,0.08285146951675415,0.09192785620689392,0.09622708708047867,0.410549224074538,0.41054922342300415,0.1132328137755394,0.09725371748209,-0.13568442926580074,0.5652253031730652,17,0.011629462242126465,0.0,0.029699023813009262,0.0,False,True,False,False,False,False,0.26279667019844055,0.0025580315850675106,-0.002435295609757304,0.0,0.00019265412993263453,0.3557698130607605,0.0,0.0,0.10356433689594269,0.027369948104023933,0.27786776423454285,-0.00904562883079052,0.11733803898096085,0.11733803898096085,0.07088214159011841,1.0,0.07088214159011841,0.8642938137054443,False,0.0
zero_steer,71,False,-2.9210190773010254,0.1002509817481041,-0.13909844329353607,-1.6543207168579102,0.09717577695846558,-1.0543224811553955,0.09571914374828339,0.3555091321468353,0.2526988387107849,0.3555091321468353,0.0,7.1101826429367065,0.0,-0.011437072418630123,0.013469194993376732,0.0010160612873733044,0.0779622495174408,0.09035185724496841,0.096220463514328,0.5604191024728089,0.5604190826416016,0.10897551476955414,0.0971752181649208,-0.13909844329353607,0.5652253031730652,17,0.010763168334960938,0.0,0.037798237055540085,0.0,False,True,False,False,False,False,0.2619413733482361,0.0024474316742271185,-0.0023717868607491255,0.0,8.107616304187104e-05,0.3555091321468353,0.0,0.0,0.097452811896801,0.0373612716794014,0.27764350175857544,-0.009273229166865349,0.12084588408470154,0.12084588408470154,0.07457461953163147,1.0,0.07457461953163147,0.8681470155715942,False,0.0
zero_steer,72,False,-2.9123783111572266,0.10024906694889069,-0.14260349093630298,-1.6456801891326904,0.09709637612104416,-1.0456820726394653,0.09560303390026093,0.355215847492218,0.2523515224456787,0.355215847492218,0.0,7.10431694984436,0.0,-0.011557553894817829,0.01360110379755497,0.0010217749513685703,0.0732700452208519,0.0888412743806839,0.09621690958738327,0.7043395125780286,0.7043395042419434,0.10527385026216507,0.09709581732749939,-0.14260349093630298,0.5652253031730652,17,0.009930610656738281,0.0,0.04586145654320717,0.0,False,True,False,False,False,False,0.26086586713790894,0.0026168818585574627,-0.002444252837449312,4.658773633536839e-08,0.00022123132657725364,0.355215847492218,0.0,0.0,0.09158755838871002,0.04695596545934677,0.2774166166782379,-0.009506898932158947,0.12420999258756638,0.12420999258756638,0.07811577618122101,1.0,0.07811577618122101,0.8718584775924683,False,0.0
zero_steer,73,False,-2.90376353263855,0.10024645179510117,-0.14626667346661154,-1.6370656490325928,0.09701277315616608,-1.0370675325393677,0.09548107534646988,0.35487520694732666,0.2520099878311157,0.35487520694732666,0.0,7.097504138946533,0.0,-0.011672663502395153,0.013718272559344769,0.0010228045284748077,0.0686088502407074,0.08734270930290222,0.09621639549732208,0.8474055620676147,0.8474055528640747,0.10217476636171341,0.09701221436262131,-0.14626667346661154,0.5652253031730652,17,0.009102940559387207,0.0,0.05389643460512161,0.0,False,False,False,False,False,False,0.2603004276752472,0.0025675976648926735,-0.002416793256998062,0.0,0.00017096305964514613,0.35487520694732666,0.0,0.0,0.08576106280088425,0.05649370327591896,0.27717775106430054,-0.009751111268997192,0.12755021452903748,0.12755021452903748,0.08163180947303772,1.0,0.08163180947303772,0.8755402565002441,False,0.0
zero_steer,74,False,-2.8951685428619385,0.10024253278970718,-0.14980904702597553,-1.628470778465271,0.09693054109811783,-1.0284727811813354,0.09536174684762955,0.3545241355895996,0.25157105922698975,0.3545241355895996,0.0,7.090482711791992,0.0,-0.01177903637290001,0.013863314874470234,0.0010421392507851124,0.06391599029302597,0.08583608269691467,0.09621899574995041,0.9915442180611574,0.991544246673584,0.09973166882991791,0.09692998975515366,-0.14980903368576232,0.5652253031730652,17,0.00826728343963623,0.0,0.06190211698412895,0.0,False,False,False,False,False,False,0.2597448229789734,0.0026814581360667944,-0.0025534804444760084,0.0,0.00010239378025289625,0.3545241355895996,0.0,0.0,0.07989498972892761,0.06610294431447983,0.2769428491592407,-0.009987268596887589,0.130920872092247,0.130920872092247,0.0851798728108406,1.0,0.0851798728108406,0.8793498277664185,False,0.0
zero_steer,75,False,-2.8865866661071777,0.10023964941501617,-0.1535689194217221,-1.6198891401290894,0.09684453904628754,-1.0198912620544434,0.09523636847734451,0.3542996644973755,0.2512877583503723,0.3542996644973755,0.0,7.08599328994751,0.0,-0.011847450397908688,0.013991153798997402,0.0010718517005443573,0.059129856526851654,0.08429926633834839,0.09622128307819366,1.138543976264995,1.138543963432312,0.09798239916563034,0.09684398770332336,-0.1535689060815089,0.5652253031730652,17,0.007418155670166016,0.0,0.06989126652479172,0.0,False,False,False,False,False,False,0.25937655568122864,0.0024917079135775566,-0.002339621540158987,0.0,-3.516874130582437e-06,0.3542996644973755,0.0,0.0,0.07391232252120972,0.07590293139219284,0.2766971290111542,-0.010237926617264748,0.1343545913696289,0.1343545913696289,0.08879431337118149,1.0,0.08879431337118149,0.8830668330192566,False,0.0
zero_steer,76,False,-2.878011465072632,0.10023603588342667,-0.15724624257804673,-1.6113141775131226,0.0967596173286438,-1.0113164186477661,0.09511294215917587,0.35398316383361816,0.25094741582870483,0.35398316383361816,0.0,7.079663276672363,0.0,-0.011888232082128525,0.014122911728918552,0.0011173398233950138,0.05412041395902634,0.08269412815570831,0.09622867405414581,1.2925632479449016,1.2925633192062378,0.09696541726589203,0.09675906598567963,-0.1572462292378335,0.5652253031730652,17,0.006525993347167969,0.0,0.07786034047603607,0.0,False,False,False,False,False,False,0.2592548727989197,0.0025031473487615585,-0.0024133604019880295,0.0,0.00013357235002331436,0.35398316383361816,0.0,0.0,0.06765051931142807,0.08617088198661804,0.27645447850227356,-0.010483081452548504,0.1379624605178833,0.1379624605178833,0.09259206801652908,1.0,0.09259206801652908,0.8870150446891785,False,0.0
zero_steer,77,False,-2.869446277618408,0.1002315804362297,-0.1606526393440319,-1.602749228477478,0.09667985886335373,-1.0027515888214111,0.09499751031398773,0.3537455201148987,0.2505350410938263,0.3537455201148987,0.0,7.074910402297974,0.0,-0.011970284394919872,0.01423315517604351,0.001131435390561819,0.049015261232852936,0.08105815947055817,0.09623593837022781,1.4495270782090242,1.4495271444320679,0.09670606255531311,0.09667930752038956,-0.1606526260038187,0.5652253031730652,17,0.005617737770080566,0.0,0.08580593019723892,0.0,False,False,False,False,False,False,0.2589344382286072,0.0025917969178408384,-0.002458952134475112,0.0,0.0002090134657919407,0.3537455201148987,0.0,0.0,0.06126907467842102,0.09663514047861099,0.27622660994529724,-0.010710175149142742,0.1416487991809845,0.1416487991809845,0.09647242724895477,1.0,0.09647242724895477,0.8911137580871582,False,0.0
zero_steer,78,False,-2.8608896732330322,0.100223109126091,-0.16362757359375593,-1.5941927433013916,0.09660561382770538,-0.9941951036453247,0.09489211440086365,0.35338979959487915,0.2501664161682129,0.35338979959487915,0.0,7.067795991897583,0.0,-0.012036271393299103,0.014135696925222874,0.0010497127659618855,0.04395511746406555,0.07943923771381378,0.09624703973531723,1.6052361813782743,1.6052361726760864,0.09720823913812637,0.09660506248474121,-0.16362757359375593,0.5652253031730652,17,0.004717469215393066,0.0,0.09373088926076889,0.0,False,False,False,False,False,False,0.25843191146850586,0.0027382804546505213,-0.002673623850569129,0.0,-8.846931450534612e-06,0.35338979959487915,0.0,0.0,0.05494389683008194,0.10701574385166168,0.2760144770145416,-0.010908504948019981,0.1453174352645874,0.1453174352645874,0.10033415257930756,1.0,0.10033415257930756,0.8951510190963745,False,0.0
zero_steer,79,False,-2.8523507118225098,0.1002141460776329,-0.1671080752441931,-1.5856540203094482,0.09651970118284225,-0.9856564998626709,0.09476975351572037,0.35308837890625,0.24987368285655975,0.35308837890625,0.0,7.061767578125,0.0,-0.012115683406591415,0.014264651574194431,0.001074484083801508,0.039076484739780426,0.07787904888391495,0.09625870734453201,1.7554023725926473,1.7554024457931519,0.09843942523002625,0.09651914983987808,-0.16710806190397987,0.5652253031730652,17,0.0038491487503051758,0.0,0.10164190083742142,0.0,False,False,False,False,False,False,0.2580296993255615,0.002633238211274147,-0.002688461681827903,0.0,6.925892375875264e-05,0.35308837890625,0.0,0.0,0.04884560406208038,0.11702682077884674,0.2757689952850342,-0.011140537448227406,0.14883770048618317,0.14883770048618317,0.10403969138860703,1.0,0.10403969138860703,0.8989640474319458,False,0.0
zero_steer,80,False,-2.8438162803649902,0.10020957142114639,-0.17049886396070774,-1.5771198272705078,0.09644016623497009,-0.97712242603302,0.09465470910072327,0.35276558995246887,0.2494300752878189,0.35276558995246887,0.0,7.055311799049377,0.0,-0.01218749862164259,0.014388295821845531,0.001100398600101471,0.034153081476688385,0.07630899548530579,0.09627700597047806,1.9071578634495179,1.9071578979492188,0.10038929432630539,0.09643961489200592,-0.17049885062049452,0.5652253031730652,17,0.002971053123474121,0.0,0.10953690856695175,0.0,False,False,False,False,False,False,0.25806376338005066,0.0026476390194147825,-0.00243794871494174,2.5962814120816802e-08,4.341387830208987e-05,0.35276558995246887,0.0,0.0,0.04269134998321533,0.12714385986328125,0.275541752576828,-0.011366589926183224,0.152405247092247,0.152405247092247,0.10779500752687454,1.0,0.10779500752687454,0.9029752016067505,False,0.0
zero_steer,81,False,-2.8352854251861572,0.10020534694194794,-0.17429095297138708,-1.568589210510254,0.09635210782289505,-0.9685920476913452,0.09452693909406662,0.35243287682533264,0.24898889660835266,0.35243287682533264,0.0,7.048657536506653,0.0,-0.012222128920257092,0.014523511752486229,0.0011506914161145687,0.02920563519001007,0.07472970336675644,0.0962931364774704,2.059599574874563,2.0595996379852295,0.10300230979919434,0.09635155647993088,-0.17429096631160032,0.5652253031730652,17,0.002089381217956543,0.0,0.11742503941059113,0.0,False,False,False,False,False,False,0.25796952843666077,0.00260167196393013,-0.002446402795612812,0.0,7.72074781707488e-06,0.35243287682533264,0.0,0.0,0.03650704398751259,0.13730663061141968,0.2752901613712311,-0.011619397439062595,0.15597662329673767,0.15597662329673767,0.1115543469786644,1.0,0.1115543469786644,0.906987726688385,False,0.0
zero_steer,82,False,-2.8267617225646973,0.10019275546073914,-0.17729234086393167,-1.560065746307373,0.09627316147089005,-0.9600685834884644,0.09441656619310379,0.35213372111320496,0.24863548576831818,0.35213372111320496,0.0,7.042674422264099,0.0,-0.01228991337120533,0.01452952716499567,0.0011198068968951702,0.023450031876564026,0.07231385260820389,0.0954592227935791,2.210768523236459,2.210768461227417,0.10624316334724426,0.09627261012792587,-0.17729234086393167,0.5652253031730652,17,0.0012096166610717773,0.0,0.12500061094760895,0.0,False,False,False,False,False,False,0.2577500641345978,0.002702797530218959,-0.0024677645415067673,0.0,-0.00019689337932504714,0.35213372111320496,0.0,0.0,0.029312539845705032,0.14738456904888153,0.275064617395401,-0.011819489300251007,0.1590576469898224,0.1590576469898224,0.11479753255844116,1.0,0.11479753255844116,0.910422146320343,False,0.0
zero_steer,83,False,-2.818230390548706,0.10018966346979141,-0.18111389840561992,-1.551534652709961,0.0961855873465538,-0.9515376091003418,0.09428896754980087,0.35178235173225403,0.24815960228443146,0.35178235173225403,0.0,7.035647034645081,0.0,-0.012259459123015404,0.014677752740681171,0.0012091468088328838,0.017988845705986023,0.06952930986881256,0.09394250810146332,2.3319337312349577,2.3319337368011475,0.11004640907049179,0.09618503600358963,-0.18111389840561992,0.5652253031730652,17,0.00010073184967041016,0.0,0.13202473521232605,0.0,False,False,False,False,False,False,0.2581287622451782,0.002595605794340372,-0.002473067957907915,0.0,6.368589311023243e-06,0.35178235173225403,0.0,0.0,0.02248605713248253,0.15546225011348724,0.2748143970966339,-0.012074260041117668,0.16101256012916565,0.16101256012916565,0.11685533076524734,1.0,0.11685533076524734,0.912852942943573,False,0.0
zero_steer,84,False,-2.8096866607666016,0.10018037259578705,-0.18467317401513705,-1.5429911613464355,0.09609760344028473,-0.942994236946106,0.09416371583938599,0.35154420137405396,0.24775423109531403,0.35154420137405396,0.0,7.030884027481079,0.0,-0.012274780310690403,0.014761857688426971,0.0012435386888682842,0.012773305177688599,0.0664675235748291,0.09190091490745544,2.4294383101748864,2.429438352584839,0.11436716467142105,0.09609705209732056,-0.18467317401513705,0.5652253031730652,17,0.0,0.001695871353149414,0.13817135989665985,0.0,False,False,False,False,False,False,0.25837841629981995,0.002776759909465909,-0.002775893546640873,0.0,0.00035539103555493057,0.35154420137405396,0.0,0.0,0.01596663147211075,0.16196255385875702,0.2745630145072937,-0.012311545200645924,0.16210584342479706,0.16210584342479706,0.1180061548948288,1.0,0.1180061548948288,0.9143515825271606,False,0.0
zero_steer,85,False,-2.801119565963745,0.10017337650060654,-0.1883744561944096,-1.5344243049621582,0.0960087776184082,-0.9344276189804077,0.09403613209724426,0.3512067198753357,0.24744127690792084,0.3512067198753357,0.0,7.024134397506714,0.0,-0.012274624779820442,0.01489181350916624,0.0013085943646728992,0.007919713854789734,0.06339907646179199,0.08967803418636322,2.5102592982934127,2.5102593898773193,0.11915794759988785,0.09600822627544403,-0.1883744695346228,0.5652253031730652,17,0.0,0.00501251220703125,0.14280973374843597,0.0,False,False,False,False,False,False,0.25928419828414917,0.0030259648337960243,-0.002103640930727124,0.0,-0.00042984160245396197,0.3512067198753357,0.0,0.0,0.009899642318487167,0.1673506200313568,0.2743092179298401,-0.01255829818546772,0.16269202530384064,0.16269202530384064,0.11862318962812424,1.0,0.11862318962812424,0.9152507781982422,False,0.0
zero_steer,86,False,-2.7925338745117188,0.100162573158741,-0.19133561000387458,-1.5258389711380005,0.0959325060248375,-0.92584228515625,0.09392885118722916,0.3510083556175232,0.24715755879878998,0.3510083556175232,0.0,7.020167112350464,0.0,-0.012304014526307583,0.014887004159390926,0.0012914948165416718,0.00020107626914978027,0.05881325900554657,0.0865761786699295,2.6521086669762375,2.652108669281006,0.12437651306390762,0.09593195468187332,-0.19133561000387458,0.5652253031730652,17,0.0,0.009290814399719238,0.14654718339443207,0.0,False,False,False,False,False,False,0.2596980929374695,0.0005822323728352785,-0.0002444750862196088,0.0,-0.00026799191255122423,0.3510083556175232,0.0,0.0,0.00025134533643722534,0.17680723965168,0.27409130334854126,-0.012755706906318665,0.16427505016326904,0.16427505016326904,0.12028953433036804,1.0,0.12028953433036804,0.9171174764633179,False,0.0
zero_steer,87,False,-2.7839410305023193,0.10014588385820389,-0.19405713356322055,-1.5172462463378906,0.09585565328598022,-0.9172496795654297,0.09382349252700806,0.3505299389362335,0.24656815826892853,0.3505299389362335,0.0,7.01059877872467,0.0,-0.012305627577006817,0.014761222526431084,0.0012277974747121334,-0.007986605167388916,0.0538342148065567,0.08311694860458374,2.797406427416272,2.7974064350128174,0.12961558997631073,0.09585510194301605,-0.1940571202230073,0.7101499438285828,18,0.0,0.014023303985595703,0.14979620277881622,0.0,False,False,False,False,False,False,0.25964197516441345,0.0029028020799160004,-0.003036214504390955,0.0,-9.521743777440861e-05,0.3505299389362335,0.0,0.0,-0.009983256459236145,0.18649375438690186,0.2738717198371887,-0.012937141582369804,0.16574399173259735,0.16574399173259735,0.12183579057455063,1.0,0.12183579057455063,0.9191758632659912,False,0.0
zero_steer,88,False,-2.7753360271453857,0.10013147443532944,-0.19678204553672507,-1.5086414813995361,0.09578099846839905,-0.9086449146270752,0.09372030943632126,0.35015755891799927,0.24608977138996124,0.35015755891799927,0.0,7.003151178359985,0.0,-0.0123311011120677,0.01472611352801323,0.001197506207972765,-0.013998627662658691,0.05004611611366272,0.08038227260112762,2.8981239700304573,2.8981239795684814,0.12392930686473846,0.09578044712543488,-0.19678204553672507,0.7101499438285828,18,0.0,0.020024418830871582,0.15188896656036377,0.0,False,False,False,False,False,False,0.2604277729988098,0.0026915327180176973,-0.0026708750519901514,0.0,0.00016631060861982405,0.35015755891799927,0.0,0.0,-0.017498284578323364,0.1932082623243332,0.27365842461586,-0.013118802569806576,0.16654664278030396,0.16654664278030396,0.12268068641424179,1.0,0.12268068641424179,0.9204568862915039,False,0.0
zero_steer,89,False,-2.766707420349121,0.10011200606822968,-0.19870907935738102,-1.5000128746032715,0.09571892768144608,-0.9000165462493896,0.09363805502653122,0.34978440403938293,0.24573759734630585,0.34978440403938293,0.0,6.995688080787659,0.0,-0.012039962224662304,0.014422014355659485,0.0011910260654985905,-0.01984979212284088,0.04631099849939346,0.07764945179224014,2.9939641172470184,2.993964195251465,0.11859133839607239,0.0957183763384819,-0.19870907935738102,0.7101499438285828,18,0.0,0.026981353759765625,0.15307237207889557,0.0,False,False,False,False,False,False,0.26089394092559814,0.0027793359477072954,-0.002786551835015416,0.0,-0.00013301605940796435,0.34978440403938293,0.0,0.0,-0.0248122401535511,0.19959761202335358,0.2734810709953308,-0.013247271999716759,0.1672532558441162,0.1672532558441162,0.1234244853258133,1.0,0.1234244853258133,0.9215156435966492,False,0.0
zero_steer,90,False,-2.7580690383911133,0.10009650886058807,-0.20172474127807388,-1.4913748502731323,0.0956367626786232,-0.8913785219192505,0.09352430701255798,0.3494676649570465,0.24539513885974884,0.3494676649570465,0.0,6.98935329914093,0.0,-0.012081388384103775,0.014498261734843254,0.0012084366753697395,-0.02577592432498932,0.042482614517211914,0.07481469213962555,3.088982934215885,3.0889830589294434,0.11363650113344193,0.09563621878623962,-0.2017247546182871,0.7101499438285828,18,0.0,0.03422868251800537,0.15398699045181274,0.0,False,False,False,False,False,False,0.2613263428211212,-0.0006992502021603286,0.0010225471341982484,0.0,-0.00030854743090458214,0.3494676649570465,0.0,0.0,-0.03221990540623665,0.20593219995498657,0.2732463479042053,-0.013448316603899002,0.16785316169261932,0.16785316169261932,0.12405596673488617,1.0,0.12405596673488617,0.9224580526351929,False,0.0
zero_steer,91,False,-2.749415397644043,0.10007990896701813,-0.20456405892017612,-1.4827214479446411,0.09555739164352417,-0.8827252388000488,0.09341520816087723,0.3490878939628601,0.24499337375164032,0.3490878939628601,0.0,6.981757879257202,0.0,-0.012108937837183475,0.014565255492925644,0.0012281588278710842,-0.031002581119537354,0.03906906396150589,0.07225997745990753,3.171117239645758,3.1711173057556152,0.1091364249587059,0.0955568477511406,-0.20456405892017612,0.7101499438285828,18,0.0,0.0417097806930542,0.15473000705242157,0.0,False,False,False,False,False,False,0.2618699371814728,0.0028636709321290255,-0.0028960092458873987,0.0,-5.112622238812037e-05,0.3490878939628601,0.0,0.0,-0.03875322639942169,0.21140781044960022,0.27301958203315735,-0.0136376041918993,0.16830436885356903,0.16830436885356903,0.12453091889619827,1.0,0.12453091889619827,0.9233109951019287,False,0.0
zero_steer,92,False,-2.7407212257385254,0.10006119310855865,-0.20701278845933146,-1.4740275144577026,0.09548453986644745,-0.8740314245223999,0.0933167114853859,0.34888872504234314,0.24471960961818695,0.34888872504234314,0.0,6.977774500846863,0.0,-0.012118198908865452,0.01457684114575386,0.0012293211184442043,-0.030823275446891785,0.0392928346991539,0.07250478863716125,3.1731308647904424,3.173130989074707,0.10514615476131439,0.09548399597406387,-0.20701278845933146,0.7101499438285828,18,0.0,0.050332069396972656,0.15476779639720917,0.0,False,False,False,False,False,False,0.26335757970809937,0.0027837983798235655,-0.0028930155094712973,0.0,4.842527414439246e-05,0.34888872504234314,0.0,0.0,-0.03852909430861473,0.2115420550107956,0.2728114128112793,-0.013800852000713348,0.16840821504592896,0.16840821504592896,0.12464023381471634,1.0,0.12464023381471634,0.9236885905265808,False,0.0
zero_steer,93,False,-2.731984853744507,0.1000455990433693,-0.21059103385205122,-1.4652912616729736,0.09538983553647995,-0.8652952909469604,0.09318453818559647,0.3489251434803009,0.24480445683002472,0.3489251434803009,0.0,6.978502869606018,0.0,-0.012089871801435947,0.014764987863600254,0.0013375580310821533,-0.03074967861175537,0.039420031011104584,0.07265740633010864,3.175559423927205,3.1755595207214355,0.10170884430408478,0.09538929164409637,-0.210591020511838,0.7101499438285828,18,0.0,0.05897402763366699,0.15482069551944733,0.0,False,False,False,False,False,False,0.2644703686237335,0.0028556566685438156,-0.002837834879755974,0.0,0.00011722053750418127,0.3489251434803009,0.0,0.0,-0.038437098264694214,0.21170395612716675,0.2725408375263214,-0.014039400964975357,0.1684388667345047,0.1684388667345047,0.12467250227928162,1.0,0.12467250227928162,0.92363440990448,False,0.0
zero_steer,94,False,-2.7232284545898438,0.10003159940242767,-0.21413500823700193,-1.4565352201461792,0.09529748558998108,-0.8565393686294556,0.09305507689714432,0.3488967716693878,0.24478676915168762,0.3488967716693878,0.0,6.977935433387756,0.0,-0.012091639451682568,0.014890017919242382,0.0013991892337799072,-0.031148135662078857,0.039225682616233826,0.07255972176790237,3.1848060059595213,3.1848061084747314,0.09892281889915466,0.0952969416975975,-0.21413500823700193,0.7101499438285828,18,0.0,0.06753861904144287,0.1549336165189743,0.0,False,False,False,False,False,False,0.26477691531181335,0.001248758751899004,-0.0008667928632348776,0.0,-0.00026229346985928714,0.3488967716693878,0.0,0.0,-0.03893516957759857,0.21232040226459503,0.27227699756622314,-0.014275667257606983,0.16849511861801147,0.16849511861801147,0.12473171204328537,1.0,0.12473171204328537,0.9237083196640015,False,0.0
zero_steer,95,False,-2.7144615650177,0.10001630336046219,-0.21758881612078051,-1.4477686882019043,0.09520583599805832,-0.8477729558944702,0.09292725473642349,0.34875255823135376,0.24469329416751862,0.34875255823135376,0.0,6.975051164627075,0.0,-0.012060118839144707,0.015051779337227345,0.001495830249041319,-0.03155778348445892,0.039027318358421326,0.07246142625808716,3.1943770219774135,3.1943769454956055,0.09684975445270538,0.09520529210567474,-0.21758882946099375,0.7101499438285828,18,0.0,0.0761110782623291,0.15504857897758484,0.0,False,False,False,False,False,False,0.2653849124908447,0.002718935487791896,-0.002751495921984315,0.0,-5.184279507375322e-05,0.34875255823135376,0.0,0.0,-0.039447229355573654,0.2129584699869156,0.27201512455940247,-0.014505921863019466,0.16856072843074799,0.16856072843074799,0.12480077147483826,1.0,0.12480077147483826,0.9238674640655518,False,0.0
zero_steer,96,False,-2.7056777477264404,0.0999981090426445,-0.22074968626240227,-1.4389851093292236,0.09511775523424149,-0.8389896154403687,0.09280607849359512,0.3488219082355499,0.24471460282802582,0.3488219082355499,0.0,6.9764381647109985,0.0,-0.012120329774916172,0.014940771274268627,0.0014102207496762276,-0.0319909006357193,0.03882070630788803,0.07236211001873016,3.2046389543185345,3.204638957977295,0.09554118663072586,0.09511721134185791,-0.22074968626240227,0.7101499438285828,18,0.0,0.08469390869140625,0.15516863763332367,0.0,False,False,False,False,False,False,0.26542067527770996,-0.005355520639568567,0.0059981741942465305,6.41322372985087e-08,-0.00015428123879246414,0.3488219082355499,0.0,0.0,-0.039988625794649124,0.21364259719848633,0.27176347374916077,-0.014716645702719688,0.1686493456363678,0.1686493456363678,0.12489405274391174,1.0,0.12489405274391174,0.9239347577095032,False,0.0
zero_steer,97,False,-2.6968910694122314,0.0999767854809761,-0.22293928215970704,-1.4301986694335938,0.09504803270101547,-0.8302031755447388,0.09271342307329178,0.34857815504074097,0.24436987936496735,0.34857815504074097,0.0,6.971563100814819,0.0,-0.012121071107685566,0.014992582611739635,0.0014357557520270348,-0.03247272968292236,0.038601867854595184,0.07226786017417908,3.216553578995387,3.2165536880493164,0.09504824131727219,0.0950474888086319,-0.22293929549992025,0.7101499438285828,18,0.0,0.09326887130737305,0.15529443323612213,0.0,False,False,False,False,False,False,0.26547011733055115,-0.006420641206204891,0.007111366372555494,0.0,-0.00021358676895033568,0.34857815504074097,0.0,0.0,-0.040590912103652954,0.21443690359592438,0.2715642750263214,-0.01486261934041977,0.16880735754966736,0.16880735754966736,0.12506037950515747,1.0,0.12506037950515747,0.9244374632835388,False,0.0
zero_steer,98,False,-2.688105344772339,0.09995878487825394,-0.22612971421383024,-1.4214131832122803,0.09495949745178223,-0.8214178085327148,0.09259147942066193,0.3485029339790344,0.24425818026065826,0.3485029339790344,0.0,6.9700586795806885,0.0,-0.012132024392485619,0.01511364709585905,0.001490811351686716,-0.03290896117687225,0.03839489072561264,0.0721694678068161,3.2269393085152145,3.2269394397735596,0.09534694999456406,0.09495895355939865,-0.22612971421383024,0.7101499438285828,18,0.0,0.10185086727142334,0.1554175466299057,0.0,False,False,False,False,False,False,0.26549309492111206,-0.004420183133333921,0.005048221442848444,3.915295199163893e-09,0.00017929727619048208,0.3485029339790344,0.0,0.0,-0.04113620147109032,0.2151292860507965,0.27131131291389465,-0.015075313858687878,0.16889873147010803,0.16889873147010803,0.12515656650066376,1.0,0.12515656650066376,0.9246405363082886,False,0.0
zero_steer,99,False,-2.679324150085449,0.09992340207099915,-0.22627592295075083,-1.4126319885253906,0.09492088109254837,-0.8126366138458252,0.0925513282418251,0.34852951765060425,0.24429883062839508,0.34852951765060425,0.0,6.970590353012085,0.0,-0.011955170892179012,0.01465059258043766,0.001347710844129324,-0.03351588547229767,0.03813450038433075,0.07207319140434265,3.2426378579922543,3.242637872695923,0.09649675339460373,0.0949203372001648,-0.22627592295075083,0.7101499438285828,18,0.0,0.11039340496063232,0.15555983781814575,0.0,False,False,False,False,False,False,0.26513493061065674,-0.006753350608050823,0.0075392709113657475,0.0,-7.257403194671497e-05,0.34852951765060425,0.0,0.0,-0.041894856840372086,0.2161758542060852,0.2712009847164154,-0.015085061080753803,0.16919872164726257,0.16919872164726257,0.12547235190868378,1.0,0.12547235190868378,0.9248998761177063,False,0.0
zero_steer,100,False,-2.670549154281616,0.09990818053483963,-0.22984306928606932,-1.4038572311401367,0.09482679516077042,-0.8038620948791504,0.09241989254951477,0.34840458631515503,0.24420036375522614,0.34840458631515503,0.0,6.968091726303101,0.0,-0.011768292635679245,0.014807509258389473,0.001519608311355114,-0.03392589092254639,0.03793893754482269,0.07197920978069305,3.252354015530009,3.252354145050049,0.09836447238922119,0.09482625126838684,-0.22984306928606932,0.7101499438285828,18,0.0,0.11897057294845581,0.15567931532859802,0.0,False,False,False,False,False,False,0.2653498947620392,0.0026222108863294125,-0.0026075225323438644,0.0,3.96532159356866e-05,0.34840458631515503,0.0,0.0,-0.04240736365318298,0.21682359278202057,0.2709321677684784,-0.015322871506214142,0.1692669838666916,0.1692669838666916,0.1255442053079605,1.0,0.1255442053079605,0.9250665903091431,False,0.0
zero_steer,101,False,-2.661766529083252,0.0998641848564148,-0.22874597015063602,-1.3950746059417725,0.09480705112218857,-0.7950793504714966,0.09241163730621338,0.3486354351043701,0.24446727335453033,0.3486354351043701,0.0,6.972708702087402,0.0,-0.01193635631352663,0.014525024220347404,0.001294333953410387,-0.034614965319633484,0.03765130788087845,0.0718817338347435,3.270540674855637,3.270540714263916,0.1010354608297348,0.09480650722980499,-0.22874594347020957,0.7101499438285828,18,0.0,0.1274958848953247,0.15583419799804688,0.0,False,False,False,False,False,False,0.2657131850719452,-0.004619105719029903,0.0048059322871267796,0.0,-6.33519739494659e-05,0.3486354351043701,0.0,0.0,-0.043268706649541855,0.21803604066371918,0.2708757519721985,-0.01524972915649414,0.16965779662132263,0.16965779662132263,0.12595558166503906,1.0,0.12595558166503906,0.9251905083656311,False,0.0
zero_steer,102,False,-2.652966260910034,0.09983820468187332,-0.23036568547928107,-1.3862744569778442,0.09474526345729828,-0.7862793207168579,0.0923328846693039,0.3483607769012451,0.2441840022802353,0.3483607769012451,0.0,6.967215538024902,0.0,-0.011991802603006363,0.0144126545637846,0.0012104259803891182,-0.03513689339160919,0.03742425888776779,0.07179437577724457,3.2839018055326514,3.2839019298553467,0.10434842854738235,0.0947447195649147,-0.23036568547928107,0.7101499438285828,18,0.0,0.13607031106948853,0.155972421169281,0.0,False,False,False,False,False,False,0.26583331823349,-0.010062647983431816,0.011036918498575687,2.982097839776543e-07,-0.0003838664561044425,0.3483607769012451,0.0,0.0,-0.04392111673951149,0.2189267873764038,0.2706992030143738,-0.015357712283730507,0.169868603348732,0.169868603348732,0.12617748975753784,1.0,0.12617748975753784,0.9256845712661743,False,0.0
zero_steer,103,False,-2.6441657543182373,0.09980037063360214,-0.23032961354272694,-1.3774739503860474,0.09470822662115097,-0.777478814125061,0.09229622781276703,0.3482712209224701,0.2439638078212738,0.3482712209224701,0.0,6.965424418449402,0.0,-0.012036199681460857,0.014147494919598103,0.0010556476190686226,-0.035779982805252075,0.03714907169342041,0.07169346511363983,3.3005715225323025,3.3005716800689697,0.10829884558916092,0.0947076827287674,-0.23032961354272694,0.7101499438285828,18,0.0,0.1446211338043213,0.15612472593784332,0.0,False,False,False,False,False,False,0.26619449257850647,-0.001627997844479978,0.0013720857677981257,1.4313569351998012e-07,0.00034990423591807485,0.3482712209224701,0.0,0.0,-0.044724978506565094,0.22003810107707977,0.2705933749675751,-0.01535530760884285,0.17019334435462952,0.17019334435462952,0.1265193223953247,1.0,0.1265193223953247,0.9262295365333557,False,0.0
zero_steer,104,False,-2.635364055633545,0.09978125244379044,-0.23276665705509922,-1.3686723709106445,0.09463523328304291,-0.7686773538589478,0.0921977162361145,0.3485259413719177,0.24436761438846588,0.3485259413719177,0.0,6.9705188274383545,0.0,-0.011689068749547005,0.014028992503881454,0.0011699618771672249,-0.03626123070716858,0.0369366779923439,0.07160840928554535,3.3127514573697274,3.312751531600952,0.11276929080486298,0.09463468939065933,-0.23276665705509922,0.7101499438285828,18,0.0,0.15320461988449097,0.156259685754776,0.0,False,False,False,False,False,False,0.266130656003952,0.002377208322286606,-0.002446048194542527,0.0,1.2352062185527757e-05,0.3485259413719177,0.0,0.0,-0.045326538383960724,0.22085009515285492,0.27038484811782837,-0.01551777683198452,0.17035694420337677,0.17035694420337677,0.126691535115242,1.0,0.126691535115242,0.9259893298149109,False,0.0
zero_steer,105,False,-2.6265604496002197,0.09974445402622223,-0.2325425414729582,-1.3598687648773193,0.09460338950157166,-0.7598737478256226,0.09216821938753128,0.3486292064189911,0.24447859823703766,0.3486292064189911,0.0,6.972584128379822,0.0,-0.011928749270737171,0.013958162628114223,0.0010147066786885262,-0.036904290318489075,0.036669448018074036,0.07151919603347778,3.329779332413981,3.3297793865203857,0.11776332557201385,0.09460284560918808,-0.2325425414729582,0.7101499438285828,18,0.0,0.16175490617752075,0.15641599893569946,0.0,False,False,False,False,False,False,0.2662297189235687,-0.0004891408607363701,0.0005023752455599606,5.019545668005776e-08,-0.00011977899703197181,0.3486292064189911,0.0,0.0,-0.04613036289811134,0.22198528051376343,0.27029386162757874,-0.015502835623919964,0.1707030087709427,0.1707030087709427,0.1270558089017868,1.0,0.1270558089017868,0.926224410533905,False,0.0
zero_steer,106,False,-2.6177468299865723,0.09972651302814484,-0.23612678996162817,-1.35105562210083,0.09450620412826538,-0.7510606050491333,0.0920334979891777,0.3485798239707947,0.24440045654773712,0.3485798239707947,0.0,6.9715964794158936,0.0,-0.011874847114086151,0.01410291064530611,0.0011140317656099796,-0.03734591603279114,0.03646092116832733,0.07142108678817749,3.340341579635171,3.340341567993164,0.12314076721668243,0.0945056602358818,-0.23612678996162817,0.7101499438285828,18,0.0,0.17035579681396484,0.15655048191547394,0.0,False,False,False,False,False,False,0.26654377579689026,0.0026841466315090656,-0.0026019674260169268,0.0,0.00011756452295230702,0.3485798239707947,0.0,0.0,-0.04668239504098892,0.2226894348859787,0.2700161933898926,-0.015741785988211632,0.17078730463981628,0.17078730463981628,0.12714454531669617,1.0,0.12714454531669617,0.926386833190918,False,0.0
zero_steer,107,False,-2.6089329719543457,0.09970168024301529,-0.23831978761330472,-1.3422417640686035,0.09443289041519165,-0.7422469854354858,0.09193722158670425,0.34863102436065674,0.24447880685329437,0.34863102436065674,0.0,6.972620487213135,0.0,-0.011917807161808014,0.014086104929447174,0.00108414888381958,-0.03786720335483551,0.03622957319021225,0.0713270753622055,3.353478167843221,3.353478193283081,0.12856389582157135,0.09443234652280807,-0.23831976093287827,0.8550744652748108,19,0.0,0.1789388656616211,0.15669648349285126,0.0,False,False,False,False,False,False,0.2665395438671112,0.0026517724618315697,-0.0025544194504618645,0.0,3.815194213530049e-05,0.34863102436065674,0.0,0.0,-0.04733400419354439,0.2235652059316635,0.26980671286582947,-0.01588798314332962,0.1709728240966797,0.1709728240966797,0.12733982503414154,1.0,0.12733982503414154,0.9264940023422241,False,0.0
zero_steer,108,False,-2.600116491317749,0.0996706560254097,-0.23990236378833782,-1.333425521850586,0.0943668857216835,-0.7334307432174683,0.09185463935136795,0.348720520734787,0.24451671540737152,0.348720520734787,0.0,6.97441041469574,0.0,-0.012066488154232502,0.01397439744323492,0.0009539546445012093,-0.03842735290527344,0.035984501242637634,0.07123123109340668,3.3677543304256057,3.3677544593811035,0.1227014809846878,0.09436634927988052,-0.23990236378833782,0.8550744652748108,19,0.0,0.18751764297485352,0.1568465530872345,0.0,False,False,False,False,False,False,0.2663184404373169,-0.008812819607555866,0.009443741291761398,5.9054187317997275e-08,-9.240854706149548e-05,0.348720520734787,0.0,0.0,-0.0480341911315918,0.22451695799827576,0.2696181535720825,-0.01599349081516266,0.17119917273521423,0.17119917273521423,0.12757807970046997,1.0,0.12757807970046997,0.9266824722290039,False,0.0
zero_steer,109,False,-2.591296672821045,0.09964482486248016,-0.24177754420019723,-1.324605941772461,0.09429959207773209,-0.7246111631393433,0.09176771342754364,0.34824585914611816,0.24396800994873047,0.34824585914611816,0.0,6.964917182922363,0.0,-0.011935942806303501,0.014079848304390907,0.001071952749043703,-0.03897324204444885,0.03574643284082413,0.07113897055387497,3.381700936380537,3.3817009925842285,0.11720658838748932,0.09429905563592911,-0.24177751751977078,0.8550744652748108,19,0.0,0.1961016058921814,0.1569962501525879,0.0,False,False,False,False,False,False,0.266657292842865,0.0020525366999208927,-0.0030533899553120136,0.0,1.3091165783407632e-05,0.34824585914611816,0.0,0.0,-0.048716552555561066,0.22544673085212708,0.2694258689880371,-0.016118500381708145,0.17141392827033997,0.17141392827033997,0.12780414521694183,1.0,0.12780414521694183,0.9274458885192871,False,0.0
