Su2050/forklift_sim/outputs/exp83_single_point_steer_diag/exp83_force_steering_guidance_v3_seed42_point_ypos0p1_yawneg4_zero_steer_steps.csv
mode,step,done,root_x,root_y,root_yaw_deg,fork_center_x,fork_center_y,tip_x,tip_y,raw_drive,raw_steer,applied_drive,applied_steer,drive_target_rad_s,steer_target_rad,left_steer_joint_pos_rad,right_steer_joint_pos_rad,mean_steer_joint_pos_rad,root_y_signed_m,center_y_signed_m,tip_y_signed_m,yaw_err_signed_deg,yaw_err_abs_deg,d_traj_m,d_traj_signed_m,yaw_traj_signed_deg,traj_s_norm,traj_closest_idx,dist_front_m,insert_depth_m,pallet_disp_xy_m,hold_counter,inserted,push_free,hold_entry,clean_insert_ready,dirty_insert,success,policy_vx_r,policy_vy_r,policy_yaw_rate,policy_lift_pos,policy_lift_vel,policy_prev_drive,policy_prev_steer,policy_prev_lift,policy_y_err_obs,policy_yaw_err_obs,policy_d_traj_signed_obs,policy_yaw_traj_err_obs,steer_target_cmd,steer_target_abs,steer_guidance_gate,steer_enforce_gate,steer_penalty_gate,steer_match,steer_wrong_sign,steer_shortfall
zero_steer,0,False,-3.5,0.10000000149011612,-3.9999995421277097,-2.2363834381103516,0.011639337986707687,-1.6378450393676758,-0.030214540660381317,nan,nan,nan,nan,nan,nan,0.0,0.0,0.0,0.10000000149011612,0.011639337986707687,-0.030214540660381317,-3.999999115240887,3.9999990463256836,0.0,0.0,0.6593821402439468,0.0,0,0.5578449964523315,0.0,0.0,0.0,False,True,False,False,False,False,0.0,0.0,0.0,0.0,0.0,0.0,0.0,0.0,0.125,-0.26666659116744995,0.0,0.04395880922675133,-0.10246312618255615,0.10246312618255615,0.05522434413433075,0.0,0.0,0.8975368738174438,False,0.10246312618255615
zero_steer,1,False,-3.49977445602417,0.09998327493667603,-4.000120777985478,-2.2361581325531006,0.011619932949543,-1.6376198530197144,-0.03023521602153778,0.34292587637901306,0.23828281462192535,0.34292587637901306,0.0,6.858517527580261,0.0,0.00012101528409402817,-0.00012101638276362792,-5.493347998708487e-10,0.09999047219753265,0.0116271385923028,-0.030228007584810257,-4.0001212048723005,4.000121116638184,0.00022613967303186655,-1.0388084774604067e-06,0.659260957747032,0.0,0,0.5576204061508179,0.0,7.242890660563717e-06,0.0,False,True,False,False,False,False,-0.0010062376968562603,6.732043402735144e-06,-0.00011455114872660488,0.0,1.689274540694896e-05,0.34292587637901306,0.0,0.0,0.12498809397220612,-0.2666747570037842,-2.9680243187613087e-06,0.043950729072093964,-0.10247628390789032,0.10247628390789032,0.05523819476366043,0.0,0.0,0.6592409014701843,True,0.3407590985298157
zero_steer,2,False,-3.499145984649658,0.09993664920330048,-4.000447773291992,-2.235530376434326,0.011566098779439926,-1.6369922161102295,-0.030292466282844543,0.3587454557418823,0.2572171688079834,0.3587454557418823,0.0,7.1749091148376465,0.0,0.00022058513422962278,-0.00021939730504527688,5.939145921729505e-07,0.09995104372501373,0.011580503545701504,-0.03027806058526039,-4.000447773291992,4.000447750091553,0.0008561998838558793,-3.7009813240729272e-06,0.6589339624405176,0.0,0,0.5569936037063599,0.0,1.4477243894361891e-05,0.0,False,True,False,False,False,False,-0.0020251874811947346,1.3389610103331506e-05,-0.00022761645959690213,0.0,1.1110415471193846e-05,0.3587454557418823,0.0,0.0,0.12493880093097687,-0.2666965126991272,-1.0574232874205336e-05,0.043928928673267365,-0.10251928120851517,0.10251928120851517,0.055283453315496445,0.0,0.0,0.640263557434082,True,0.35973644256591797
zero_steer,3,False,-3.4986929893493652,0.09990418702363968,-4.0005433959403724,-2.235077381134033,0.011531531810760498,-1.636539340019226,-0.03032802790403366,0.3595826327800751,0.2579709589481354,0.3595826327800751,0.0,7.1916526556015015,0.0,0.0002787518023978919,-0.00029404950328171253,-7.648850441910326e-06,0.09992578625679016,0.011553135700523853,-0.03030642308294773,-4.0005433959403724,4.000543594360352,0.001310498802922666,-1.3562312233261764e-06,0.6588383397921375,0.0,0,0.5565413236618042,0.0,2.1711683075409383e-05,0.0,False,True,False,False,False,False,0.03404178470373154,0.00011326046660542488,-7.049043051665649e-05,0.0,8.413261093664914e-05,0.3595826327800751,0.0,0.0,0.1249072328209877,-0.26670289039611816,-3.874946287396597e-06,0.043922554701566696,-0.10253779590129852,0.10253779590129852,0.055302944034338,0.0,0.0,0.6394912600517273,True,0.3605087399482727
zero_steer,4,False,-3.496873378753662,0.0997772067785263,-4.000567301602468,-2.23325777053833,0.01140403002500534,-1.634719729423523,-0.030455783009529114,0.359727144241333,0.2581392228603363,0.359727144241333,0.0,7.19454288482666,0.0,0.00025415397249162197,-0.000260117492871359,-2.9817601898685098e-06,0.09980600327253342,0.011432833038270473,-0.030426979064941406,-4.000567301602468,4.000567436218262,0.0031345123425126076,1.9372047972865403e-05,0.6588144341300424,0.0,0,0.5547224283218384,0.0,2.8946142265340313e-05,0.0,False,True,False,False,False,False,0.07076850533485413,3.496930003166199e-05,-0.00015131708642002195,9.201730932772989e-08,0.0002867785806301981,0.359727144241333,0.0,0.0,0.12475750595331192,-0.2667044699192047,5.53487116121687e-05,0.043920960277318954,-0.10259472578763962,0.10259472578763962,0.055362869054079056,0.0,0.0,0.6392660140991211,True,0.3607339560985565
zero_steer,5,False,-3.4938368797302246,0.09956502169370651,-4.000540834619433,-2.2302212715148926,0.011192429810762405,-1.631683111190796,-0.030667103826999664,0.3598780035972595,0.2581630051136017,0.3598780035972595,0.0,7.19756007194519,0.0,0.00023515451175626367,-0.0002379109209869057,-1.3782046153210104e-06,0.09960101544857025,0.011228431947529316,-0.03063110075891018,-4.00054040773261,4.000540256500244,0.005270491819828749,-7.663961150683463e-05,2.09147841560854,0.009893262758851051,1,0.5516866445541382,0.0,3.618060873122886e-05,0.0,False,True,False,False,False,False,0.1071196049451828,-0.0001399228349328041,-0.0007092177402228117,1.3106316032462928e-07,0.0004110330482944846,0.3598780035972595,0.0,0.0,0.12450127303600311,-0.26670268177986145,-0.00021897032274864614,0.139431893825531,-0.07888603210449219,0.07888603210449219,0.030406350269913673,0.0,0.0,0.6629509925842285,True,0.33704903721809387
zero_steer,6,False,-3.4896373748779297,0.09927186369895935,-4.000565167168352,-2.2260217666625977,0.010898739099502563,-1.6274837255477905,-0.0309610515832901,0.35556119680404663,0.25268644094467163,0.35556119680404663,0.0,7.111223936080933,0.0,0.0002116355753969401,-0.00019266095478087664,9.487310308031738e-06,0.09930803626775742,0.01093482505530119,-0.030925005674362183,-4.00056900914976,4.000568866729736,0.001065762247890234,7.698746048845351e-05,2.0914542965030334,0.009893262758851051,1,0.5474871397018433,0.0,3.6106161132920533e-05,0.0,False,True,False,False,False,False,0.14051403105258942,0.0005020750686526299,-0.0006014596438035369,7.582072925060857e-08,0.0002463787386659533,0.35556119680404663,0.0,0.0,0.12413504719734192,-0.26670458912849426,0.0002199641749029979,0.13943028450012207,-0.07896465063095093,0.07896465063095093,0.030489105731248856,0.0,0.0,0.6683489084243774,True,0.33165109157562256
zero_steer,7,False,-3.4844508171081543,0.09890913963317871,-4.000615539813481,-2.2208352088928223,0.01053488627076149,-1.6222972869873047,-0.03132542967796326,0.3555440604686737,0.25261688232421875,0.3555440604686737,0.0,7.110881209373474,0.0,0.0001586315775057301,-0.00015118335431907326,3.7241115933284163e-06,0.098944291472435,0.010570310987532139,-0.031289875507354736,-4.00060316009561,4.000603199005127,0.004141431767493486,0.0002655966382008046,2.0914039238579045,0.009893262758851051,1,0.5423010587692261,0.0,3.610607382142916e-05,0.0,False,True,False,False,False,False,0.16836993396282196,0.00015760213136672974,-7.754414400551468e-05,7.438944749083021e-08,0.00016418599989265203,0.3555440604686737,0.0,0.0,0.12368036806583405,-0.2667068839073181,0.0007588475709781051,0.13942693173885345,-0.0790637880563736,0.0790637880563736,0.03059346228837967,0.0,0.0,0.6683193445205688,True,0.33168065547943115
zero_steer,8,False,-3.4784646034240723,0.09848897159099579,-4.00069195255482,-2.2148492336273193,0.01011304184794426,-1.6163113117218018,-0.03174807131290436,0.35572242736816406,0.252733439207077,0.35572242736816406,0.0,7.114448547363281,0.0,0.0001192410200019367,-8.443784463452175e-05,1.7401587683707476e-05,0.09852410852909088,0.010148434899747372,-0.03171255439519882,-4.000680426610596,4.000680446624756,0.0005576469702646136,0.0004885281668975949,3.5821695498413497,0.018403952941298485,2,0.5363150835037231,0.0,3.605267556849867e-05,0.0,False,True,False,False,False,False,0.1904606819152832,0.0006295451894402504,-0.0008457053336314857,8.711552368367848e-09,0.00033701167558319867,0.35572242736816406,0.0,0.0,0.1231551319360733,-0.2667120397090912,0.0013957947958260775,0.23881129920482635,-0.05432993546128273,0.05432993546128273,0.004557826090604067,0.0,0.0,0.6929366588592529,True,0.30706337094306946
zero_steer,9,False,-3.4718334674835205,0.09802648425102234,-4.000712870009153,-2.2082180976867676,0.009650103747844696,-1.60968017578125,-0.03221122920513153,0.3510802984237671,0.24672864377498627,0.3510802984237671,0.0,7.021605968475342,0.0,3.3812120818765834e-05,-1.12324833025923e-05,1.1289818758086767e-05,0.09806118905544281,0.00968522485345602,-0.03217591345310211,-4.000694086988935,4.000694274902344,0.001873269909992814,0.0008641576860100031,4.986318558752102,0.025786833837628365,3,0.5296839475631714,0.0,3.605261736083776e-05,0.0,False,True,False,False,False,False,0.2084660530090332,0.0005095396190881729,-0.0004179934330750257,9.608076112499475e-08,0.0003652495506685227,0.3510802984237671,0.0,0.0,0.12257649004459381,-0.2667129337787628,0.002469022059813142,0.3324212431907654,-0.030973762273788452,0.030973762273788452,0.0,0.0,0.0,0.7222976088523865,True,0.2777023911476135
zero_steer,10,False,-3.464686393737793,0.09752503037452698,-4.000764096427928,-2.201071262359619,0.009147517383098602,-1.602533221244812,-0.0327143520116806,0.3463110327720642,0.24056759476661682,0.3463110327720642,0.0,6.926220655441284,0.0,-8.09645644039847e-06,4.910521602141671e-05,2.050437979050912e-05,0.09756024181842804,0.009182943031191826,-0.03267882391810417,-4.000754278030996,4.000754356384277,0.0025361469015479088,0.0014443215914070606,6.085827043415122,0.03229581564664841,4,0.522537112236023,0.0,3.601042408263311e-05,0.0,False,True,False,False,False,False,0.22292184829711914,0.0009206896647810936,-0.0008357592741958797,1.7780348571250215e-07,0.0003701726673170924,0.3463110327720642,0.0,0.0,0.12195029854774475,-0.26671695709228516,0.0041266330517828465,0.4057218134403229,-0.012601442635059357,0.012601442635059357,0.0,0.0,0.0,0.746830940246582,True,0.2531690299510956
zero_steer,11,False,-3.4571173191070557,0.09699620306491852,-4.000751289823234,-2.1935019493103027,0.008618973195552826,-1.5949641466140747,-0.033242762088775635,0.342472642660141,0.23567448556423187,0.342472642660141,0.0,6.84945285320282,0.0,-0.00010487309191375971,0.00011601520964177325,5.571058864006773e-06,0.09703125804662704,0.008654305711388588,-0.033207301050424576,-4.000738910105364,4.000739097595215,0.0026240067090839148,0.0022365457843989134,6.6298486225988755,0.03818148374557495,5,0.5149679183959961,0.0,3.601863136282191e-05,0.0,False,True,False,False,False,False,0.23436817526817322,0.0008892761543393135,-0.0004358292499091476,0.0,0.0003966650110669434,0.342472642660141,0.0,0.0,0.12128907442092896,-0.2667159140110016,0.006390131078660488,0.4419898986816406,-0.0033786073327064514,0.0033786073327064514,0.0,0.0,0.0,0.7609468698501587,True,0.23905310034751892
zero_steer,12,False,-3.4492099285125732,0.09644362330436707,-4.000757266238758,-2.1855945587158203,0.008066259324550629,-1.5870567560195923,-0.03379553556442261,0.3405309319496155,0.2330704927444458,0.3405309319496155,0.0,6.81061863899231,0.0,-0.0001841995253926143,0.00017848386778496206,-2.8578288038261235e-06,0.09647895395755768,0.008101757615804672,-0.033759955316782,-4.000749582275942,4.000749588012695,0.003154945559799671,0.003151416080072522,6.425347209319994,0.043690603226423264,6,0.5070605278015137,0.0,3.598992043407634e-05,0.0,False,True,False,False,False,False,0.2438061535358429,0.0008476767688989639,-0.0003659572103060782,0.0,0.0003817632095888257,0.3405309319496155,0.0,0.0,0.1205986887216568,-0.2667166292667389,0.009004046209156513,0.42835646867752075,-0.0065753161907196045,0.0065753161907196045,0.0,0.0,0.0,0.7603541612625122,True,0.2396458089351654
zero_steer,13,False,-3.441028594970703,0.09587015211582184,-4.000721834632439,-2.17741322517395,0.00749356672167778,-1.5788753032684326,-0.03436785936355591,0.3412773609161377,0.23390720784664154,0.3412773609161377,0.0,6.825547218322754,0.0,-0.00021385644504334778,0.0004291958757676184,0.00010766971536213532,0.09590525925159454,0.007528943009674549,-0.034332357347011566,-4.0007098818013915,4.0007100105285645,0.004562895279377699,0.004032810218632221,5.448263035340282,0.04906890541315079,7,0.498879075050354,0.0,3.6041426938027143e-05,0.0,False,True,False,False,False,False,0.2516648471355438,0.000322708860039711,-0.00028075536829419434,0.0,7.289665518328547e-05,0.3412773609161377,0.0,0.0,0.11988157033920288,-0.2667139768600464,0.011522315442562103,0.3632175326347351,-0.022677406668663025,0.022677406668663025,0.0,0.0,0.0,0.743415355682373,True,0.25658461451530457
zero_steer,14,False,-3.4326274394989014,0.09528189897537231,-4.000717992651031,-2.1690120697021484,0.006905391812324524,-1.5704741477966309,-0.03495599329471588,0.3444756865501404,0.2380870133638382,0.3444756865501404,0.0,6.889513731002808,0.0,-0.0003349458274897188,0.0004895888268947601,7.732149970252067e-05,0.09531718492507935,0.006940864026546478,-0.034920431673526764,-4.000709454914568,4.000709533691406,0.005330828949809074,0.004794939886778593,1.9661988724087545,0.06041956692934036,9,0.49047791957855225,0.0,3.599638876039535e-05,0.0,False,True,False,False,False,False,0.25762009620666504,0.00038414448499679565,-0.0003606622340157628,3.7686383791424305e-08,7.513255695812404e-06,0.3444756865501404,0.0,0.0,0.11914648115634918,-0.266713947057724,0.013699828647077084,0.13107992708683014,-0.0806070864200592,0.0806070864200592,0.03221798688173294,0.0,0.0,0.6813058853149414,True,0.3186941146850586
zero_steer,15,False,-3.4240474700927734,0.09468197822570801,-4.000733787463486,-2.1604321002960205,0.006305128335952759,-1.561894178390503,-0.03555642068386078,0.3555397391319275,0.25252193212509155,0.3555397391319275,0.0,7.11079478263855,0.0,-0.00035397824831306934,0.0010397714795544744,0.0003428966156207025,0.09471718221902847,0.006340548861771822,-0.035520896315574646,-4.000723969066555,4.000723838806152,0.005236112512648106,0.0051285093650221825,0.024827312413699877,0.06689568608999252,10,0.4818979501724243,0.0,3.600222407840192e-05,0.0,False,True,False,False,False,False,0.2619854509830475,-0.001102197915315628,-0.002741039264947176,0.0,-0.0010267565958201885,0.3555397391319275,0.0,0.0,0.11839647591114044,-0.2667149305343628,0.014652884565293789,0.001655154163017869,-0.11311079561710358,0.11311079561710358,0.066432423889637,0.0,0.0,0.6343672871589661,True,0.36563271284103394
zero_steer,16,False,-3.4153342247009277,0.09407083690166473,-4.000688537460235,-2.151718854904175,0.005694989114999771,-1.5531809329986572,-0.03616608679294586,0.36178475618362427,0.2606731653213501,0.36178475618362427,0.0,7.235695123672485,0.0,-0.0004550675512291491,0.0015218795742839575,0.0005334060406312346,0.0941055417060852,0.00573011813685298,-0.03613075986504555,-4.00067018132684,4.000670433044434,0.005198366940021515,0.00515500595793128,-1.7686161205939774,0.07424842566251755,11,0.47318482398986816,0.0,3.605950405471958e-05,0.0,False,True,False,False,False,False,0.2652468681335449,-5.406886339187622e-05,-0.002226482843980193,0.0,-0.0038755706045776606,0.36178475618362427,0.0,0.0,0.1176319271326065,-0.26671135425567627,0.014728588983416557,-0.11790774017572403,-0.14332813024520874,0.14332813024520874,0.09824014455080032,0.0,0.0,0.5959987044334412,True,0.40400129556655884
zero_steer,17,False,-3.40651273727417,0.09345545619726181,-4.000608282737487,-2.142897129058838,0.0050813667476177216,-1.5443592071533203,-0.036778874695301056,0.3671284317970276,0.26773950457572937,0.3671284317970276,0.0,7.342568635940552,0.0,-0.0004565065901260823,0.0019816425628960133,0.0007625679718330503,0.09349027276039124,0.005116563756018877,-0.03674349933862686,-4.000591634151386,4.00059175491333,0.005157023668289185,0.00492854043841362,-3.32513587099543,0.08273706585168839,12,0.4643629789352417,0.0,3.6038349207956344e-05,0.0,False,True,False,False,False,False,0.2682557702064514,0.0008070375770330429,-0.0007219769177027047,1.00817167947298e-07,-7.374362758127972e-05,0.3671284317970276,0.0,0.0,0.11686284095048904,-0.26670610904693604,0.014081544242799282,-0.22167572379112244,-0.16974228620529175,0.16974228620529175,0.12604452669620514,0.0,0.0,0.5625182390213013,True,0.4374817907810211
zero_steer,18,False,-3.3976187705993652,0.09283179044723511,-4.000592061038208,-2.134003162384033,0.004458066076040268,-1.5354652404785156,-0.03740200400352478,0.37144142389297485,0.27347856760025024,0.37144142389297485,0.0,7.428828477859497,0.0,-0.0005915967631153762,0.0022864765487611294,0.0008474398637190461,0.09286700934171677,0.00449349544942379,-0.03736647590994835,-4.0005826695281,4.000582695007324,0.005991556216031313,0.0,-4.000592487925032,0.09262263029813766,13,0.45546913146972656,0.0,3.5992252378491685e-05,0.0,False,True,False,False,False,False,0.2702626883983612,0.00085439532995224,-0.0007499150815419853,0.0,0.0009575750445947051,0.37144142389297485,0.0,0.0,0.11608376353979111,-0.2667055130004883,0.0,-0.2667061686515808,-0.18416643142700195,0.18416643142700195,0.1412278264760971,0.0,0.0,0.5423550009727478,True,0.4576449990272522
zero_steer,19,False,-3.388662576675415,0.09220480918884277,-4.000484912445604,-2.125046968460083,0.003833439201116562,-1.5265088081359863,-0.03802551329135895,0.373285174369812,0.2759675085544586,0.373285174369812,0.0,7.46570348739624,0.0,-0.000691764522343874,0.0026588875334709883,0.0009835615055635571,0.09223981946706772,0.0038687633350491524,-0.03799004107713699,-4.00047082518044,4.0004706382751465,0.006263298913836479,0.0,-4.000485339332427,0.09262263029813766,13,0.4465125799179077,0.0,3.605398887884803e-05,0.0,False,True,False,False,False,False,0.271806538105011,0.0004134196788072586,-0.0005729401600547135,0.0,0.0020379358902573586,0.373285174369812,0.0,0.0,0.1152997761964798,-0.26669806241989136,0.0,-0.26669901609420776,-0.18451270461082458,0.18451270461082458,0.14159232378005981,0.0,0.0,0.5395197868347168,True,0.4604802131652832
zero_steer,20,False,-3.3796627521514893,0.09157481789588928,-4.000475094048672,-2.1160471439361572,0.003203675150871277,-1.5175089836120605,-0.038655176758766174,0.37336838245391846,0.27609190344810486,0.37336838245391846,0.0,7.467367649078369,0.0,-0.000808604818303138,0.0032163579016923904,0.0012038765707984567,0.09160985052585602,0.0032390120904892683,-0.038619693368673325,-4.000461433670332,4.000461578369141,0.01431603729724884,0.0,-4.000475094048672,0.09262263029813766,13,0.4375128746032715,0.0,3.6058936530025676e-05,0.0,False,True,False,False,False,False,0.2725765109062195,-0.0014003962278366089,-0.0031487199012190104,0.0,-0.0027865730226039886,0.37336838245391846,0.0,0.0,0.11451230943202972,-0.2666974365711212,0.0,-0.26669833064079285,-0.18486648797988892,0.18486648797988892,0.14196473360061646,0.0,0.0,0.5390416383743286,True,0.4609583914279938
zero_steer,21,False,-3.3706469535827637,0.09094230830669403,-4.000214266199742,-2.1070308685302734,0.0025769174098968506,-1.5084925889968872,-0.039279207587242126,0.3734663426876068,0.2761758863925934,0.3734663426876068,0.0,7.469326853752136,0.0,-0.0008506150334142148,0.004230576101690531,0.0016899805050343275,0.09097717702388763,0.002612145384773612,-0.03924380987882614,-4.000198044500463,4.000197887420654,0.023113345727324486,0.0,-4.000214266199742,0.09262263029813766,13,0.42849647998809814,0.0,3.604310768423602e-05,0.0,False,True,False,False,False,False,0.27307483553886414,-0.0014333520084619522,-0.0019335717661306262,0.0,-0.005463280715048313,0.3734663426876068,0.0,0.0,0.11372147500514984,-0.2666798532009125,0.0,-0.2666809558868408,-0.1852068305015564,0.1852068305015564,0.14232298731803894,0.0,0.0,0.5386172533035278,True,0.4613827168941498
zero_steer,22,False,-3.3616061210632324,0.09030987322330475,-4.00025908931617,-2.097990036010742,0.0019434913992881775,-1.4994518756866455,-0.039913102984428406,0.3734915852546692,0.2761910557746887,0.3734915852546692,0.0,7.469831705093384,0.0,-0.0009655850008130074,0.004761519376188517,0.0018979671876877546,0.09034483879804611,0.001978776417672634,-0.039877668023109436,-4.000244148277361,4.000244140625,0.032069023698568344,0.0,-4.00025908931617,0.09262263029813766,13,0.4194556474685669,0.0,3.601683783927001e-05,0.0,False,True,False,False,False,False,0.2740060091018677,0.00015884637832641602,-0.001484546810388565,0.0,-0.003954055719077587,0.3734915852546692,0.0,0.0,0.11293105036020279,-0.2666829526424408,0.0,-0.2666839361190796,-0.18556524813175201,0.18556524813175201,0.14270026981830597,0.0,0.0,0.5382437109947205,True,0.46175628900527954
zero_steer,23,False,-3.3525443077087402,0.08967515826225281,-4.0003205610187,-2.088928461074829,0.0013074204325675964,-1.4903901815414429,-0.04054981470108032,0.3735678195953369,0.2761698365211487,0.3735678195953369,0.0,7.471356391906738,0.0,-0.0011766887037083507,0.00519462488591671,0.0020089680328965187,0.0897100567817688,0.0013426648220047355,-0.04051440581679344,-4.000305193093068,4.00030517578125,0.04109245538711548,0.0,-4.000320987905524,0.09262263029813766,13,0.41039395332336426,0.0,3.601700154831633e-05,0.0,False,True,False,False,False,False,0.27450793981552124,-0.0012169480323791504,-0.003079718444496393,0.0,-0.006306593306362629,0.3735678195953369,0.0,0.0,0.112137570977211,-0.2666870057582855,0.0,-0.2666880488395691,-0.1859259009361267,0.1859259009361267,0.14307990670204163,0.0,0.0,0.5379042625427246,True,0.4620957374572754
zero_steer,24,False,-3.3434739112854004,0.0890394002199173,-4.0000289973185055,-2.079857587814331,0.0006780922412872314,-1.4813190698623657,-0.041176095604896545,0.3736063838005066,0.27616459131240845,0.3736063838005066,0.0,7.472127676010132,0.0,-0.0012824474833905697,0.005930660758167505,0.002324106637388468,0.08907494693994522,0.0007136982167139649,-0.04114045947790146,-4.000026009110743,4.000026226043701,0.05014711245894432,0.0,-4.0000289973185055,0.09262263029813766,13,0.4013228416442871,0.0,3.5914134059567004e-05,0.0,False,True,False,False,False,False,0.27477943897247314,-0.0005796998739242554,-0.0003852357331197709,2.843997890522587e-07,-0.0024221872445195913,0.3736063838005066,0.0,0.0,0.11134368181228638,-0.2666684091091156,0.0,-0.2666685879230499,-0.1862664818763733,0.1862664818763733,0.1434384137392044,0.0,0.0,0.5375689268112183,True,0.46243107318878174
zero_steer,25,False,-3.33439564704895,0.08840607851743698,-4.0003589808327815,-2.070779800415039,3.748759627342224e-05,-1.4722416400909424,-0.04182014614343643,0.37352973222732544,0.2760414779186249,0.37352973222732544,0.0,7.470594644546509,0.0,-0.0015709181316196918,0.005945586133748293,0.0021873340010643005,0.08844146132469177,7.302576705114916e-05,-0.041784532368183136,-4.000351723756789,4.000351905822754,0.0592203252017498,0.0,-4.0003589808327815,0.09262263029813766,13,0.39224541187286377,0.0,3.6003071727463976e-05,0.0,False,True,False,False,False,False,0.27480196952819824,-0.000505492091178894,-0.0017403505044057965,0.0,-0.0032926597632467747,0.37352973222732544,0.0,0.0,0.11055182665586472,-0.26669010519981384,0.0,-0.26669058203697205,-0.1866421103477478,0.1866421103477478,0.14383381605148315,0.0,0.0,0.5373164415359497,True,0.4626835882663727
zero_steer,26,False,-3.325315475463867,0.08777064085006714,-4.000244148277361,-2.061699390411377,-0.0005954056978225708,-1.4631611108779907,-0.04245184361934662,0.3735881447792053,0.2761538326740265,0.3735881447792053,0.0,7.4717628955841064,0.0,-0.0018005147576332092,0.006317059509456158,0.0022582723759114742,0.08780606836080551,-0.0005598381394520402,-0.04241621121764183,-4.000237744975014,4.000237941741943,0.06830331683158875,-0.0,-4.000244148277361,0.09262263029813766,13,0.38316500186920166,0.0,3.601475327741355e-05,0.0,False,True,False,False,False,False,0.27471619844436646,-0.0005264785140752792,-0.001909862388856709,0.0,0.004983284045010805,0.3735881447792053,0.0,0.0,0.10975758731365204,-0.266682505607605,-0.0,-0.2666829526424408,-0.18699276447296143,0.18699276447296143,0.14420291781425476,0.0,0.0,0.5368534326553345,True,0.4631465971469879
zero_steer,27,False,-3.31623911857605,0.0871339738368988,-3.999714808616685,-2.0526223182678223,-0.0012204088270664215,-1.4540836811065674,-0.04307131469249725,0.37348097562789917,0.27611005306243896,0.37348097562789917,0.0,7.469619512557983,0.0,-0.001901994226500392,0.006856618449091911,0.002477311994880438,0.08716891705989838,-0.0011851314920932055,-0.043035879731178284,-3.9996994406910527,3.999699592590332,0.07738741487264633,-0.0,-3.999715235503508,0.09262263029813766,13,0.37408745288848877,0.0,3.602111246436834e-05,0.0,False,True,False,False,False,False,0.2747757136821747,-0.002102270722389221,-0.002311700489372015,0.0,-0.00033606751821935177,0.37348097562789917,0.0,0.0,0.10896115005016327,-0.2666466236114502,-0.0,-0.26664766669273376,-0.18731951713562012,0.18731951713562012,0.14454686641693115,0.0,0.0,0.5365704298019409,True,0.4634295701980591
zero_steer,28,False,-3.30716872215271,0.0864996388554573,-3.999650348706393,-2.0435516834259033,-0.0018533170223236084,-1.4450130462646484,-0.04370354861021042,0.3735765814781189,0.2762538194656372,0.3735765814781189,0.0,7.471531629562378,0.0,-0.0019733156077563763,0.007253656163811684,0.0026401702780276537,0.08653508871793747,-0.0018177507445216179,-0.04366792365908623,-3.999644372290869,3.9996445178985596,0.08646829426288605,-0.0,-3.99964992181957,0.09262263029813766,13,0.3650168180465698,0.0,3.5970249882666394e-05,0.0,False,True,False,False,False,False,0.274914413690567,0.0009573549032211304,-0.0010947450064122677,2.0549759227606046e-08,5.6262564612552524e-05,0.3735765814781189,0.0,0.0,0.10816886276006699,-0.2666429579257965,-0.0,-0.26664331555366516,-0.18767264485359192,0.18767264485359192,0.14491857588291168,0.0,0.0,0.5360735654830933,True,0.4639264643192291
zero_steer,29,False,-3.2980923652648926,0.08586123585700989,-3.999120582158894,-2.0344743728637695,-0.002480030059814453,-1.435935378074646,-0.04432472586631775,0.373553603887558,0.276262104511261,0.373553603887558,0.0,7.47107207775116,0.0,-0.002071043010801077,0.007437348365783691,0.0026831526774913073,0.08589635044336319,-0.0024446449242532253,-0.04428921639919281,-3.9991086293278464,3.9991087913513184,0.07951289415359497,-0.0024800158571451902,-3.9991201552720708,0.24385200440883636,15,0.3559391498565674,0.0,3.6018635000800714e-05,0.0,False,True,False,False,False,False,0.2749447822570801,0.000254657119512558,-0.0012466136831790209,0.0,0.00961247831583023,0.373553603887558,0.0,0.0,0.10737043619155884,-0.26660722494125366,-0.007085759658366442,-0.26660799980163574,-0.1894175112247467,0.1894175112247467,0.14675527811050415,0.0,0.0,0.5343203544616699,True,0.4656796157360077
zero_steer,30,False,-3.2890126705169678,0.08522569388151169,-3.9991385114054654,-2.025394916534424,-0.003115978091955185,-1.4268558025360107,-0.0449608638882637,0.3733491897583008,0.2760092318058014,0.3733491897583008,0.0,7.466983795166016,0.0,-0.0020589246414601803,0.007492772303521633,0.0027169238310307264,0.08526107668876648,-0.003080439753830433,-0.044925250113010406,-3.999131254329472,3.999131202697754,0.07046368718147278,-0.0031159601639956236,-3.9991385114054654,0.24385200440883636,15,0.3468596935272217,0.0,3.600839772843756e-05,0.0,False,True,False,False,False,False,0.2748410105705261,-0.0021885260939598083,-0.0017914249328896403,0.0,0.006950225215405226,0.3733491897583008,0.0,0.0,0.1065763458609581,-0.26660874485969543,-0.008902743458747864,-0.26660922169685364,-0.1901395320892334,0.1901395320892334,0.14751531183719635,0.020935336127877235,0.0030882826540619135,0.5338512659072876,True,0.4661487638950348
zero_steer,31,False,-3.2799408435821533,0.08459067344665527,-3.9990241057368676,-2.0163228511810303,-0.003748469054698944,-1.4177837371826172,-0.045592159032821655,0.37331506609916687,0.27596908807754517,0.37331506609916687,0.0,7.466301321983337,0.0,-0.0020989731419831514,0.007530429866164923,0.002715728245675564,0.0846262127161026,-0.0037128485273569822,-0.04555650055408478,-3.9990206906422823,3.99902081489563,0.06143714860081673,-0.003748447634279728,-3.9990241057368676,0.24385200440883636,15,0.3377875089645386,0.0,3.594865120248869e-05,0.0,False,True,False,False,False,False,0.27462702989578247,-0.00040793977677822113,-0.0014415874611586332,0.0,-0.003671193728223443,0.37331506609916687,0.0,0.0,0.10578276216983795,-0.2666013836860657,-0.010709851048886776,-0.2666015923023224,-0.19085146486759186,0.19085146486759186,0.14826470613479614,0.08141656219959259,0.012071202509105206,0.5331794619560242,True,0.46682053804397583
zero_steer,32,False,-3.270871162414551,0.08395396918058395,-3.9983965821068725,-2.0072522163391113,-0.004371330142021179,-1.40871262550354,-0.0462084636092186,0.373491108417511,0.27615994215011597,0.373491108417511,0.0,7.46982216835022,0.0,-0.0022255515214055777,0.007799490354955196,0.0027869693003594875,0.08398933708667755,-0.0043358029797673225,-0.0461728572845459,-3.9983893250308795,3.998389482498169,0.052434585988521576,-0.004371304996311665,-3.9983965821068725,0.24385200440883636,15,0.3287163972854614,0.0,3.599538467824459e-05,0.0,False,True,False,False,False,False,0.2744552493095398,-0.0015061553567647934,-0.0030751852318644524,0.0,-0.00011867238208651543,0.373491108417511,0.0,0.0,0.10498666763305664,-0.26655927300453186,-0.012489442713558674,-0.26655977964401245,-0.19152839481830597,0.19152839481830597,0.14897726476192474,0.14189064502716064,0.021138479933142662,0.5323116779327393,True,0.46768832206726074
zero_steer,33,False,-3.261810541152954,0.08332240581512451,-3.998293275495676,-1.998191475868225,-0.005000617355108261,-1.3996517658233643,-0.046836674213409424,0.37351715564727783,0.2760778069496155,0.37351715564727783,0.0,7.470343112945557,0.0,-0.0023582058493047953,0.00803736224770546,0.002839578315615654,0.08335776627063751,-0.00496507715433836,-0.04680104926228523,-3.998285164646037,3.9982852935791016,0.04347983002662659,-0.005000588949769735,-3.998293275495676,0.24385200440883636,15,0.3196556568145752,0.0,3.603320146794431e-05,0.0,False,True,False,False,False,False,0.2744005620479584,0.001577502116560936,-0.001691591925919056,8.36281888183521e-09,-5.784168024547398e-06,0.37351715564727783,0.0,0.0,0.10419720411300659,-0.2665523290634155,-0.014287397265434265,-0.2665528953075409,-0.19223710894584656,0.19223710894584656,0.14972327649593353,0.20229557156562805,0.03028835542500019,0.5316851139068604,True,0.46831491589546204
zero_steer,34,False,-3.2527434825897217,0.08268392086029053,-3.9976964877169463,-1.9891233444213867,-0.005625937134027481,-1.3905832767486572,-0.04745575785636902,0.37350010871887207,0.2760688066482544,0.37350010871887207,0.0,7.470002174377441,0.0,-0.0024608615785837173,0.008073586039245129,0.0028063622303307056,0.08271893113851547,-0.0055906143970787525,-0.04742028936743736,-3.9976828273386062,3.997682809829712,0.03458384796977043,-0.005625905003398657,-3.9976964877169463,0.24385200440883636,15,0.3105870485305786,0.0,3.602226570365019e-05,0.0,False,True,False,False,False,False,0.2743629217147827,-0.0018462631851434708,-0.0010956325568258762,0.0,0.00844435766339302,0.37350010871887207,0.0,0.0,0.10339866578578949,-0.2665121853351593,-0.016074014827609062,-0.2665131092071533,-0.19291828572750092,0.19291828572750092,0.1504403054714203,0.2627529501914978,0.039528634399175644,0.5310128927230835,True,0.4689871072769165
zero_steer,35,False,-3.243687629699707,0.08205178380012512,-3.9979521929239987,-1.9800680875778198,-0.006263718008995056,-1.3815281391143799,-0.04809620976448059,0.3733098804950714,0.2758437693119049,0.3733098804950714,0.0,7.466197609901428,0.0,-0.002571392571553588,0.0081565473228693,0.0027925772592425346,0.08208713680505753,-0.00622820807620883,-0.048060622066259384,-3.9979449358480053,3.9979450702667236,0.025838635861873627,-0.0062636821530759335,-3.9979521929239987,0.24385200440883636,15,0.3015320301055908,0.0,3.5980101529276e-05,0.0,False,True,False,False,False,False,0.27426713705062866,-0.0034261178225278854,0.003481816267594695,0.0,-0.0004021782078780234,0.3733098804950714,0.0,0.0,0.10260891914367676,-0.2665296494960785,-0.01789623498916626,-0.2665301561355591,-0.19365349411964417,0.19365349411964417,0.15121421217918396,0.32311975955963135,0.048860300332307816,0.5305027365684509,True,0.4694972634315491
zero_steer,36,False,-3.2346320152282715,0.08141434192657471,-3.9971978839075355,-1.9710111618041992,-0.006884526461362839,-1.372470736503601,-0.048709139227867126,0.37339556217193604,0.2759287357330322,0.37339556217193604,0.0,7.467911243438721,0.0,-0.0026769666001200676,0.008183926343917847,0.0027534798718988895,0.08144966512918472,-0.006849030498415232,-0.04867355898022652,-3.997189346171073,3.9971892833709717,0.017428390681743622,-0.006884486880153418,-3.9971974570207123,0.24385200440883636,15,0.29247450828552246,0.0,3.59732293873094e-05,0.0,False,True,False,False,False,False,0.2739083170890808,-0.0008997134864330292,-0.0015739869559183717,0.0,0.008191687986254692,0.37339556217193604,0.0,0.0,0.10181207954883575,-0.2664792835712433,-0.01966996304690838,-0.26647982001304626,-0.19432219862937927,0.19432219862937927,0.15191811323165894,0.3835032284259796,0.05826108530163765,0.5297490358352661,True,0.4702509343624115
zero_steer,37,False,-3.225590944290161,0.08077939599752426,-3.9965767635798874,-1.9619693756103516,-0.007505781948566437,-1.3634283542633057,-0.0493239089846611,0.37340444326400757,0.275892972946167,0.37340444326400757,0.0,7.468088865280151,0.0,-0.0029854360036551952,0.008321933448314667,0.0026682487223297358,0.08081455528736115,-0.007470373529940844,-0.04928838089108467,-3.996565237635663,3.996565341949463,0.010242396965622902,-0.0075057391077280045,-3.9965767635798874,0.24385200440883636,15,0.28343212604522705,0.0,3.600474519771524e-05,0.0,False,True,False,False,False,False,0.2735973000526428,-0.0024582762271165848,-0.00019567595154512674,5.642443170472689e-07,0.0014839223586022854,0.37340444326400757,0.0,0.0,0.10101819038391113,-0.26643767952919006,-0.02144496887922287,-0.26643845438957214,-0.194997638463974,0.194997638463974,0.15262910723686218,0.44378578662872314,0.06773462891578674,0.5291093587875366,True,0.470890611410141
zero_steer,38,False,-3.216555595397949,0.08014271408319473,-3.995643162097711,-1.9529324769973755,-0.00812186673283577,-1.3543908596038818,-0.04993023723363876,0.37327760457992554,0.2758563458919525,0.37327760457992554,0.0,7.465552091598511,0.0,-0.00312147312797606,0.008492971770465374,0.002685749437659979,0.08017811179161072,-0.008086311630904675,-0.049894608557224274,-3.995635478134895,3.995635509490967,0.008380933664739132,-0.008121820166707039,-3.995643162097711,0.24385200440883636,15,0.2743947505950928,0.0,3.601882417569868e-05,0.0,False,True,False,False,False,False,0.2735586166381836,-0.0017851218581199646,-0.0026309515815228224,0.0,0.005856446456164122,0.37327760457992554,0.0,0.0,0.1002226397395134,-0.26637569069862366,-0.02320520021021366,-0.26637619733810425,-0.19565269351005554,0.19565269351005554,0.1533186286687851,0.5040349364280701,0.07727794349193573,0.5284909605979919,True,0.47150903940200806
zero_steer,39,False,-3.207528591156006,0.07950738072395325,-3.9944935558830332,-1.9439036846160889,-0.008731849491596222,-1.3453612327575684,-0.05052821338176727,0.37328454852104187,0.27586260437965393,0.37328454852104187,0.0,7.465690970420837,0.0,-0.0032352269627153873,0.008563700132071972,0.0026642365846782923,0.07954239845275879,-0.008696510456502438,-0.050492722541093826,-3.994479041731047,3.994479179382324,0.014120092615485191,-0.008731799200177193,-3.9944935558830332,0.24385200440883636,15,0.26536500453948975,0.0,3.6041488783666864e-05,0.0,False,True,False,False,False,False,0.27318984270095825,0.0009617842733860016,-0.0014863585820421576,0.0,0.0002853373298421502,0.37328454852104187,0.0,0.0,0.09942799806594849,-0.2662985920906067,-0.0249479990452528,-0.2662995755672455,-0.19629064202308655,0.19629064202308655,0.15399016439914703,0.5642332434654236,0.08688636869192123,0.5278467535972595,True,0.4721532464027405
zero_steer,40,False,-3.1985037326812744,0.07887159287929535,-3.9937477846030327,-1.934877634048462,-0.009351186454296112,-1.3363347053527832,-0.05113975703716278,0.37337520718574524,0.27597904205322266,0.37337520718574524,0.0,7.467504143714905,0.0,-0.0033424138091504574,0.008565785363316536,0.0026116857770830393,0.07890652120113373,-0.009315905161201954,-0.051104310899972916,-3.993731989790577,3.99373197555542,0.022189203649759293,-0.009351133368909359,-3.9937477846030327,0.24385200440883636,15,0.2563384771347046,0.0,3.601353455451317e-05,0.0,False,True,False,False,False,False,0.27297186851501465,-0.002618856728076935,-0.0014935398939996958,0.0,0.006006667390465736,0.37337520718574524,0.0,0.0,0.09863315522670746,-0.26624879240989685,-0.026717524975538254,-0.2662498354911804,-0.19695812463760376,0.19695812463760376,0.15469276905059814,0.624410092830658,0.09659172594547272,0.5270628333091736,True,0.4729371666908264
zero_steer,41,False,-3.189487934112549,0.07823941111564636,-3.993154411918888,-1.92586088180542,-0.0099702849984169,-1.327317476272583,-0.05175265669822693,0.373130738735199,0.2757541239261627,0.373130738735199,0.0,7.4626147747039795,0.0,-0.0034260055981576443,0.008601170964539051,0.0025875826831907034,0.07827498763799667,-0.00993464607745409,-0.051716987043619156,-3.993151850597949,3.993151903152466,0.030797796323895454,-0.009970228187739849,-3.993154411918888,0.24385200440883636,15,0.2473212480545044,0.0,3.593161818571389e-05,0.0,False,True,False,False,False,False,0.27279430627822876,-0.002013677731156349,-0.002330520423129201,0.0,-0.00573235098272562,0.373130738735199,0.0,0.0,0.09784373641014099,-0.2662101089954376,-0.02848636731505394,-0.26621028780937195,-0.19763264060020447,0.19763264060020447,0.1554027944803238,0.6845249533653259,0.10637708753347397,0.5266132354736328,True,0.4733867645263672
zero_steer,42,False,-3.180476188659668,0.0776045173406601,-3.99214140948761,-1.9168477058410645,-0.010582827031612396,-1.3183034658432007,-0.05235461890697479,0.37325307726860046,0.27600231766700745,0.37325307726860046,0.0,7.465061545372009,0.0,-0.003528035944327712,0.008715210482478142,0.002593587152659893,0.07763994485139847,-0.01054725144058466,-0.05231897160410881,-3.9921345792984404,3.9921345710754395,0.039593007415533066,-0.010582766495645046,-3.99214140948761,0.24385200440883636,15,0.23830735683441162,0.0,3.60083686246071e-05,0.0,False,True,False,False,False,False,0.2728690505027771,-0.001120174303650856,-0.00179139687679708,0.0,4.983262624591589e-05,0.37325307726860046,0.0,0.0,0.09704992920160294,-0.2661423087120056,-0.03023647703230381,-0.26614275574684143,-0.19827985763549805,0.19827985763549805,0.1560840755701065,0.7446175813674927,0.11622294783592224,0.5257178544998169,True,0.4742821753025055
zero_steer,43,False,-3.171462297439575,0.07697159051895142,-3.9911301146036253,-1.907832145690918,-0.01119346171617508,-1.309287190437317,-0.05295468866825104,0.37308403849601746,0.27581918239593506,0.37308403849601746,0.0,7.461680769920349,0.0,-0.0036634651478379965,0.00863074604421854,0.00248364033177495,0.0770069807767868,-0.01115790382027626,-0.05291904881596565,-3.991122430640809,3.9911224842071533,0.04847798869013786,-0.011193397454917431,-3.9911301146036253,0.24385200440883636,15,0.22929108142852783,0.0,3.602908327593468e-05,0.0,False,True,False,False,False,False,0.27280259132385254,-0.0023686960339546204,-0.0006763102719560266,1.896488726060852e-07,0.002061575185507536,0.37308403849601746,0.0,0.0,0.0962587296962738,-0.2660748362541199,-0.03198113664984703,-0.26607534289360046,-0.19892507791519165,0.19892507791519165,0.1567632555961609,0.8047260642051697,0.12615147233009338,0.5252557396888733,True,0.4747442603111267
zero_steer,44,False,-3.1624560356140137,0.07633644342422485,-3.9899864848044713,-1.8988242149353027,-0.011803381145000458,-1.3002784252166748,-0.05355265736579895,0.37306487560272217,0.27575498819351196,0.37306487560272217,0.0,7.461297512054443,0.0,-0.003731493605300784,0.008735339157283306,0.002501922659575939,0.07637141644954681,-0.011768076568841934,-0.05351719260215759,-3.989971543765662,3.98997163772583,0.057402584701776505,-0.01180331315845251,-3.9899864848044713,0.24385200440883636,15,0.2202821969985962,0.0,3.6005712900077924e-05,0.0,False,True,False,False,False,False,0.2726020812988281,-0.0023047570139169693,-0.0021553137339651585,0.0,-0.003972364589571953,0.37306487560272217,0.0,0.0,0.09546427428722382,-0.26599809527397156,-0.033723752945661545,-0.26599910855293274,-0.19956323504447937,0.19956323504447937,0.15743499994277954,0.8647853136062622,0.13614746928215027,0.524681806564331,True,0.47531822323799133
zero_steer,45,False,-3.1534507274627686,0.07570140063762665,-3.988868895101528,-1.8898169994354248,-0.012413781136274338,-1.2912704944610596,-0.05415138602256775,0.3731948137283325,0.2759125232696533,0.3731948137283325,0.0,7.46389627456665,0.0,-0.003828661981970072,0.00877742562443018,0.002474381821230054,0.07573679089546204,-0.012378226965665817,-0.05411575734615326,-3.988862064912358,3.9888620376586914,0.06635470688343048,-0.012413710355758667,-3.988868895101528,0.24385200440883636,15,0.21127426624298096,0.0,3.599353658501059e-05,0.0,False,True,False,False,False,False,0.2725057601928711,-0.0013744831085205078,-0.002489101840183139,0.0,0.001751526491716504,0.3731948137283325,0.0,0.0,0.09467098861932755,-0.2659241259098053,-0.03546774387359619,-0.2659246027469635,-0.2002032995223999,0.2002032995223999,0.15810874104499817,0.9248381853103638,0.1462250053882599,0.5238841772079468,True,0.4761158227920532
zero_steer,46,False,-3.1444520950317383,0.07506859302520752,-3.9876795884122993,-1.8808166980743408,-0.0130203478038311,-1.2822692394256592,-0.05474552512168884,0.3730909526348114,0.2757977247238159,0.3730909526348114,0.0,7.461819052696228,0.0,-0.003954797517508268,0.00867772102355957,0.002361461753025651,0.07510381191968918,-0.012984883040189743,-0.05470994487404823,-3.987668062468075,3.987668037414551,0.07531743496656418,-0.013020273298025131,-3.9876795884122993,0.24385200440883636,15,0.20227313041687012,0.0,3.604060839279555e-05,0.0,False,True,False,False,False,False,0.27241602540016174,-0.002296140417456627,-0.00042041754932142794,0.0,0.007806130684912205,0.3730909526348114,0.0,0.0,0.09387976676225662,-0.26584452390670776,-0.03720078244805336,-0.26584529876708984,-0.20083549618721008,0.20083549618721008,0.1587742120027542,0.984845757484436,0.15636810660362244,0.5233668088912964,True,0.476633220911026
zero_steer,47,False,-3.1354589462280273,0.07443609833717346,-3.986316538786059,-1.871821403503418,-0.013622794300317764,-1.27327299118042,-0.055333733558654785,0.3729275166988373,0.27558815479278564,0.3729275166988373,0.0,7.458550333976746,0.0,-0.004036790691316128,0.008785239420831203,0.002374224364757538,0.07447107136249542,-0.013587471097707748,-0.05529824644327164,-3.986300743973603,3.9863007068634033,0.08428692817687988,-0.013622716069221497,-3.9863161118992356,0.24385200440883636,15,0.19327688217163086,0.0,3.6048892070539296e-05,0.0,False,True,False,False,False,False,0.2721961438655853,-0.0010328087955713272,-0.0014115377562120557,0.0,0.0009714754996821284,0.3729275166988373,0.0,0.0,0.09308883547782898,-0.2657533884048462,-0.03892204537987709,-0.2657544016838074,-0.2014549821615219,0.2014549821615219,0.15942630171775818,1.0,0.15942630171775818,0.5229568481445312,True,0.47704315185546875
zero_steer,48,False,-3.1264681816101074,0.07380411028862,-3.9850811283199326,-1.8628287315368652,-0.014227528125047684,-1.2642793655395508,-0.05592556297779083,0.3730385899543762,0.2757566571235657,0.3730385899543762,0.0,7.460771799087524,0.0,-0.00411966722458601,0.008775729686021805,0.0023280312307178974,0.07383924722671509,-0.014192111790180206,-0.05589001253247261,-3.985068321715239,3.9850683212280273,0.08404181152582169,-0.014227447099983692,-3.9850811283199326,0.3950815796852112,16,0.18428325653076172,0.0,3.6049030313733965e-05,0.0,False,True,False,False,False,False,0.2723439335823059,-0.0011675003916025162,-0.0006935326964594424,0.0,0.003011920489370823,0.3730385899543762,0.0,0.0,0.09229905903339386,-0.2656712234020233,-0.04064984992146492,-0.26567208766937256,-0.20208309590816498,0.20208309590816498,0.1600874811410904,1.0,0.1600874811410904,0.5221602320671082,True,0.47783976793289185
zero_steer,49,False,-3.1174755096435547,0.07316963374614716,-3.983809005587018,-1.8538341522216797,-0.014833945780992508,-1.2552838325500488,-0.056518688797950745,0.372933954000473,0.2756919264793396,0.372933954000473,0.0,7.4586790800094604,0.0,-0.004281417932361364,0.008677005767822266,0.0021977939177304506,0.07320445030927658,-0.014798708260059357,-0.056483250111341476,-3.983789368793154,3.9837894439697266,0.07530957460403442,-0.014833861030638218,-3.9838085787001947,0.3950815796852112,16,0.17528760433197021,0.0,3.607204052968882e-05,0.0,False,True,False,False,False,False,0.2719728350639343,-0.002370806410908699,-0.002310016890987754,0.0,-0.0024703280068933964,0.372933954000473,0.0,0.0,0.09150556474924088,-0.2655859589576721,-0.042382460087537766,-0.2655872404575348,-0.20271125435829163,0.20271125435829163,0.160748690366745,1.0,0.160748690366745,0.5215967893600464,True,0.4784031808376312
zero_steer,50,False,-3.1084940433502197,0.0725378543138504,-3.9824707153965186,-1.8448505401611328,-0.015436220914125443,-1.246299386024475,-0.05710698664188385,0.373094379901886,0.27577072381973267,0.373094379901886,0.0,7.46188759803772,0.0,-0.004373805597424507,0.008595110848546028,0.0021106526255607605,0.07257261872291565,-0.015401000156998634,-0.05707155168056488,-3.9824502248290083,3.982450246810913,0.06666237860918045,-0.015436132438480854,-3.9824707153965186,0.3950815796852112,16,0.16630315780639648,0.0,3.609095074352808e-05,0.0,False,True,False,False,False,False,0.2719365060329437,-0.002246251329779625,-0.0013168069999665022,0.0,-0.005581188481301069,0.373094379901886,0.0,0.0,0.09071577340364456,-0.2654966711997986,-0.0441032350063324,-0.2654980421066284,-0.20333172380924225,0.20333172380924225,0.16140182316303253,1.0,0.16140182316303253,0.5208975672721863,True,0.4791024327278137
zero_steer,51,False,-3.099510908126831,0.07190771400928497,-3.981610965334743,-1.8358662128448486,-0.016047388315200806,-1.2373143434524536,-0.05770917236804962,0.373096227645874,0.2758435904979706,0.373096227645874,0.0,7.4619245529174805,0.0,-0.004405644256621599,0.008565759286284447,0.0020800575148314238,0.07194314152002335,-0.016011811792850494,-0.05767352506518364,-3.981604562032396,3.98160457611084,0.058125343173742294,-0.016047297045588493,-3.981610965334743,0.3950815796852112,16,0.157318115234375,0.0,3.599304545787163e-05,0.0,False,True,False,False,False,False,0.27183377742767334,-0.0018072966486215591,-0.0017729363171383739,0.0,-0.005972971674054861,0.373096227645874,0.0,0.0,0.08992892503738403,-0.26544031500816345,-0.04584942013025284,-0.2654407322406769,-0.20398485660552979,0.20398485660552979,0.16208933293819427,1.0,0.16208933293819427,0.5201715230941772,True,0.47982844710350037
zero_steer,52,False,-3.0905356407165527,0.07127507030963898,-3.980284627975291,-1.826888918876648,-0.01665078103542328,-1.2283360958099365,-0.058298707008361816,0.37309056520462036,0.2758595943450928,0.37309056520462036,0.0,7.461811304092407,0.0,-0.004566374234855175,0.008560827933251858,0.0019972268491983414,0.07131051272153854,-0.016615191474556923,-0.05826304852962494,-3.9802777977861212,3.9802777767181396,0.04975762963294983,-0.016650686040520668,-3.980284627975291,0.3950815796852112,16,0.1483398675918579,0.0,3.6008088500238955e-05,0.0,False,True,False,False,False,False,0.2717340588569641,0.00034663639962673187,-0.000805498450063169,0.0,0.0015522363828495145,0.37309056520462036,0.0,0.0,0.08913814276456833,-0.2653518617153168,-0.04757339134812355,-0.2653523087501526,-0.20460712909698486,0.20460712909698486,0.16274435818195343,1.0,0.16274435818195343,0.5195332765579224,True,0.48046672344207764
zero_steer,53,False,-3.0815558433532715,0.07064516842365265,-3.9789275547645744,-1.8179070949554443,-0.017250750213861465,-1.219353199005127,-0.058884501457214355,0.3729865252971649,0.275743305683136,0.3729865252971649,0.0,7.459730505943298,0.0,-0.004522476810961962,0.008521906100213528,0.001999714644625783,0.07068012654781342,-0.017215440049767494,-0.058849021792411804,-3.9789117599521187,3.978911876678467,0.04164779186248779,-0.017250651493668556,-3.9789275547645744,0.3950815796852112,16,0.1393570899963379,0.0,3.603599179768935e-05,0.0,False,True,False,False,False,False,0.27167826890945435,-0.0022019874304533005,-0.0013100879732519388,0.0,0.004497256129980087,0.3729865252971649,0.0,0.0,0.08835016191005707,-0.2652607858181,-0.0492875762283802,-0.26526182889938354,-0.20522402226924896,0.20522402226924896,0.16339372098445892,1.0,0.16339372098445892,0.5190326571464539,True,0.48096734285354614
zero_steer,54,False,-3.0725879669189453,0.07001498341560364,-3.977486811736525,-1.8089369535446167,-0.017849169671535492,-1.210382103919983,-0.0594678670167923,0.3729822039604187,0.2756759524345398,0.3729822039604187,0.0,7.459644079208374,0.0,-0.004840513225644827,0.008593006059527397,0.0018762464169412851,0.07005041092634201,-0.017813609912991524,-0.059432242065668106,-3.977480835321001,3.977480888366699,0.03399914503097534,-0.017849067226052284,-3.977486811736525,0.3950815796852112,16,0.13038599491119385,0.0,3.59700461558532e-05,0.0,False,True,False,False,False,False,0.2717563509941101,-0.005972635000944138,0.005719644948840141,0.0,-0.0002786824479699135,0.3729822039604187,0.0,0.0,0.08756301552057266,-0.26516538858413696,-0.05099733546376228,-0.265165776014328,-0.2058354914188385,0.2058354914188385,0.16403736174106598,1.0,0.16403736174106598,0.5184885263442993,True,0.4815114438533783
zero_steer,55,False,-3.0636167526245117,0.06938433647155762,-3.975854823411715,-1.7999632358551025,-0.018443815410137177,-1.2014071941375732,-0.06004546582698822,0.3728216886520386,0.275399386882782,0.3728216886520386,0.0,7.4564337730407715,0.0,-0.004657283425331116,0.008560956455767155,0.0019518365152180195,0.06941930949687958,-0.01840849407017231,-0.06000998243689537,-3.975839028599259,3.975839138031006,0.02717915177345276,-0.01844370923936367,-3.975854823411715,0.3950815796852112,16,0.12141096591949463,0.0,3.6016332160215825e-05,0.0,False,True,False,False,False,False,0.2714361250400543,-0.003153892233967781,0.0027080222498625517,1.2732029119888466e-07,-0.0002278462634421885,0.3728216886520386,0.0,0.0,0.08677414059638977,-0.26505592465400696,-0.052696313709020615,-0.2650569975376129,-0.20643344521522522,0.20643344521522522,0.1646667867898941,1.0,0.1646667867898941,0.5181671380996704,True,0.4818328320980072
zero_steer,56,False,-3.0546462535858154,0.06875172257423401,-3.9744793940676035,-1.7909905910491943,-0.01904609426856041,-1.1924335956573486,-0.060633376240730286,0.372843861579895,0.27554476261138916,0.372843861579895,0.0,7.4568772315979,0.0,-0.004837538581341505,0.008533531799912453,0.0018479966092854738,0.06878691911697388,-0.019010642543435097,-0.06059780344367027,-3.974467441236556,3.9744675159454346,0.021989712491631508,-0.019045984372496605,-3.9744793940676035,0.3950815796852112,16,0.11243736743927002,0.0,3.602829383453354e-05,0.0,False,True,False,False,False,False,0.271565318107605,-0.00046523846685886383,-0.0009618238545954227,0.0,0.0042241718620061874,0.372843861579895,0.0,0.0,0.08598364889621735,-0.2649644911289215,-0.05441709980368614,-0.264965295791626,-0.20705224573612213,0.20705224573612213,0.16531816124916077,1.0,0.16531816124916077,0.5174030065536499,True,0.4825969934463501
zero_steer,57,False,-3.0456714630126953,0.06812158226966858,-3.9729652265059765,-1.7820134162902832,-0.019642848521471024,-1.1834553480148315,-0.06121431291103363,0.37285253405570984,0.2755838632583618,0.37285253405570984,0.0,7.457050681114197,0.0,-0.0049439952708780766,0.008438000455498695,0.0017470025923103094,0.06815670430660248,-0.0196074191480875,-0.06117874011397362,-3.9729515661276364,3.972951650619507,0.01974577084183693,-0.01964273676276207,-3.9729656533927993,0.3950815796852112,16,0.10345923900604248,0.0,3.607787220971659e-05,0.0,False,True,False,False,False,False,0.2717222571372986,-0.0025212187319993973,-0.000611480325460434,0.0,0.004962103441357613,0.37285253405570984,0.0,0.0,0.0851958841085434,-0.26486343145370483,-0.056122105568647385,-0.26486438512802124,-0.20765823125839233,0.20765823125839233,0.1659560352563858,1.0,0.1659560352563858,0.5167579054832458,True,0.48324209451675415
zero_steer,58,False,-3.0367000102996826,0.0674896165728569,-3.971355009409146,-1.7730395793914795,-0.020239301025867462,-1.1744801998138428,-0.06179394572973251,0.37270477414131165,0.2755002975463867,0.37270477414131165,0.0,7.454095482826233,0.0,-0.005075286608189344,0.008403632789850235,0.0016641730908304453,0.06752459704875946,-0.02020396664738655,-0.06175844371318817,-3.97133921459669,3.971339225769043,0.021402718499302864,-0.02023918554186821,-3.971355009409146,0.3950815796852112,16,0.09448397159576416,0.0,3.6023848224431276e-05,0.0,False,True,False,False,False,False,0.2716617286205292,-0.0010148175060749054,-0.0016323894960805774,0.0,-0.0055511766113340855,0.37270477414131165,0.0,0.0,0.08440575003623962,-0.2647559344768524,-0.057826247066259384,-0.2647570073604584,-0.20825940370559692,0.20825940370559692,0.16658885776996613,1.0,0.16658885776996613,0.5162402987480164,True,0.48375970125198364
zero_steer,59,False,-3.027719020843506,0.06686165183782578,-3.9701904621556587,-1.764056921005249,-0.0208415724337101,-1.1654967069625854,-0.062384046614170074,0.3728351593017578,0.2757216691970825,0.3728351593017578,0.0,7.456703186035156,0.0,-0.005208734888583422,0.008431312628090382,0.00161128886975348,0.06689697504043579,-0.02080605924129486,-0.062348444014787674,-3.970181924419196,3.970181941986084,0.026240274310112,-0.020841453224420547,-3.9701904621556587,0.3950815796852112,16,0.08550059795379639,0.0,3.599266710807569e-05,0.0,False,True,False,False,False,False,0.2717835009098053,-0.0029134172946214676,-0.0013488293625414371,0.0,0.005257477983832359,0.3728351593017578,0.0,0.0,0.08362121880054474,-0.26467880606651306,-0.05954701080918312,-0.2646793723106384,-0.20888809859752655,0.20888809859752655,0.1672506332397461,1.0,0.1672506332397461,0.5153902173042297,True,0.48460978269577026
zero_steer,60,False,-3.018742561340332,0.06623047590255737,-3.9685635964727264,-1.755077838897705,-0.021436873823404312,-1.1565165519714355,-0.0629623532295227,0.37263554334640503,0.2754513621330261,0.37263554334640503,0.0,7.452710866928101,0.0,-0.005317934788763523,0.008399139158427715,0.001540602184832096,0.06626548618078232,-0.02140152081847191,-0.06292683631181717,-3.968548228547094,3.96854829788208,0.03287327662110329,-0.021436750888824463,-3.9685635964727264,0.3950815796852112,16,0.07652032375335693,0.0,3.6035831726621836e-05,0.0,False,True,False,False,False,False,0.2718311846256256,-0.0018837135285139084,-0.0010257454123347998,0.0,0.0034203152172267437,0.37263554334640503,0.0,0.0,0.08283185958862305,-0.26456987857818604,-0.06124786287546158,-0.2645708918571472,-0.20948709547519684,0.20948709547519684,0.16788116097450256,1.0,0.16788116097450256,0.5150615572929382,True,0.48493844270706177
zero_steer,61,False,-3.009765148162842,0.06560399383306503,-3.967592428950115,-1.7460989952087402,-0.022041939198970795,-1.1475368738174438,-0.06355727463960648,0.3726131021976471,0.2754417657852173,0.3726131021976471,0.0,7.452262043952942,0.0,-0.005477833095937967,0.00851527601480484,0.0015187214594334364,0.06563939154148102,-0.02200637198984623,-0.06352163106203079,-3.9675851718741217,3.967585325241089,0.04043665900826454,-0.022041812539100647,-3.967592428950115,0.3950815796852112,16,0.06754076480865479,0.0,3.6022898711962625e-05,0.0,False,True,False,False,False,False,0.27198541164398193,-0.0019788574427366257,0.0020772877614945173,2.5765213962358757e-08,-0.0003871470398735255,0.3726131021976471,0.0,0.0,0.08204923570156097,-0.26450568437576294,-0.06297660619020462,-0.26450616121292114,-0.21012800931930542,0.21012800931930542,0.16855581104755402,1.0,0.16855581104755402,0.5144302248954773,True,0.4855697751045227
zero_steer,62,False,-3.000779151916504,0.06497155129909515,-3.965922447698047,-1.7371103763580322,-0.022637546062469482,-1.1385470628738403,-0.06413543224334717,0.3724924325942993,0.27543914318084717,0.3724924325942993,0.0,7.449848651885986,0.0,-0.005602992605417967,0.008332769386470318,0.0013648883905261755,0.06500662863254547,-0.02260216511785984,-0.06409991532564163,-3.9659083604328838,3.9659082889556885,0.04849717393517494,-0.022637415677309036,-3.965922020811224,0.3950815796852112,16,0.05855095386505127,0.0,3.600031050154939e-05,0.0,False,True,False,False,False,False,0.2717554271221161,-0.002100074663758278,-0.002121745143085718,0.0,-0.005003313068300486,0.3724924325942993,0.0,0.0,0.08125828206539154,-0.2643938958644867,-0.06467833369970322,-0.2643947899341583,-0.210725337266922,0.210725337266922,0.1691845804452896,1.0,0.1691845804452896,0.5138355493545532,True,0.48616448044776917
zero_steer,63,False,-2.9918041229248047,0.06434093415737152,-3.964068905112035,-1.7281324863433838,-0.02322729304432869,-1.1295679807662964,-0.06470581889152527,0.37268245220184326,0.2755700349807739,0.37268245220184326,0.0,7.453649044036865,0.0,-0.005681951064616442,0.008251284249126911,0.0012846665922552347,0.06437627971172333,-0.023191753774881363,-0.06467018276453018,-3.964059940488749,3.964060068130493,0.05683083087205887,-0.023227160796523094,-3.964068905112035,0.3950815796852112,16,0.049571871757507324,0.0,3.601717253332026e-05,0.0,False,True,False,False,False,False,0.27163752913475037,-0.0015026703476905823,-0.0009649335406720638,0.0,0.0021406349260360003,0.37268245220184326,0.0,0.0,0.08047035336494446,-0.2642706632614136,-0.06636331975460052,-0.26427125930786133,-0.21130762994289398,0.21130762994289398,0.16979750990867615,1.0,0.16979750990867615,0.5131223201751709,True,0.4868776798248291
zero_steer,64,False,-2.982834815979004,0.06371068954467773,-3.9622119474314377,-1.7191603183746338,-0.02381657436490059,-1.1205943822860718,-0.06527569890022278,0.37272053956985474,0.2753726840019226,0.37272053956985474,0.0,7.454410791397095,0.0,-0.005700755398720503,0.008385060355067253,0.0013421524781733751,0.06374611705541611,-0.023780999705195427,-0.0652400553226471,-3.9622051172422674,3.962205171585083,0.0653352364897728,-0.023816438391804695,-3.9622119474314377,0.3950815796852112,16,0.040598154067993164,0.0,3.598347393563017e-05,0.0,False,True,False,False,False,False,0.271373987197876,-0.0018734019249677658,0.0007367794751189649,1.0040186992910094e-07,-2.0479194063227624e-05,0.37272053956985474,0.0,0.0,0.07968264818191528,-0.264147013425827,-0.06804697215557098,-0.26414746046066284,-0.21188922226428986,0.21188922226428986,0.17040972411632538,1.0,0.17040972411632538,0.5127381086349487,True,0.48726189136505127
zero_steer,65,False,-2.9738659858703613,0.06308060884475708,-3.9605223293855056,-1.7101889848709106,-0.024409383535385132,-1.1116218566894531,-0.06585085391998291,0.3727039694786072,0.2753710150718689,0.3727039694786072,0.0,7.4540793895721436,0.0,-0.005813317839056253,0.008340352214872837,0.0012635171879082918,0.06311590224504471,-0.024373868480324745,-0.06581523269414902,-3.9605120841017505,3.960512161254883,0.07395533472299576,-0.02440924383699894,-3.9605223293855056,0.3950815796852112,16,0.03162574768066406,0.0,3.603106961236335e-05,0.0,False,True,False,False,False,False,0.2715344727039337,-0.0007437560707330704,-7.192242628661916e-05,0.0,0.010731484740972519,0.3727039694786072,0.0,0.0,0.07889487594366074,-0.26403412222862244,-0.06974069774150848,-0.26403480768203735,-0.2124824970960617,0.2124824970960617,0.17103421688079834,1.0,0.17103421688079834,0.5121464729309082,True,0.4878535270690918
zero_steer,66,False,-2.964900016784668,0.06245316565036774,-3.959207517970278,-1.701220989227295,-0.025007836520671844,-1.1026527881622314,-0.06643557548522949,0.37253183126449585,0.27512967586517334,0.37253183126449585,0.0,7.450636625289917,0.0,-0.005982756149023771,0.00838722474873066,0.001202234299853444,0.062488459050655365,-0.02497233636677265,-0.06639997661113739,-3.959198126460169,3.959198236465454,0.08265300840139389,-0.025007693096995354,-3.959207517970278,0.3950815796852112,16,0.022656679153442383,0.0,3.600233685574494e-05,0.0,False,True,False,False,False,False,0.2713998854160309,-0.005061434581875801,0.00520347012206912,0.0,-0.00047107270802371204,0.37253183126449585,0.0,0.0,0.07811057567596436,-0.263946533203125,-0.07145055383443832,-0.26394715905189514,-0.21309977769851685,0.21309977769851685,0.17168398201465607,1.0,0.17168398201465607,0.5117705464363098,True,0.4882294535636902
zero_steer,67,False,-2.9559311866760254,0.061822451651096344,-3.957340741892749,-1.6922492980957031,-0.025597378611564636,-1.0936799049377441,-0.06700561195611954,0.37249165773391724,0.2750827670097351,0.37249165773391724,0.0,7.449833154678345,0.0,-0.006090784911066294,0.008292589336633682,0.0011009022127836943,0.06185750663280487,-0.025561988353729248,-0.06697005778551102,-3.9573253739671164,3.9573254585266113,0.09092668443918228,-0.025597231462597847,-3.957340741892749,0.5463109612464905,17,0.013683676719665527,0.0,3.604991434258409e-05,0.0,False,True,False,False,False,False,0.2713589668273926,-0.0018550772219896317,-0.0012643636437132955,0.0,-0.006194734945893288,0.37249165773391724,0.0,0.0,0.07732188701629639,-0.26382169127464294,-0.07313495129346848,-0.2638227045536041,-0.21368104219436646,0.21368104219436646,0.17229583859443665,1.0,0.17229583859443665,0.5112361907958984,True,0.48876380920410156
zero_steer,68,False,-2.9469666481018066,0.061192307621240616,-3.9553988337343498,-1.6832818984985352,-0.02618468925356865,-1.0847110748291016,-0.06757263839244843,0.3726520538330078,0.27531081438064575,0.3726520538330078,0.0,7.453041076660156,0.0,-0.006187077146023512,0.008247830905020237,0.0010303768794983625,0.0612272210419178,-0.026149384677410126,-0.06753715127706528,-3.9553809044877783,3.955380916595459,0.08254507929086685,-0.02618454024195671,-3.9553988337343498,0.5463109612464905,17,0.004714846611022949,0.0,3.603439836297184e-05,0.0,False,True,False,False,False,False,0.27125221490859985,-0.0008703209459781647,-0.0017642215825617313,0.0,-0.004397713579237461,0.3726520538330078,0.0,0.0,0.07653402537107468,-0.26369205117225647,-0.07481297105550766,-0.263693243265152,-0.21425634622573853,0.21425634622573853,0.17290142178535461,1.0,0.17290142178535461,0.5104328393936157,True,0.4895671606063843
zero_steer,69,False,-2.9380075931549072,0.06056289002299309,-3.9534915034086238,-1.674319863319397,-0.026772037148475647,-1.0757476091384888,-0.06814005970954895,0.3724556863307953,0.2752503752708435,0.3724556863307953,0.0,7.449113726615906,0.0,-0.006306384224444628,0.008194411173462868,0.00094401347450912,0.06059841066598892,-0.0267364289611578,-0.06810440868139267,-3.953488088314039,3.9534881114959717,0.0743100494146347,-0.02677188441157341,-3.953491930295447,0.5463109612464905,17,0.0,0.004248619079589844,3.592968641896732e-05,0.0,False,True,False,False,False,False,0.2709258198738098,-0.0006521623581647873,-0.0017824999522417784,0.0,-0.0060896119102835655,0.3724556863307953,0.0,0.0,0.075748011469841,-0.26356586813926697,-0.0764911025762558,-0.26356613636016846,-0.21483363211154938,0.21483363211154938,0.17350909113883972,1.0,0.17350909113883972,0.5099160075187683,True,0.4900839924812317
zero_steer,70,False,-2.929047107696533,0.05993626266717911,-3.9521455292553083,-1.6653573513031006,-0.027368981391191483,-1.066784143447876,-0.06872294098138809,0.3724038302898407,0.2752346396446228,0.3724038302898407,0.0,7.448076605796814,0.0,-0.006316608749330044,0.00819406844675541,0.0009387298487126827,0.05997133627533913,-0.027333568781614304,-0.06868736445903778,-3.9521301613296758,3.9521303176879883,0.06627268344163895,-0.027368824928998947,-3.9521455292553083,0.5463109612464905,17,0.0,0.013211965560913086,3.607120379456319e-05,0.0,False,True,False,False,False,False,0.2712780833244324,-0.0018883850425481796,0.00044810178223997355,0.0,0.006805822718888521,0.3724038302898407,0.0,0.0,0.07496417313814163,-0.26347532868385315,-0.07819664478302002,-0.2634763717651367,-0.21544745564460754,0.21544745564460754,0.17415522038936615,1.0,0.17415522038936615,0.5093178749084473,True,0.49068209528923035
zero_steer,71,False,-2.9200878143310547,0.05931255966424942,-3.950714177737367,-1.6563959121704102,-0.027961116284132004,-1.0578216314315796,-0.06930012255907059,0.37219879031181335,0.274957537651062,0.37219879031181335,0.0,7.443975806236267,0.0,-0.006274935323745012,0.008186249062418938,0.0009556568693369627,0.05934755504131317,-0.0279257632791996,-0.06926460564136505,-3.9506979560380886,3.950697898864746,0.058509502559900284,-0.02796095609664917,-3.950714177737367,0.5463109612464905,17,0.0,0.022174596786499023,3.601745993364602e-05,0.0,False,True,False,False,False,False,0.2712661623954773,-0.004471082240343094,0.004614520817995071,0.0,-0.00033387745497748256,0.37219879031181335,0.0,0.0,0.07418444752693176,-0.26337987184524536,-0.07988844811916351,-0.2633809447288513,-0.2160521149635315,0.2160521149635315,0.17479170858860016,1.0,0.17479170858860016,0.5089903473854065,True,0.4910096526145935
zero_steer,72,False,-2.9111251831054688,0.05868246778845787,-3.94884355967843,-1.6474303007125854,-0.02854994684457779,-1.0488547086715698,-0.06986941397190094,0.37219715118408203,0.2749484181404114,0.37219715118408203,0.0,7.443943023681641,0.0,-0.006393413990736008,0.008093359880149364,0.0008499729447066784,0.05871778726577759,-0.028514426201581955,-0.06983379274606705,-3.9488350219419677,3.9488351345062256,0.05114125832915306,-0.028549782931804657,-3.948843986565253,0.5463109612464905,17,0.0,0.03114140033721924,3.599245974328369e-05,0.0,False,True,False,False,False,False,0.27115917205810547,-0.0020138975232839584,-0.0015384224243462086,0.0,-0.0060722604393959045,0.37219715118408203,0.0,0.0,0.07339723408222198,-0.26325565576553345,-0.0815708115696907,-0.2632562518119812,-0.2166326344013214,0.2166326344013214,0.17540277540683746,1.0,0.17540277540683746,0.5084189176559448,True,0.4915810525417328
zero_steer,73,False,-2.902165174484253,0.05805474892258644,-3.9468115784003515,-1.6384673118591309,-0.029132861644029617,-1.039890170097351,-0.07043109834194183,0.3724280893802643,0.2751443386077881,0.3724280893802643,0.0,7.448561787605286,0.0,-0.006475688423961401,0.008077775128185749,0.000801043352112174,0.058089982718229294,-0.029097380116581917,-0.07039549946784973,-3.946800906229773,3.946800947189331,0.044370975345373154,-0.029132695868611336,-3.9468115784003515,0.5463109612464905,17,0.0,0.04010581970214844,3.602712968131527e-05,0.0,False,True,False,False,False,False,0.2711329162120819,-0.0006355401128530502,-0.0014914111234247684,0.0,0.00069426279515028,0.3724280893802643,0.0,0.0,0.07261247932910919,-0.26312005519866943,-0.08323627710342407,-0.26312077045440674,-0.21719874441623688,0.21719874441623688,0.17599868774414062,1.0,0.17599868774414062,0.5076569318771362,True,0.49234306812286377
zero_steer,74,False,-2.893207311630249,0.05743202939629555,-3.945928776450127,-1.6295080184936523,-0.029736101627349854,-1.0309302806854248,-0.07102511823177338,0.37233293056488037,0.2750762104988098,0.37233293056488037,0.0,7.446658611297607,0.0,-0.006495821755379438,0.00811825506389141,0.0008112166542559862,0.05746714770793915,-0.02970067597925663,-0.07098954916000366,-3.945914689184964,3.9459147453308105,0.03853411227464676,-0.029735932126641273,-3.945928776450127,0.5463109612464905,17,0.0,0.04906582832336426,3.6040124541614205e-05,0.0,False,True,False,False,False,False,0.27123555541038513,-0.007128678262233734,0.0073537020944058895,0.0,-0.0004243026196490973,0.37233293056488037,0.0,0.0,0.07183393836021423,-0.263060986995697,-0.08495980501174927,-0.26306191086769104,-0.2178415060043335,0.2178415060043335,0.17667527496814728,1.0,0.17667527496814728,0.5070822834968567,True,0.4929177165031433
zero_steer,75,False,-2.884244441986084,0.05680231750011444,-3.9438541064897357,-1.620542049407959,-0.030320044606924057,-1.0219628810882568,-0.07158738374710083,0.3720797896385193,0.27473798394203186,0.3720797896385193,0.0,7.441595792770386,0.0,-0.00658819917589426,0.00810081884264946,0.0007563098333775997,0.056837696582078934,-0.030284494161605835,-0.07155175507068634,-3.9438464225269194,3.9438464641571045,0.03407139331102371,-0.03031987138092518,-3.9438541064897357,0.5463109612464905,17,0.0,0.05803322792053223,3.5988789022667333e-05,0.0,False,True,False,False,False,False,0.27080270648002625,0.000339265912771225,-0.00269544986076653,0.0,-0.005169751588255167,0.3720797896385193,0.0,0.0,0.07104711979627609,-0.26292309165000916,-0.08662820607423782,-0.26292359828948975,-0.21840696036815643,0.21840696036815643,0.17727048695087433,1.0,0.17727048695087433,0.5068550705909729,True,0.4931449294090271
zero_steer,76,False,-2.875291347503662,0.05617601424455643,-3.941819137003895,-1.6115858554840088,-0.0309014730155468,-1.013005256652832,-0.07214755564928055,0.3724569082260132,0.2750359773635864,0.3724569082260132,0.0,7.449138164520264,0.0,-0.00670381635427475,0.008078244514763355,0.0006872140802443027,0.05621109902858734,-0.03086605854332447,-0.07211198657751083,-3.941804195965086,3.9418041706085205,0.03159547969698906,-0.030901296064257622,-3.9418195638907183,0.5463109612464905,17,0.0,0.06699097156524658,3.6042674764757976e-05,0.0,False,True,False,False,False,False,0.2707822620868683,-0.0024609602987766266,-0.0009000605205073953,0.0,0.002622308675199747,0.3724569082260132,0.0,0.0,0.07026387751102448,-0.26278695464134216,-0.08828941732645035,-0.26278796792030334,-0.2189711630344391,0.2189711630344391,0.17786438763141632,1.0,0.17786438763141632,0.5059928894042969,True,0.4940071403980255
zero_steer,77,False,-2.8663511276245117,0.05555140972137451,-3.9400526793298005,-1.6026428937911987,-0.031487107276916504,-1.004060983657837,-0.07271473109722137,0.3721720576286316,0.27479255199432373,0.3721720576286316,0.0,7.443441152572632,0.0,-0.006647574715316296,0.008127909153699875,0.0007401672191917896,0.05558668449521065,-0.03145159035921097,-0.07267909497022629,-3.9400415802723994,3.9400415420532227,0.03157521039247513,-0.03148692846298218,-3.9400526793298005,0.5463109612464905,17,0.0,0.07593512535095215,3.603830191423185e-05,0.0,False,True,False,False,False,False,0.27053895592689514,-0.0062488168478012085,0.00667173694819212,0.0,-0.00044572213664650917,0.3721720576286316,0.0,0.0,0.06948335468769073,-0.2626694440841675,-0.08996265381574631,-0.2626701891422272,-0.21955284476280212,0.21955284476280212,0.17847669124603271,1.0,0.17847669124603271,0.5056545734405518,True,0.49434539675712585
zero_steer,78,False,-2.857405662536621,0.05492500960826874,-3.9379801438035247,-1.5936942100524902,-0.03206780552864075,-0.9951108694076538,-0.07327377796173096,0.372097373008728,0.274679958820343,0.372097373008728,0.0,7.4419474601745605,0.0,-0.006752130575478077,0.008061903528869152,0.0006548864766955376,0.05496042221784592,-0.032032229006290436,-0.07323812693357468,-3.9379728867275317,3.9379730224609375,0.034002434462308884,-0.03206762298941612,-3.9379801438035247,0.5463109612464905,17,0.0,0.08488529920578003,3.5985420254291967e-05,0.0,False,True,False,False,False,False,0.27058857679367065,-0.0006404649466276169,-0.0014487114967778325,0.0,-0.003133005928248167,0.372097373008728,0.0,0.0,0.06870052963495255,-0.2625315189361572,-0.0916217789053917,-0.26253199577331543,-0.22011466324329376,0.22011466324329376,0.17906807363033295,1.0,0.17906807363033295,0.5052053928375244,True,0.4947946071624756
zero_steer,79,False,-2.8484649658203125,0.05429869145154953,-3.93585040544295,-1.5847504138946533,-0.03264715522527695,-0.9861655235290527,-0.07383088022470474,0.37225234508514404,0.2749534845352173,0.37225234508514404,0.0,7.445046901702881,0.0,-0.00682921102270484,0.00797149259597063,0.0005711407866328955,0.05433420091867447,-0.03261151909828186,-0.07379518449306488,-3.9358448559142496,3.935844898223877,0.03841722756624222,-0.032646968960762024,-3.93585040544295,0.5463109612464905,17,0.0,0.09383070468902588,3.599476258386858e-05,0.0,False,True,False,False,False,False,0.27063000202178955,-0.0020944513380527496,-0.0011116459500044584,0.0,-0.006370604038238525,0.37225234508514404,0.0,0.0,0.06791774928569794,-0.2623896598815918,-0.09327705949544907,-0.26239001750946045,-0.22067224979400635,0.22067224979400635,0.1796550154685974,1.0,0.1796550154685974,0.5043742656707764,True,0.49562573432922363
zero_steer,80,False,-2.839524269104004,0.053671132773160934,-3.9336865161365253,-1.5758063793182373,-0.03322698175907135,-0.9772199392318726,-0.07438810169696808,0.37229758501052856,0.27499979734420776,0.37229758501052856,0.0,7.445951700210571,0.0,-0.006968408357352018,0.007989355362951756,0.0005104735027998686,0.053706489503383636,-0.03319143131375313,-0.0743524581193924,-3.93367755151324,3.9336776733398438,0.04423008859157562,-0.03322679176926613,-3.9336865161365253,0.5463109612464905,17,0.0,0.1027761697769165,3.600973286665976e-05,0.0,False,True,False,False,False,False,0.27066248655319214,-0.0005956478416919708,3.369556361576542e-05,0.0,0.0014731206465512514,0.37229758501052856,0.0,0.0,0.0671331137418747,-0.26224517822265625,-0.09493369609117508,-0.262245774269104,-0.221228688955307,0.221228688955307,0.18024073541164398,1.0,0.18024073541164398,0.5037715435028076,True,0.49622848629951477
zero_steer,81,False,-2.830578565597534,0.05305022746324539,-3.9321194146088305,-1.5668584108352661,-0.033813320100307465,-0.9682707786560059,-0.07495806366205215,0.3722272515296936,0.2747712731361389,0.3722272515296936,0.0,7.444545030593872,0.0,-0.007197450380772352,0.007977636530995369,0.00039009307511150837,0.053085826337337494,-0.03377767279744148,-0.07492239028215408,-3.932117280174715,3.932117223739624,0.05097178742289543,-0.033813126385211945,-3.9321194146088305,0.5463109612464905,17,0.0,0.1117253303527832,3.592087887227535e-05,0.0,False,True,False,False,False,False,0.27076083421707153,-0.000811329111456871,-0.00034043483901768923,0.0,0.009791349992156029,0.3722272515296936,0.0,0.0,0.06635728478431702,-0.2621411383152008,-0.09660893678665161,-0.26214128732681274,-0.22182054817676544,0.22182054817676544,0.18086373805999756,1.0,0.18086373805999756,0.5034081935882568,True,0.49659180641174316
zero_steer,82,False,-2.821641206741333,0.05242365226149559,-3.929884662089767,-1.557917594909668,-0.03439059853553772,-0.9593284130096436,-0.07551199197769165,0.3719695508480072,0.2745048403739929,0.3719695508480072,0.0,7.439391016960144,0.0,-0.007262738887220621,0.008033975027501583,0.000385618070140481,0.05245910584926605,-0.034355033189058304,-0.07547637820243835,-3.9298795394478896,3.929879665374756,0.058304958045482635,-0.0343904010951519,-3.929884235202944,0.5463109612464905,17,0.0,0.12066775560379028,3.591466884245165e-05,0.0,False,True,False,False,False,False,0.2706076502799988,-0.0013709086924791336,0.0006542474147863686,2.487284120888944e-07,-0.0010335076367482543,0.3719695508480072,0.0,0.0,0.06557388603687286,-0.2619919776916504,-0.09825829416513443,-0.26199227571487427,-0.22237081825733185,0.22237081825733185,0.1814429759979248,1.0,0.1814429759979248,0.5031243562698364,True,0.4968756437301636
zero_steer,83,False,-2.8126978874206543,0.051799435168504715,-3.9275705086216024,-1.5489706993103027,-0.03496379032731056,-0.9503798484802246,-0.07606101036071777,0.3720012903213501,0.27467578649520874,0.3720012903213501,0.0,7.440025806427002,0.0,-0.007385019212961197,0.00801844708621502,0.00031671393662691116,0.051834095269441605,-0.03492862731218338,-0.07602560520172119,-3.9275478836199764,3.9275479316711426,0.06604355573654175,-0.034963589161634445,-3.9275705086216024,0.5463109612464905,17,0.0,0.12961649894714355,3.5978468076791614e-05,0.0,False,True,False,False,False,False,0.27063822746276855,-0.0018654149025678635,-0.0012298598885536194,0.0,-0.00629417272284627,0.3720012903213501,0.0,0.0,0.06479261815547943,-0.26183652877807617,-0.09989596903324127,-0.26183801889419556,-0.2229124903678894,0.2229124903678894,0.1820131540298462,1.0,0.1820131540298462,0.5024117231369019,True,0.49758827686309814
zero_steer,84,False,-2.803758144378662,0.051173772662878036,-3.925213666471125,-1.540027379989624,-0.035537462681531906,-0.9414348602294922,-0.07661005854606628,0.3722107410430908,0.27485573291778564,0.3722107410430908,0.0,7.444214820861816,0.0,-0.007487188093364239,0.007984025403857231,0.0002484186552464962,0.05120847746729851,-0.035502269864082336,-0.07657463103532791,-3.925191468356322,3.9251914024353027,0.07405643165111542,-0.03553725779056549,-3.925213666471125,0.5463109612464905,17,0.0,0.13856136798858643,3.5992314224131405e-05,0.0,False,True,False,False,False,False,0.2704201638698578,-0.0005705021321773529,-0.0018663557711988688,0.0,-0.002725285245105624,0.3722107410430908,0.0,0.0,0.06401059776544571,-0.26167944073677063,-0.10153502225875854,-0.2616809010505676,-0.22345300018787384,0.22345300018787384,0.18258211016654968,1.0,0.18258211016654968,0.5016912817955017,True,0.4983087182044983
zero_steer,85,False,-2.794818162918091,0.0505516342818737,-3.92310441867806,-1.5310842990875244,-0.03611307591199875,-0.9324902296066284,-0.07716363668441772,0.37226712703704834,0.2748723030090332,0.37226712703704834,0.0,7.445342540740967,0.0,-0.007567905820906162,0.007884597405791283,0.0001583457924425602,0.0505867563188076,-0.03607766702771187,-0.0771280974149704,-3.9230911851865433,3.923091173171997,0.0822659581899643,-0.03611287102103233,-3.92310441867806,0.5463109612464905,17,0.0,0.14750593900680542,3.596776878111996e-05,0.0,False,True,False,False,False,False,0.2704978585243225,-0.003854738548398018,0.0008924819412641227,0.0,0.005538019817322493,0.37226712703704834,0.0,0.0,0.06323344260454178,-0.26153939962387085,-0.10317963361740112,-0.2615402936935425,-0.22400741279125214,0.22400741279125214,0.18316571414470673,1.0,0.18316571414470673,0.5011202692985535,True,0.49887973070144653
zero_steer,86,False,-2.785884141921997,0.049926452338695526,-3.9206801284095287,-1.5221465826034546,-0.0366847924888134,-0.9235507249832153,-0.07771002501249313,0.37202173471450806,0.2745569944381714,0.37202173471450806,0.0,7.440434694290161,0.0,-0.007707385346293449,0.007865840569138527,7.922761142253876e-05,0.049961745738983154,-0.03664930537343025,-0.07767444849014282,-3.920671590673066,3.9206717014312744,0.09061162173748016,-0.036684583872556686,-3.9206801284095287,0.5463109612464905,17,0.0,0.15644538402557373,3.5935710911871865e-05,0.0,False,True,False,False,False,False,0.2703299820423126,-0.0010392013937234879,-0.0004973913892172277,0.0,0.005841675214469433,0.37202173471450806,0.0,0.0,0.06245218217372894,-0.26137810945510864,-0.1048130989074707,-0.261378675699234,-0.22454267740249634,0.22454267740249634,0.1837291419506073,1.0,0.1837291419506073,0.5009003281593323,True,0.4990996718406677
zero_steer,87,False,-2.7769570350646973,0.049302808940410614,-3.918376647111942,-1.5132160186767578,-0.03725763410329819,-0.9146184921264648,-0.07825880497694016,0.37197476625442505,0.27463120222091675,0.37197476625442505,0.0,7.439495325088501,0.0,-0.007813163101673126,0.007862241938710213,2.4539418518543243e-05,0.0493377186357975,-0.037222348153591156,-0.0782233402132988,-3.9183595716390167,3.9183595180511475,0.09117580205202103,-0.037257421761751175,-3.918376647111942,0.6975403428077698,18,0.0,0.16537773609161377,3.5939890949521214e-05,0.0,False,True,False,False,False,False,0.27000102400779724,-0.0009278152137994766,-0.00034247880103066564,2.3247450542385195e-07,-0.0033510932698845863,0.37197476625442505,0.0,0.0,0.0616721473634243,-0.2612239718437195,-0.10644977539777756,-0.2612251043319702,-0.225084587931633,0.225084587931633,0.18429957330226898,1.0,0.18429957330226898,0.5002841949462891,True,0.49971580505371094
zero_steer,88,False,-2.7680320739746094,0.04868180304765701,-3.916092802608219,-1.504287600517273,-0.03782825171947479,-0.9056885242462158,-0.07880555838346481,0.3721795678138733,0.2748110890388489,0.3721795678138733,0.0,7.443591356277466,0.0,-0.00789274089038372,0.007833730429410934,-2.9505230486392975e-05,0.04871675372123718,-0.03779292851686478,-0.07877006381750107,-3.916076154022117,3.916076183319092,0.0833643451333046,-0.03782803565263748,-3.916092802608219,0.6975403428077698,18,0.0,0.1743077039718628,3.5963956179330125e-05,0.0,False,True,False,False,False,False,0.26988402009010315,-0.004053270444273949,0.0014882257673889399,6.999030119914096e-07,0.0016449678223580122,0.3721795678138733,0.0,0.0,0.06089594215154648,-0.26107174158096313,-0.10808010399341583,-0.2610728442668915,-0.22562503814697266,0.22562503814697266,0.1848684698343277,1.0,0.1848684698343277,0.49956387281417847,True,0.5004361271858215
zero_steer,89,False,-2.7591161727905273,0.048059090971946716,-3.9136066137503343,-1.4953678846359253,-0.038396142423152924,-0.8967670202255249,-0.07934747636318207,0.3720848858356476,0.274649441242218,0.3720848858356476,0.0,7.441697716712952,0.0,-0.008033099584281445,0.007776965852826834,-0.0001280668657273054,0.0480940006673336,-0.038360845297575,-0.07931199669837952,-3.913589111390586,3.9135892391204834,0.07581038773059845,-0.038395922631025314,-3.9136070406371575,0.6975403428077698,18,0.0,0.18322914838790894,3.596592432586476e-05,0.0,False,True,False,False,False,False,0.26991522312164307,-0.003251645714044571,-0.00047198269749060273,0.0,0.00638114707544446,0.3720848858356476,0.0,0.0,0.06011750176548958,-0.2609059512615204,-0.10970263928174973,-0.2609071433544159,-0.2261529564857483,0.2261529564857483,0.18542417883872986,1.0,0.18542417883872986,0.4991976022720337,True,0.5008023977279663
zero_steer,90,False,-2.7502059936523438,0.04743758961558342,-3.911066637152736,-1.4864540100097656,-0.038961607962846756,-0.8878512382507324,-0.07988640666007996,0.37201958894729614,0.27452558279037476,0.37201958894729614,0.0,7.440391778945923,0.0,-0.008176379837095737,0.007813266478478909,-0.00018155667930841446,0.047472577542066574,-0.03892625868320465,-0.07985088229179382,-3.91105084234028,3.911050796508789,0.06859339773654938,-0.03896138444542885,-3.911066637152736,0.6975403428077698,18,0.0,0.19214493036270142,3.598448165575974e-05,0.0,False,True,False,False,False,False,0.26946762204170227,-0.0009995084255933762,-0.0008753182482905686,0.0,-0.0036304255481809378,0.37201958894729614,0.0,0.0,0.05934072285890579,-0.26073673367500305,-0.11131824553012848,-0.2607377767562866,-0.2266756296157837,0.2266756296157837,0.1859743595123291,1.0,0.1859743595123291,0.49879878759384155,True,0.5012012124061584
zero_steer,91,False,-2.7412850856781006,0.04682356119155884,-3.9100079578313838,-1.4775314331054688,-0.03955228254199028,-0.8789279460906982,-0.08046601712703705,0.3721378743648529,0.27463245391845703,0.3721378743648529,0.0,7.442757487297058,0.0,-0.008068741299211979,0.00785986240953207,-0.00010443944483995438,0.04685840755701065,-0.03951699659228325,-0.0804305225610733,-3.90998832103752,3.9099884033203125,0.06183537468314171,-0.039552055299282074,-3.9100079578313838,0.6975403428077698,18,0.0,0.20106828212738037,3.6005425499752164e-05,0.0,False,True,False,False,False,False,0.26998868584632874,-0.0026110149919986725,0.00013630057219415903,0.0,0.005861338227987289,0.3721378743648529,0.0,0.0,0.058573007583618164,-0.2606658935546875,-0.1130058765411377,-0.26066720485687256,-0.22729593515396118,0.22729593515396118,0.1866273134946823,1.0,0.1866273134946823,0.4980716109275818,True,0.5019283890724182
zero_steer,92,False,-2.7323713302612305,0.04620860517024994,-3.9084011558291385,-1.4686152935028076,-0.040131811052560806,-0.8700106143951416,-0.0810287594795227,0.37196019291877747,0.2744223475456238,0.37196019291877747,0.0,7.439203858375549,0.0,-0.008002326823771,0.007855534553527832,-7.339613512158394e-05,0.04624355956912041,-0.040096476674079895,-0.08099324256181717,-3.908384080356213,3.908384084701538,0.0556928887963295,-0.0401315800845623,-3.9084011558291385,0.6975403428077698,18,0.0,0.20998549461364746,3.598864350351505e-05,0.0,False,True,False,False,False,False,0.26991981267929077,-0.0015947017818689346,0.0015925699844956398,0.0,-0.0002739164629019797,0.37196019291877747,0.0,0.0,0.057804450392723083,-0.26055893301963806,-0.11466166377067566,-0.2605600655078888,-0.2278781235218048,0.2278781235218048,0.1872401386499405,1.0,0.1872401386499405,0.497699499130249,True,0.502300500869751
zero_steer,93,False,-2.723451614379883,0.04558611288666725,-3.905973023579199,-1.4596918821334839,-0.04070074483752251,-0.8610855340957642,-0.08157232403755188,0.37215521931648254,0.27458783984184265,0.37215521931648254,0.0,7.443104386329651,0.0,-0.008124134503304958,0.007744784466922283,-0.00018967501819133759,0.04562120512127876,-0.040665335953235626,-0.08153676986694336,-3.9059580825403892,3.9059581756591797,0.050380099564790726,-0.040700510144233704,-3.9059725966923757,0.6975403428077698,18,0.0,0.2189105749130249,3.5985260183224455e-05,0.0,False,True,False,False,False,False,0.26991981267929077,-0.0015251599252223969,-0.0008986798347905278,0.0,-0.006037293002009392,0.37215521931648254,0.0,0.0,0.05702650547027588,-0.26039719581604004,-0.11628717184066772,-0.26039817929267883,-0.22840997576713562,0.22840997576713562,0.18779999017715454,1.0,0.18779999017715454,0.49700218439102173,True,0.5029978156089783
zero_steer,94,False,-2.7145328521728516,0.044966310262680054,-3.9035448913292594,-1.4507694244384766,-0.041266992688179016,-0.8521614074707031,-0.08211320638656616,0.3723023533821106,0.27474409341812134,0.3723023533821106,0.0,7.446047067642212,0.0,-0.008214317262172699,0.007732150610536337,-0.00024108332581818104,0.045001376420259476,-0.04123161360621452,-0.08207767456769943,-3.9035312309509194,3.903531312942505,0.04619881883263588,-0.04126675799489021,-3.903545318216082,0.6975403428077698,18,0.0,0.2278347611427307,3.5949633456766605e-05,0.0,False,True,False,False,False,False,0.2698514461517334,-0.0015778746455907822,-0.0001569976593600586,1.8470588258878706e-07,-0.004304592031985521,0.3723023533821106,0.0,0.0,0.05625171959400177,-0.26023539900779724,-0.11790502816438675,-0.26023635268211365,-0.22893881797790527,0.22893881797790527,0.1883566677570343,1.0,0.1883566677570343,0.4963170886039734,True,0.5036829113960266
zero_steer,95,False,-2.7056081295013428,0.04435087367892265,-3.9019265633827893,-1.4418423175811768,-0.04184672236442566,-0.8432331085205078,-0.08267602324485779,0.37215009331703186,0.27457982301712036,0.37215009331703186,0.0,7.443001866340637,0.0,-0.008172775618731976,0.007699158042669296,-0.00023680878803133965,0.04438567906618118,-0.04181146249175072,-0.08264055103063583,-3.9019056459284562,3.9019057750701904,0.043490078300237656,-0.04184648394584656,-3.9019265633827893,0.6975403428077698,18,0.0,0.2367631196975708,3.5978631785837933e-05,0.0,False,True,False,False,False,False,0.26991382241249084,-0.00380534864962101,0.0009998439345508814,7.806672783772228e-07,0.0013274389784783125,0.37215009331703186,0.0,0.0,0.05548209697008133,-0.2601270377635956,-0.11956138908863068,-0.2601284384727478,-0.2295204997062683,0.2295204997062683,0.1889689564704895,1.0,0.1889689564704895,0.49589967727661133,True,0.5041003227233887
zero_steer,96,False,-2.696690320968628,0.043732475489377975,-3.89997782503522,-1.4329216480255127,-0.04242214560508728,-0.8343110084533691,-0.08323109149932861,0.3720245063304901,0.2744100093841553,0.3720245063304901,0.0,7.440490126609802,0.0,-0.008089534938335419,0.007824934087693691,-0.00013230042532086372,0.04376743361353874,-0.04238680750131607,-0.08319558203220367,-3.899961176449118,3.899961233139038,0.04252263158559799,-0.04242190346121788,-3.89997782503522,0.6975403428077698,18,0.0,0.24568521976470947,3.5965069400845096e-05,0.0,False,True,False,False,False,False,0.2699059545993805,-0.001689765602350235,-0.0006357732345350087,0.0,0.00067616265732795,0.3720245063304901,0.0,0.0,0.054709292948246,-0.2599973976612091,-0.12120544165372849,-0.25999853014945984,-0.23008212447166443,0.23008212447166443,0.1895601451396942,1.0,0.1895601451396942,0.4955078363418579,True,0.5044921636581421
zero_steer,97,False,-2.687770366668701,0.043113864958286285,-3.8975163956130765,-1.4239978790283203,-0.04298646003007889,-0.825385570526123,-0.08376968652009964,0.37207067012786865,0.2744898796081543,0.37207067012786865,0.0,7.441413402557373,0.0,-0.00821400061249733,0.0076839616522192955,-0.0002650194801390171,0.04314902052283287,-0.042951032519340515,-0.08373412489891052,-3.897503589008383,3.897503614425659,0.04340348020195961,-0.04298621416091919,-3.8975163956130765,0.6975403428077698,18,0.0,0.25461065769195557,3.5940025554737076e-05,0.0,False,True,False,False,False,False,0.26995670795440674,-0.003295294940471649,0.00030720781069248915,8.796600354799011e-07,0.001495683565735817,0.37207067012786865,0.0,0.0,0.05393627658486366,-0.25983357429504395,-0.1228177547454834,-0.2598344385623932,-0.23060721158981323,0.23060721158981323,0.1901128590106964,1.0,0.1901128590106964,0.49490290880203247,True,0.5050970911979675
zero_steer,98,False,-2.6788527965545654,0.04249544069170952,-3.895643216233201,-1.4150774478912354,-0.043563567101955414,-0.816463828086853,-0.08432722091674805,0.37194928526878357,0.27436017990112305,0.37194928526878357,0.0,7.438985705375671,0.0,-0.008302981033921242,0.007792999967932701,-0.0002549905329942703,0.042530547827482224,-0.043528150767087936,-0.08429165929555893,-3.895629555854861,3.895629644393921,0.04604855179786682,-0.04356331750750542,-3.895643216233201,0.6975403428077698,18,0.0,0.2635324001312256,3.597184695536271e-05,0.0,False,True,False,False,False,False,0.269955039024353,-0.003746483474969864,0.0017424087272956967,8.667025781505799e-07,0.00032966258004307747,0.37194928526878357,0.0,0.0,0.053163185715675354,-0.2597086429595947,-0.12446662783622742,-0.25970953702926636,-0.23117418587207794,0.23117418587207794,0.1907096803188324,1.0,0.1907096803188324,0.4944656491279602,True,0.5055343508720398
zero_steer,99,False,-2.6699373722076416,0.041880398988723755,-3.8935886099534964,-1.4061590433120728,-0.044133301824331284,-0.8075438737869263,-0.08487549424171448,0.37201523780822754,0.27438122034072876,0.37201523780822754,0.0,7.440304756164551,0.0,-0.008164345286786556,0.007862376049160957,-0.00015098461881279945,0.04191569238901138,-0.04409779608249664,-0.08483988791704178,-3.8935796453302105,3.8935797214508057,0.05016116797924042,-0.04413304850459099,-3.893589036840319,0.6975403428077698,18,0.0,0.2724522352218628,3.595869929995388e-05,0.0,False,True,False,False,False,False,0.2698250114917755,-0.004845147952437401,0.005006256978958845,2.3366102386290777e-09,-0.00034461147151887417,0.37201523780822754,0.0,0.0,0.05239461362361908,-0.25957196950912476,-0.12609443068504333,-0.2595725953578949,-0.23172444105148315,0.23172444105148315,0.19128888845443726,1.0,0.19128888845443726,0.4938943386077881,True,0.5061056613922119
zero_steer,100,False,-2.661018133163452,0.04125912860035896,-3.890920994195783,-1.3972358703613281,-0.04469572380185127,-0.7986187934875488,-0.08541004359722137,0.3719117045402527,0.2743488848209381,0.3719117045402527,0.0,7.438234090805054,0.0,-0.008237505331635475,0.007840129546821117,-0.00019868789240717888,0.04129403084516525,-0.044660426676273346,-0.08537455648183823,-3.890903064949212,3.8909029960632324,0.055418409407138824,-0.04469546675682068,-3.890920994195783,0.6975403428077698,18,0.0,0.2813774347305298,3.5936962376581505e-05,0.0,False,True,False,False,False,False,0.2695308327674866,-0.0002080220729112625,-0.002392267808318138,3.778542350119096e-07,-0.0011779031483456492,0.3719117045402527,0.0,0.0,0.051617540419101715,-0.2593935430049896,-0.12770134210586548,-0.25939473509788513,-0.23223751783370972,0.23223751783370972,0.19182898104190826,1.0,0.19182898104190826,0.4934135675430298,True,0.5065864324569702
zero_steer,101,False,-2.6520957946777344,0.04064912721514702,-3.889929762992485,-1.3883118629455566,-0.045283857733011246,-0.7896941900253296,-0.08598782122135162,0.372129887342453,0.2745971083641052,0.372129887342453,0.0,7.44259774684906,0.0,-0.008233869448304176,0.007827919907867908,-0.00020297477021813393,0.04068434610962868,-0.045248404145240784,-0.0859522596001625,-3.889919090821907,3.8899190425872803,0.06155106797814369,-0.04528359696269035,-3.889929762992485,0.6975403428077698,18,0.0,0.2903019189834595,3.59278783435002e-05,0.0,False,True,False,False,False,False,0.26988089084625244,-0.0031190942972898483,-0.0012483451282605529,0.0,-0.0018788876477628946,0.372129887342453,0.0,0.0,0.05085543170571327,-0.2593279480934143,-0.1293817013502121,-0.2593286633491516,-0.2328583151102066,0.2328583151102066,0.19248244166374207,1.0,0.19248244166374207,0.49254459142684937,True,0.5074554085731506
zero_steer,102,False,-2.6431756019592285,0.040030587464571,-3.887493093006083,-1.3793880939483643,-0.045848648995161057,-0.780768632888794,-0.08652715384960175,0.3720492720603943,0.27452194690704346,0.3720492720603943,0.0,7.440985441207886,0.0,-0.008376497775316238,0.007751208730041981,-0.00031264452263712883,0.04006565362215042,-0.045813269913196564,-0.08649162203073502,-3.887478578854097,3.8874785900115967,0.0682910680770874,-0.045848388224840164,-3.887493093006083,0.6975403428077698,18,0.0,0.29922759532928467,3.592399662011303e-05,0.0,False,True,False,False,False,False,0.27005648612976074,-0.003449864685535431,0.000836604624055326,9.202570936395205e-07,0.0011325457599014044,0.3720492720603943,0.0,0.0,0.05008206516504288,-0.2591652274131775,-0.13099539279937744,-0.2591662108898163,-0.23338493704795837,0.23338493704795837,0.1930367797613144,1.0,0.1930367797613144,0.4920930862426758,True,0.5079069137573242
zero_steer,103,False,-2.634260654449463,0.03941219672560692,-3.8848912178191313,-1.370469331741333,-0.04640965163707733,-0.7718479633331299,-0.08706097304821014,0.37195026874542236,0.27436769008636475,0.37195026874542236,0.0,7.439005374908447,0.0,-0.008514340966939926,0.007779994048178196,-0.0003671734593808651,0.03944738954305649,-0.04637420177459717,-0.08702540397644043,-3.884879691874907,3.8848798274993896,0.075483538210392,-0.04640938714146614,-3.884890790932308,0.6975403428077698,18,0.0,0.3081481456756592,3.594459485611878e-05,0.0,False,True,False,False,False,False,0.2695711553096771,-0.0010728072375059128,-0.0003787523601204157,2.3759520573207737e-08,-0.003741711610928178,0.37195026874542236,0.0,0.0,0.04930923879146576,-0.2589919865131378,-0.13259825110435486,-0.2589927315711975,-0.23389972746372223,0.23389972746372223,0.19357867538928986,1.0,0.19357867538928986,0.4917325973510742,True,0.5082674026489258
zero_steer,104,False,-2.6253433227539062,0.03879731521010399,-3.882463939342838,-1.3615483045578003,-0.04697100445628166,-0.7629252672195435,-0.08759696781635284,0.37196946144104004,0.27441710233688354,0.37196946144104004,0.0,7.439389228820801,0.0,-0.008583184331655502,0.00782043393701315,-0.00038137519732117653,0.03883226960897446,-0.04693566635251045,-0.08756144344806671,-3.88244643698309,3.882446527481079,0.08301758021116257,-0.04697073623538017,-3.882463939342838,0.6975403428077698,18,0.0,0.3170709013938904,3.5961504181614146e-05,0.0,False,True,False,False,False,False,0.26974326372146606,-0.004088396206498146,0.0012722803512588143,6.22366712832445e-07,0.0014735932927578688,0.37196946144104004,0.0,0.0,0.04854033887386322,-0.2588297724723816,-0.13420210778713226,-0.2588309347629547,-0.23442286252975464,0.23442286252975464,0.1941293329000473,1.0,0.1941293329000473,0.4911600351333618,True,0.5088399648666382
zero_steer,105,False,-2.6164307594299316,0.03818054869771004,-3.880648816570907,-1.352632999420166,-0.04754772037267685,-0.7540086507797241,-0.08815471827983856,0.3717905282974243,0.2742471694946289,0.3717905282974243,0.0,7.435810565948486,0.0,-0.008613650687038898,0.007833054289221764,-0.00039029819890856743,0.03821584954857826,-0.047512225806713104,-0.08811913430690765,-3.8806402788344445,3.8806402683258057,0.09080996364355087,-0.04754744842648506,-3.880648816570907,0.6975403428077698,18,0.0,0.32598745822906494,3.591191125451587e-05,0.0,False,True,False,False,False,False,0.2697800397872925,-0.003742184489965439,0.0020814654417335987,9.730126748763723e-07,0.001015012850984931,0.3717905282974243,0.0,0.0,0.04776981100440025,-0.2587093412876129,-0.13584986329078674,-0.2587099075317383,-0.23499228060245514,0.23499228060245514,0.19472873210906982,1.0,0.19472873210906982,0.49076056480407715,True,0.5092394351959229
zero_steer,106,False,-2.607517719268799,0.0375671461224556,-3.878632203218461,-1.3437169790267944,-0.04811665415763855,-0.7450911998748779,-0.08870258182287216,0.3717051148414612,0.27420854568481445,0.3717051148414612,0.0,7.434102296829224,0.0,-0.008455569855868816,0.007848215289413929,-0.0003036772832274437,0.03760228306055069,-0.048081234097480774,-0.08866702765226364,-3.878619396613767,3.878619432449341,0.09879262745380402,-0.048116378486156464,-3.878632203218461,0.6975403428077698,18,0.0,0.3349049687385559,3.593012297642417e-05,0.0,False,True,False,False,False,False,0.26965394616127014,-0.0027485452592372894,-0.0012243164237588644,0.0,-0.006003177724778652,0.3717051148414612,0.0,0.0,0.04700285196304321,-0.25857463479042053,-0.1374753713607788,-0.2585754692554474,-0.23554322123527527,0.23554322123527527,0.19530867040157318,1.0,0.19530867040157318,0.4902482032775879,True,0.5097517967224121
zero_steer,107,False,-2.598609447479248,0.03694959357380867,-3.876080273789815,-1.3348047733306885,-0.04867791756987572,-0.7361772060394287,-0.08923718333244324,0.37189149856567383,0.27445876598358154,0.37189149856567383,0.0,7.437829971313477,0.0,-0.0086445864289999,0.007793104741722345,-0.00042574084363877773,0.03698496147990227,-0.04864238575100899,-0.08920157700777054,-3.8760730167138218,3.876073122024536,0.09347900003194809,-0.04867763817310333,-3.876080273789815,0.8487697243690491,19,0.0,0.3438190221786499,3.591201675590128e-05,0.0,False,True,False,False,False,False,0.2695435881614685,-0.0013397634029388428,-0.0009794500656425953,0.0,-0.005944050848484039,0.37189149856567383,0.0,0.0,0.04623120278120041,-0.25840485095977783,-0.13907897472381592,-0.2584053575992584,-0.23606064915657043,0.23606064915657043,0.1958533227443695,1.0,0.1958533227443695,0.4894806146621704,True,0.5105193853378296
zero_steer,108,False,-2.5896964073181152,0.03633404150605202,-3.8734775448292167,-1.32588791847229,-0.049236051738262177,-0.727258563041687,-0.08976812660694122,0.3719063401222229,0.2744845747947693,0.3719063401222229,0.0,7.438126802444458,0.0,-0.00870842020958662,0.007711040321737528,-0.0004986899439245462,0.03636903315782547,-0.04920068755745888,-0.0897325873374939,-3.8734604693562917,3.873460531234741,0.08630914986133575,-0.04923576861619949,-3.8734775448292167,0.8487697243690491,19,0.0,0.3527377247810364,3.5953034966951236e-05,0.0,False,True,False,False,False,False,0.2697981894016266,-0.0033413954079151154,0.0014671924291178584,8.854490829435235e-07,-0.00011587375774979591,0.3719063401222229,0.0,0.0,0.04546128958463669,-0.25823068618774414,-0.14067362248897552,-0.25823184847831726,-0.23657187819480896,0.23657187819480896,0.19639146327972412,1.0,0.19639146327972412,0.48894357681274414,True,0.5110564231872559
