Su2050/forklift_sim/outputs/exp83_single_point_steer_diag/exp83_actor_proprio12_seed42_iter50_center_normal_steps.csv
mode,step,done,root_x,root_y,root_yaw_deg,fork_center_x,fork_center_y,tip_x,tip_y,raw_drive,raw_steer,applied_drive,applied_steer,drive_target_rad_s,steer_target_rad,left_steer_joint_pos_rad,right_steer_joint_pos_rad,mean_steer_joint_pos_rad,root_y_signed_m,center_y_signed_m,tip_y_signed_m,yaw_err_signed_deg,yaw_err_abs_deg,d_traj_m,d_traj_signed_m,yaw_traj_signed_deg,traj_s_norm,traj_closest_idx,dist_front_m,insert_depth_m,pallet_disp_xy_m,hold_counter,inserted,push_free,hold_entry,clean_insert_ready,dirty_insert,success,policy_vx_r,policy_vy_r,policy_yaw_rate,policy_lift_pos,policy_lift_vel,policy_prev_drive,policy_prev_steer,policy_prev_lift,policy_y_err_obs,policy_yaw_err_obs,policy_d_traj_signed_obs,policy_yaw_traj_err_obs
normal,0,False,-3.5,0.0,0.0,-2.233297824859619,0.0,-1.6332979202270508,0.0,nan,nan,nan,nan,nan,nan,0.0,0.0,0.0,0.0,0.0,0.0,0.0,0.0,0.0,0.0,0.0,0.0,0,0.5532978773117065,0.0,0.0,0.0,False,True,False,False,False,False,0.0,0.0,0.0,0.0,0.0,0.0,0.0,0.0,0.0,0.0,0.0,0.0
normal,1,False,-3.499817371368408,-6.36521726846695e-05,-0.006085987866355628,-2.2331151962280273,-0.00019820191664621234,-1.633115291595459,-0.0002619342412799597,0.1709941327571869,0.09335574507713318,0.1709941327571869,0.09335574507713318,3.419882655143738,0.056013447046279904,0.01257651299238205,0.012378652580082417,0.012477582320570946,-6.365009176079184e-05,-0.0001981954846996814,-0.0002619257429614663,-0.0060857906813289306,0.006085790693759918,0.00026951293693855405,-0.00019818397413473576,-0.006085987866355628,0.0,0,0.5531152486801147,0.0,6.125415552560298e-08,0.0,False,True,False,False,False,False,-0.0008435372728854418,0.00025234484928660095,-0.004307173658162355,0.0,1.4874912267259788e-05,0.1709941327571869,0.09335574507713318,0.0,-7.956261106301099e-05,-0.000405719387345016,-0.0005662399344146252,-0.000405732513172552
normal,2,False,-3.4992995262145996,-0.0001483699306845665,-0.014672375252731358,-2.232597589492798,-0.0004727485647890717,-1.63259756565094,-0.0006263973191380501,0.17221730947494507,0.09416857361793518,0.17221730947494507,0.09416857361793518,3.4443461894989014,0.0565011441707611,0.02357153780758381,0.023211808875203133,0.02339167334139347,-0.00014836784976068884,-0.00047274213284254074,-0.0006263888208195567,-0.014672180152112977,0.014672180637717247,0.0008448791340924799,-0.0004727057530544698,-0.014672376920258011,0.0,0,0.5525974035263062,0.0,6.125415552560298e-08,0.0,False,True,False,False,False,False,-0.00169290357735008,0.0002940092235803604,-0.005022077821195126,0.0,1.3150487575330772e-05,0.17221730947494507,0.09416857361793518,0.0,-0.00018545980856288224,-0.000978145282715559,-0.0013505879323929548,-0.0009781584376469254
normal,3,False,-3.4988036155700684,-0.00019087782129645348,-0.014344409445705048,-2.2321016788482666,-0.0005080057890154421,-1.6321016550064087,-0.0006582200876437128,0.17207947373390198,0.09410115331411362,0.17207947373390198,0.09410115331411362,3.4415894746780396,0.05646069198846817,0.027173198759555817,0.029192106798291206,0.028182651847600937,-0.00019087574037257582,-0.0005079993279650807,-0.0006582115311175585,-0.014344214345086667,0.014344214461743832,0.001299551920965314,-0.0005079598049633205,-0.014344411113231701,0.0,0,0.5521014928817749,0.0,6.125415552560298e-08,0.0,False,True,False,False,False,False,0.028231225907802582,0.01581682078540325,-0.011901958845555782,2.217781548097264e-05,-0.004315371625125408,0.17207947373390198,0.09410115331411362,0.0,-0.00023859467182774097,-0.0009562809718772769,-0.00145131372846663,-0.0009562940686009824
normal,4,False,-3.497335195541382,-0.00017834967002272606,-0.015387835900763541,-2.23063325881958,-0.0005185457994230092,-1.6306332349777222,-0.0006796868401579559,0.17242279648780823,0.09460203349590302,0.17242279648780823,0.09460203349590302,3.4484559297561646,0.05676122009754181,0.027580639347434044,0.031749118119478226,0.02966487780213356,-0.0001783475890988484,-0.0005185393383726478,-0.0006796782836318016,-0.01538764080014516,0.01538764126598835,0.0027145538479089737,-0.000518498825840652,-0.015387837568290194,0.0,0,0.5506330728530884,0.0,6.125415552560298e-08,0.0,False,True,False,False,False,False,0.05833055078983307,0.0006185342208482325,-0.0008443649858236313,1.9358758436283097e-06,0.0001594495988683775,0.17242279648780823,0.09460203349590302,0.0,-0.0002229344827355817,-0.001025842735543847,-0.0014814252499490976,-0.0010258557740598917
normal,5,False,-3.4948298931121826,-0.00016680778935551643,-0.017787156625195387,-2.228127956390381,-0.0005600484437309206,-1.628127932548523,-0.0007463151123374701,0.1721785068511963,0.09500040113925934,0.1721785068511963,0.09500040113925934,3.443570137023926,0.0570002406835556,0.0276617631316185,0.0361948199570179,0.03192829340696335,-0.00016667559975758195,-0.0005599717260338366,-0.000746264704503119,-0.017789667920334557,0.01778966747224331,0.005200114566832781,-0.0005599977448582649,-0.017787158292722042,0.0,0,0.5481278896331787,0.0,3.641417123390056e-08,0.0,False,True,False,False,False,False,0.0883878692984581,0.0012988786911591887,-0.0009688825812190771,3.0708588383276947e-06,-0.0010983989341184497,0.1721785068511963,0.09500040113925934,0.0,-0.00020834449969697744,-0.0011859778314828873,-0.0015999935567378998,-0.001185810542665422
normal,6,False,-3.491354465484619,-0.0001524309627711773,-0.021132338487754997,-2.2246525287628174,-0.0006196273025125265,-1.6246525049209595,-0.0008409246220253408,0.17210456728935242,0.09514197707176208,0.17210456728935242,0.09514197707176208,3.4420913457870483,0.05708518624305725,0.02770226262509823,0.04053432121872902,0.03411829099059105,-0.0001521353842690587,-0.0006194250308908522,-0.0008407665300182998,-0.021136558997713325,0.021136559545993805,0.002482314594089985,-0.0006195620517246425,-0.021132338487754997,0.009580372832715511,1,0.5446527004241943,0.0,2.709583668547566e-07,0.0,False,True,False,False,False,False,0.11645815521478653,0.0009302388643845916,-0.0018288494320586324,2.4741743800404947e-06,-0.0026998005341738462,0.17210456728935242,0.09514197707176208,0.0,-0.00019016923033632338,-0.0014091039774939418,-0.0017701773904263973,-0.001408822601661086
normal,7,False,-3.4870247840881348,-0.0001341942697763443,-0.02527076444659494,-2.220322847366333,-0.0006928833900019526,-1.6203229427337646,-0.0009575182339176536,0.17210960388183594,0.09520383924245834,0.17210960388183594,0.09520383924245834,3.4421920776367188,0.057122303545475005,0.027764135971665382,0.0447002612054348,0.036232199519872665,-0.00013403725461103022,-0.0006927535287104547,-0.0009574012365192175,-0.02527199508126473,0.02527199499309063,0.0020467909052968025,-0.0006928103975951672,-0.02527076611412159,0.009580372832715511,1,0.5403231382369995,0.0,2.522081388178776e-07,0.0,False,True,False,False,False,False,0.13996778428554535,0.0009296568459831178,-0.003020090516656637,1.4700664223710191e-06,-0.0032197607215493917,0.17210960388183594,0.09520383924245834,0.0,-0.00016754656098783016,-0.0016847996739670634,-0.0019794583786278963,-0.0016847177175804973
normal,8,False,-3.4820127487182617,-0.00011436175554990768,-0.03005168175466565,-2.21531081199646,-0.0007787480135448277,-1.6153109073638916,-0.0010934484889730811,0.1718507707118988,0.09529440104961395,0.1718507707118988,0.09529440104961395,3.437015414237976,0.05717664062976837,0.027809560298919678,0.04832896590232849,0.038069263100624084,-0.00011416085180826485,-0.0007785937050357461,-0.0010933162411674857,-0.03005378950835483,0.030053790658712387,0.002675503259524703,-0.0007786533678881824,-0.03005168175466565,0.017815569415688515,2,0.5353111028671265,0.0,2.779334522529098e-07,0.0,False,True,False,False,False,False,0.1589125692844391,0.001220340607687831,-0.0033709637355059385,8.702625109435758e-07,-0.0018207957036793232,0.1718507707118988,0.09529440104961395,0.0,-0.00014270105748437345,-0.002003585919737816,-0.002224724041298032,-0.0020034455228596926
normal,9,False,-3.4764609336853027,-9.193923324346542e-05,-0.03541713218809454,-2.20975923538208,-0.0008749454282224178,-1.6097592115402222,-0.0012458327692002058,0.17149078845977783,0.09527109563350677,0.17149078845977783,0.09527109563350677,3.4298157691955566,0.057162657380104065,0.0278874933719635,0.05119044706225395,0.039538972079753876,-9.183748625218868e-05,-0.0008748527034185827,-0.0012457442935556173,-0.035417539064597825,0.03541753813624382,0.003117223735898733,-0.0008748390828259289,-0.03541713218809454,0.017815569415688515,2,0.529759407043457,0.0,2.505702525468223e-07,0.0,False,True,False,False,False,False,0.17349062860012054,0.0013271198840811849,-0.004015776328742504,9.14394149731379e-07,-0.0020812673028558493,0.17149078845977783,0.09527109563350677,0.0,-0.00011479685781523585,-0.0023611693177372217,-0.002499540336430073,-0.002361142076551914
normal,10,False,-3.470485210418701,-6.911810487508774e-05,-0.04114697054570096,-2.2037835121154785,-0.0009788003517314792,-1.6037836074829102,-0.001409690361469984,0.17159196734428406,0.09552379697561264,0.17159196734428406,0.09552379697561264,3.431839346885681,0.05731427818536758,0.027935881167650223,0.05341693013906479,0.040676407516002655,-6.895559636177495e-05,-0.0009786664741113782,-0.001409569988027215,-0.04114826454638356,0.041148263961076736,0.001226792810484767,-0.000978665193542838,-0.04114697054570096,0.024949943646788597,3,0.523783802986145,0.0,2.8111364258620597e-07,0.0,False,True,False,False,False,False,0.18535830080509186,0.0015269378200173378,-0.004228728357702494,5.908699449719279e-07,-0.001236634561792016,0.17159196734428406,0.09552379697561264,0.0,-8.619449363322929e-05,-0.0027432176284492016,-0.0027961863670498133,-0.002743131248280406
normal,11,False,-3.464169502258301,-4.494190216064453e-05,-0.04729847970306311,-2.197467803955078,-0.0010906222742050886,-1.5974681377410889,-0.0015859308186918497,0.1715717613697052,0.0956510454416275,0.1715717613697052,0.0956510454416275,3.431435227394104,0.0573906272649765,0.028031105175614357,0.05509204789996147,0.04156157746911049,-4.479998824535869e-05,-0.001090499572455883,-0.0015858173137530684,-0.0472993534870292,0.047299355268478394,0.0011062435805797577,-0.0010904554510489106,-0.04729847970306311,0.031228050589561462,4,0.5174683332443237,0.0,2.5452956720073416e-07,0.0,False,True,False,False,False,False,0.19460424780845642,0.0015609022229909897,-0.004575964529067278,7.414935225824593e-07,-0.0017154286615550518,0.1715717613697052,0.0956510454416275,0.0,-5.5999986216193065e-05,-0.003153290133923292,-0.00311558716930449,-0.0031532319262623787
normal,12,False,-3.457581043243408,-2.1317042410373688e-05,-0.05368585717041549,-2.1908795833587646,-0.001208210363984108,-1.5908797979354858,-0.0017704073106870055,0.1715250313282013,0.09552610665559769,0.1715250313282013,0.09552610665559769,3.430500626564026,0.057315663993358607,0.028070002794265747,0.05632571876049042,0.04219786077737808,-2.1137555449968204e-05,-0.0012080698506906629,-0.001770285191014409,-0.053687618078560886,0.05368761718273163,0.0012154866708442569,-0.0012080128071829677,-0.05368585717041549,0.03689507395029068,5,0.5108799934387207,0.0,2.780449221972958e-07,0.0,False,True,False,False,False,False,0.20223942399024963,0.001830435125157237,-0.004704128485172987,5.936745424151013e-07,-0.001211270922794938,0.1715250313282013,0.09552610665559769,0.0,-2.6421945221954957e-05,-0.0035791744012385607,-0.0034514651633799076,-0.003579057054594159
normal,13,False,-3.4507691860198975,5.103647708892822e-06,-0.06031161090784396,-2.184067726135254,-0.0013282725121825933,-1.5840680599212646,-0.0019598540384322405,0.17138738930225372,0.09569600224494934,0.17138738930225372,0.09569600224494934,3.4277477860450745,0.057417601346969604,0.028175508603453636,0.05723268911242485,0.04270409792661667,5.2496125135803595e-06,-0.0013281467836350203,-0.001959737855941057,-0.06031252471244972,0.06031252443790436,0.0014442128594964743,-0.001328050158917904,-0.06031161090784396,0.04219473898410797,6,0.5040682554244995,0.0,2.552171451952745e-07,0.0,False,True,False,False,False,False,0.2084016650915146,0.0020811441354453564,-0.004639687016606331,1.4387038618224324e-06,-0.0028787751216441393,0.17138738930225372,0.09569600224494934,0.0,6.562015641975449e-06,-0.004020834807306528,-0.003794429125264287,-0.004020773805677891
normal,14,False,-3.4437789916992188,3.00481915473938e-05,-0.06705425492858287,-2.1770777702331543,-0.0014523949939757586,-1.577078104019165,-0.002154585439711809,0.17117640376091003,0.09579931199550629,0.17117640376091003,0.09579931199550629,3.4235280752182007,0.05747958719730377,0.028224272653460503,0.0578811839222908,0.04305272921919823,3.0216097002266906e-05,-0.001452266820706427,-0.002154476009309292,-0.06705604918726131,0.06705605238676071,0.002150164917111397,-0.0014521573903039098,-0.06705425492858287,0.04737243801355362,7,0.4970782995223999,0.0,2.7484847464620543e-07,0.0,False,True,False,False,False,False,0.21335987746715546,0.0019630652386695147,-0.004982403479516506,4.4317789615888614e-07,-0.0009856349788606167,0.17117640376091003,0.09579931199550629,0.0,3.7770121707580984e-05,-0.004470403306186199,-0.004149021115154028,-0.004470283631235361
normal,15,False,-3.436645030975342,5.407584831118584e-05,-0.07411276851800841,-2.1699440479278564,-0.0015844176523387432,-1.5699445009231567,-0.002360524609684944,0.17121565341949463,0.0957072526216507,0.17121565341949463,0.0957072526216507,3.4243130683898926,0.05742435157299042,0.028328442946076393,0.05835263058543205,0.0433405376970768,5.415723717305809e-05,-0.0015843233559280634,-0.0023604242596775293,-0.07411218154862662,0.0741121843457222,0.0030505971517413855,-0.0015841752756386995,-0.07411276851800841,0.052672307938337326,8,0.4899446964263916,0.0,2.65319272330089e-07,0.0,False,True,False,False,False,False,0.2173270732164383,0.002583838999271393,-0.004646399058401585,2.1702205685869558e-06,-0.002858339808881283,0.17121565341949463,0.0957072526216507,0.0,6.769654282834381e-05,-0.004940812010318041,-0.004526215139776468,-0.004940851125866175
normal,16,False,-3.429396152496338,7.90199264883995e-05,-0.08112513830989672,-2.1626954078674316,-0.0017145039746537805,-1.5626959800720215,-0.002564044203609228,0.1712038516998291,0.09570656716823578,0.1712038516998291,0.09570656716823578,3.424077033996582,0.057423940300941466,0.028379715979099274,0.05865006521344185,0.04351489245891571,7.893377915024757e-05,-0.0017145394813269377,-0.002564055612310767,-0.0811228437932224,0.08112284541130066,0.0037367588374763727,-0.0017142673023045063,-0.08112513830989672,0.058338917791843414,9,0.48269617557525635,0.0,3.023760086762195e-07,0.0,False,True,False,False,False,False,0.22038955986499786,0.002142265671864152,-0.005096694454550743,9.96752874016238e-07,-0.0020375270396471024,0.1712038516998291,0.09570656716823578,0.0,9.866722393780947e-05,-0.005408189725130796,-0.00489790691062808,-0.005408342462033033
normal,17,False,-3.422057867050171,0.00010194489732384682,-0.08832278365312822,-2.1553573608398438,-0.0018507051281630993,-1.5553580522537231,-0.0027756188064813614,0.17099572718143463,0.09590334445238113,0.17099572718143463,0.09590334445238113,3.4199145436286926,0.057542006671428676,0.028428060933947563,0.05888460949063301,0.04365633428096771,0.000101925601484254,-0.001850678469054401,-0.002775570610538125,-0.0883207159200787,0.08832071721553802,0.0038866426330059767,-0.0018504802137613297,-0.08832279032323483,0.06461702287197113,10,0.475358247756958,0.0,2.6036056510747585e-07,0.0,False,True,False,False,False,False,0.22308066487312317,0.002288712188601494,-0.005056953988969326,7.397900390060386e-07,-0.0014552022330462933,0.17099572718143463,0.09590334445238113,0.0,0.0001274069945793599,-0.005888047628104687,-0.005287086591124535,-0.005888185929507017
normal,18,False,-3.4146392345428467,0.000124471727758646,-0.09567722986257911,-2.1479387283325195,-0.0019907711539417505,-1.547939658164978,-0.002992700319737196,0.17108269035816193,0.09581464529037476,0.17108269035816193,0.09581464529037476,3.4216538071632385,0.05748878717422485,0.02853929065167904,0.059032365679740906,0.04378582909703255,0.00012457178672775626,-0.001990683376789093,-0.00299261836335063,-0.09567778348142786,0.09567778557538986,0.0032810289412736893,-0.0019905613735318184,-0.09567722986257911,0.07175160199403763,11,0.4679398536682129,0.0,2.7648056288853695e-07,0.0,False,True,False,False,False,False,0.22512438893318176,0.0024059852585196495,-0.005016267765313387,1.688143811406917e-06,-0.0033200194593518972,0.17108269035816193,0.09581464529037476,0.0,0.00015571473340969533,-0.006378518883138895,-0.005687318276613951,-0.006378482095897198
normal,19,False,-3.407153844833374,0.0001481226645410061,-0.10297218539116347,-2.140453815460205,-0.0021283975802361965,-1.5404547452926636,-0.003206719411537051,0.17110271751880646,0.09579947590827942,0.17110271751880646,0.09579947590827942,3.422054350376129,0.05747968554496765,0.02858879417181015,0.05910933390259743,0.04384906589984894,0.0001482245570514351,-0.0021283093374222517,-0.0032066376879811287,-0.10297280571107832,0.10297280550003052,0.0022101537324488163,-0.002128204796463251,-0.10297218539116347,0.07998659461736679,12,0.460455060005188,0.0,3.0505341896969185e-07,0.0,False,True,False,False,False,False,0.22708654403686523,0.00220484915189445,-0.005188025534152985,1.1671304491756018e-06,-0.0023473799228668213,0.17110271751880646,0.09579947590827942,0.0,0.00018528068903833628,-0.006864853668957949,-0.006080585066229105,-0.006864812225103378
normal,20,False,-3.399617910385132,0.00017049582675099373,-0.11049061617165418,-2.132918119430542,-0.0022722426801919937,-1.5329192876815796,-0.003429297124966979,0.17092791199684143,0.09564981609582901,0.17092791199684143,0.09564981609582901,3.4185582399368286,0.0573898896574974,0.02870403602719307,0.059142496436834335,0.0439232662320137,0.00017040992679540068,-0.0022722717840224504,-0.003429299220442772,-0.11048804151050219,0.11048804223537445,0.0036983564496040344,0.0,-0.11049061617165418,0.08956717699766159,13,0.4529193639755249,0.0,1.9090890646111802e-07,0.0,False,True,False,False,False,False,0.22855402529239655,0.0026447148993611336,-0.005046953447163105,1.7354321926177363e-06,-0.0034394958056509495,0.17092791199684143,0.09564981609582901,0.0,0.00021301240485627204,-0.007365869358181953,0.0,-0.00736604118719697
normal,21,False,-3.3920397758483887,0.00019060494378209114,-0.11795656655332684,-2.125340461730957,-0.0024171913973987103,-1.5253417491912842,-0.003652428975328803,0.17105141282081604,0.095686174929142,0.17105141282081604,0.095686174929142,3.421028256416321,0.057411704957485196,0.028758220374584198,0.0591394305229187,0.04394882544875145,0.0001903613010654226,-0.0024173008278012276,-0.0036524746101349592,-0.11795049675631053,0.11795049905776978,0.005249302368611097,-0.0,-0.11795657989354007,0.08956717699766159,13,0.44534194469451904,0.0,2.923307249602658e-07,0.0,False,True,False,False,False,False,0.2295248657464981,0.0023200807627290487,-0.00533796614035964,9.987741123040905e-07,-0.0020049226004630327,0.17105141282081604,0.095686174929142,0.0,0.00023795162269379944,-0.007863366045057774,-0.0,-0.007863772101700306
normal,22,False,-3.3844287395477295,0.00021069636568427086,-0.1254816741105355,-2.117729663848877,-0.0025634653866291046,-1.5177310705184937,-0.0038775051943957806,0.1712082326412201,0.09569104015827179,0.1712082326412201,0.09569104015827179,3.424164652824402,0.05741462409496307,0.028812997043132782,0.059128426015377045,0.04397071152925491,0.00021041007130406797,-0.0025636067148298025,-0.0038775778375566006,-0.12547511072562995,0.12547510862350464,0.012535362504422665,-0.0,-0.12548166077032227,0.08956717699766159,13,0.4377312660217285,0.0,2.865018586817314e-07,0.0,False,True,False,False,False,False,0.23059266805648804,0.0024759832303971052,-0.0053897821344435215,6.035378419255721e-07,-0.0011517060920596123,0.1712082326412201,0.09569104015827179,0.0,0.0002630125964060426,-0.008365007117390633,-0.0,-0.008365443907678127
normal,23,False,-3.3767895698547363,0.00023077614605426788,-0.13314845473216905,-2.110090970993042,-0.002712883288040757,-1.5100924968719482,-0.004107209388166666,0.1711345613002777,0.09548678994178772,0.1711345613002777,0.09548678994178772,3.422691226005554,0.05729207396507263,0.028932008892297745,0.05909251049160957,0.04401225969195366,0.00023083850101102144,-0.0027128146030008793,-0.004107137676328421,-0.13314817458769135,0.1331481784582138,0.020093126222491264,-0.0,-0.13314845473216905,0.08956717699766159,13,0.4300926923751831,0.0,3.083605122355948e-07,0.0,False,True,False,False,False,False,0.23143042623996735,0.0025999341160058975,-0.005222271662205458,1.307115780946333e-06,-0.002651460003107786,0.1711345613002777,0.09548678994178772,0.0,0.000288548122625798,-0.00887654535472393,-0.0,-0.008876563981175423
normal,24,False,-3.3691272735595703,0.0002487204037606716,-0.1407193192207315,-2.102429151535034,-0.0028623160906136036,-1.5024309158325195,-0.0043359240517020226,0.17095032334327698,0.09568770229816437,0.17095032334327698,0.09568770229816437,3.4190064668655396,0.05741262137889862,0.028986113145947456,0.059063274413347244,0.044024694710969925,0.0002487751771695912,-0.00286225532181561,-0.004335860721766949,-0.14071905241646704,0.14071905612945557,0.02771914191544056,-0.0,-0.1407193192207315,0.08956717699766159,13,0.4224311113357544,0.0,2.7732281182579754e-07,0.0,False,True,False,False,False,False,0.23184581100940704,0.0023843450471758842,-0.005402895621955395,1.0352260915169609e-06,-0.0021042954176664352,0.17095032334327698,0.09568770229816437,0.0,0.00031096895691007376,-0.009381270036101341,-0.0,-0.009381287731230259
normal,25,False,-3.3614466190338135,0.00026659155264496803,-0.1483877940494443,-2.0947487354278564,-0.003013980109244585,-1.494750738143921,-0.004567891824990511,0.1708601713180542,0.0955851748585701,0.1708601713180542,0.0955851748585701,3.417203426361084,0.05735110491514206,0.029042702168226242,0.05902637168765068,0.04403453692793846,0.00026645741309039295,-0.0030140236485749483,-0.0045678927563130856,-0.14838369860398495,0.1483837068080902,0.03537999093532562,-0.0,-0.1483877940494443,0.08956717699766159,13,0.41475093364715576,0.0,2.3392757952933607e-07,0.0,False,True,False,False,False,False,0.23242035508155823,0.0025497570168226957,-0.0055194636806845665,0.0,-0.003674669424071908,0.1708601713180542,0.0955851748585701,0.0,0.0003330717736389488,-0.009892246685922146,-0.0,-0.009892519563436508
normal,26,False,-3.3537545204162598,0.00028325943276286125,-0.15620322466701816,-2.087057113647461,-0.0031700958497822285,-1.4870593547821045,-0.004805850330740213,0.17086198925971985,0.09548773616552353,0.17086198925971985,0.09548773616552353,3.417239785194397,0.05729264169931411,0.029162580147385597,0.0589839369058609,0.044073257595300674,0.00028330969507806003,-0.0031700306572020054,-0.004805778153240681,-0.1562025443161438,0.1562025398015976,0.043059851974248886,-0.0,-0.15620321132680495,0.08956717699766159,13,0.4070596694946289,0.0,3.398309047497605e-07,0.0,False,True,False,False,False,False,0.23287725448608398,0.0026747100055217743,-0.005266683176159859,1.3508170013665222e-06,-0.0027381894178688526,0.17086198925971985,0.09548773616552353,0.0,0.00035413712612353265,-0.010413503274321556,-0.0,-0.010413547046482563
normal,27,False,-3.346048593521118,0.00029764045029878616,-0.16392337948175564,-2.0793516635894775,-0.0033263927325606346,-1.4793541431427002,-0.005042992066591978,0.17089150846004486,0.09541599452495575,0.17089150846004486,0.09541599452495575,3.417830169200897,0.05724959671497345,0.029214689508080482,0.05892789736390114,0.044071294367313385,0.0002975071547552943,-0.003326436271890998,-0.00504299346357584,-0.16391932405693596,0.1639193296432495,0.05075756460428238,-0.0,-0.16392337948175564,0.08956717699766159,13,0.39935433864593506,0.0,2.32907368058477e-07,0.0,False,True,False,False,False,False,0.23302501440048218,0.0024366378784179688,-0.005444461014121771,1.1772269772336585e-06,-0.002363817300647497,0.17089150846004486,0.09541599452495575,0.0,0.0003718839434441179,-0.010927954688668251,-0.0,-0.01092822477221489
normal,28,False,-3.3383333683013916,0.0003135278820991516,-0.1717068602886612,-2.071636915206909,-0.0034825829789042473,-1.471639633178711,-0.0052806902676820755,0.17099401354789734,0.09558649361133575,0.17099401354789734,0.09558649361133575,3.4198802709579468,0.05735189616680145,0.029270047321915627,0.05889797583222389,0.044084012508392334,0.0003135780862066895,-0.003482518717646599,-0.005280619487166405,-0.1717062199584265,0.1717062145471573,0.05846701189875603,-0.0,-0.1717068602886612,0.08956717699766159,13,0.39163994789123535,0.0,3.392298992821452e-07,0.0,False,True,False,False,False,False,0.23345157504081726,0.0025388235226273537,-0.005504694301635027,8.153486419359979e-07,-0.001610030885785818,0.17099401354789734,0.09558649361133575,0.0,0.00039197260048240423,-0.011447081342339516,-0.0,-0.011447124183177948
normal,29,False,-3.330610513687134,0.00032730353996157646,-0.1795595901424057,-2.0639147758483887,-0.003642415162175894,-1.46391761302948,-0.005522755905985832,0.17115585505962372,0.09535306692123413,0.17115585505962372,0.09535306692123413,3.4231171011924744,0.05721184015274047,0.029390642419457436,0.058849114924669266,0.044119879603385925,0.00032716678106226027,-0.003642462892457843,-0.00552276149392128,-0.17955556139801243,0.17955556511878967,0.06618563830852509,-0.0,-0.1795595901424057,0.08956717699766159,13,0.38391780853271484,0.0,2.3016173145151697e-07,0.0,False,True,False,False,False,False,0.23379668593406677,0.002767939353361726,-0.0053117843344807625,1.6625159560135216e-06,-0.0032591402996331453,0.17115585505962372,0.09535306692123413,0.0,0.0004089584690518677,-0.011970371007919312,-0.0,-0.0119706392288208
normal,30,False,-3.322880983352661,0.0003388416953384876,-0.18740379559990086,-2.056185722351074,-0.0038042969536036253,-1.4561889171600342,-0.005766781512647867,0.17082101106643677,0.09542232006788254,0.17082101106643677,0.09542232006788254,3.4164202213287354,0.05725339204072952,0.029445502907037735,0.058807969093322754,0.044126734137535095,0.00033878363319672644,-0.0038043037056922913,-0.005766764283180237,-0.1874014744028001,0.18740147352218628,0.0739123597741127,-0.0,-0.18740379559990086,0.08956717699766159,13,0.37618911266326904,0.0,2.503552423149813e-07,0.0,False,True,False,False,False,False,0.23369725048542023,0.0024779264349490404,-0.0055075595155358315,1.0972975132972351e-06,-0.002217159140855074,0.17082101106643677,0.09542232006788254,0.0,0.00042347953421995044,-0.012493431568145752,-0.0,-0.012493586167693138
normal,31,False,-3.315143346786499,0.00035141361877322197,-0.19527177331735887,-2.0484485626220703,-0.003965670242905617,-1.448452115058899,-0.006010547745972872,0.17092567682266235,0.09524060785770416,0.17092567682266235,0.09524060785770416,3.418513536453247,0.057144364714622496,0.02950318530201912,0.058754075318574905,0.04412863031029701,0.00035128340823575854,-0.0039657121524214745,-0.006010547745972872,-0.19526777125339206,0.19526776671409607,0.08164791017770767,-0.0,-0.19527177331735887,0.08956717699766159,13,0.3684523105621338,0.0,2.3184614406090986e-07,0.0,False,True,False,False,False,False,0.23400820791721344,0.002636763034388423,-0.005622610915452242,1.7974187471736514e-07,-0.00032116123475134373,0.17092567682266235,0.09524060785770416,0.0,0.0004391042748466134,-0.013017850928008556,-0.0,-0.013018118217587471
normal,32,False,-3.307403326034546,0.00036326097324490547,-0.2031700466590456,-2.0407092571258545,-0.004128437489271164,-1.4407129287719727,-0.006256024818867445,0.17113979160785675,0.09534133225679398,0.17113979160785675,0.09534133225679398,3.422795832157135,0.05720479935407638,0.02962327003479004,0.05872862786054611,0.044175948947668076,0.0003631593135651201,-0.004128479864448309,-0.0062560392543673515,-0.20316736527618784,0.2031673640012741,0.08580847084522247,-0.004128413740545511,-0.20317003331883238,0.24130578339099884,15,0.3607131242752075,0.0,3.0263763051152637e-07,0.0,False,True,False,False,False,False,0.23430678248405457,0.0027615446597337723,-0.005319009535014629,1.5042508039186941e-06,-0.0030701113864779472,0.17113979160785675,0.09534133225679398,0.0,0.00045394914923235774,-0.013544490560889244,-0.01179546769708395,-0.013544668443500996
normal,33,False,-3.2996582984924316,0.0003719334490597248,-0.21113831609951172,-2.0329647064208984,-0.004295927472412586,-1.4329688549041748,-0.006506958045065403,0.17104634642601013,0.09527000039815903,0.17104634642601013,0.09527000039815903,3.4209269285202026,0.057162000238895415,0.029676657170057297,0.0586891770362854,0.0441829189658165,0.0003719852538779378,-0.00429586973041296,-0.006506897509098053,-0.21113803595503405,0.2111380398273468,0.07808280736207962,-0.004295902792364359,-0.21113831609951172,0.24130578339099884,15,0.35296905040740967,0.0,2.765956992334395e-07,0.0,False,True,False,False,False,False,0.23417125642299652,0.002525007352232933,-0.005569056142121553,1.1652118701022118e-06,-0.0023465780541300774,0.17104634642601013,0.09527000039815903,0.0,0.00046498156734742224,-0.014075868763029575,-0.012274008244276047,-0.014075887389481068
normal,34,False,-3.291907787322998,0.00038126809522509575,-0.2190815592999721,-2.0252151489257812,-0.004462202079594135,-1.4252194166183472,-0.006756413262337446,0.1709923893213272,0.09513655304908752,0.1709923893213272,0.09513655304908752,3.419847786426544,0.05708193182945251,0.029731769114732742,0.05864325165748596,0.0441875085234642,0.00038132458576001227,-0.004462131764739752,-0.0067563364282250404,-0.21908093230995063,0.21908093988895416,0.07035662978887558,-0.004462176468223333,-0.2190815592999721,0.24130578339099884,15,0.34521961212158203,0.0,2.5574266260264267e-07,0.0,False,True,False,False,False,False,0.2343684285879135,0.002583922352641821,-0.005638239439576864,7.000278969826468e-07,-0.0013708847109228373,0.1709923893213272,0.09513655304908752,0.0,0.0004766557249240577,-0.014605395495891571,-0.012749075889587402,-0.014605437405407429
normal,35,False,-3.28415846824646,0.0003906707279384136,-0.22704031716841044,-2.0174663066864014,-0.004628751426935196,-1.4174710512161255,-0.007006305735558271,0.1709262877702713,0.09521353244781494,0.1709262877702713,0.09521353244781494,3.418525755405426,0.05712811946868896,0.029853755608201027,0.058619316667318344,0.04423653706908226,0.00039069438935257494,-0.004628715105354786,-0.007006263826042414,-0.2270397568794551,0.22703975439071655,0.06263740360736847,-0.004628724884241819,-0.22704031716841044,0.24130578339099884,15,0.3374711275100708,0.0,1.5911719231098687e-07,0.0,False,True,False,False,False,False,0.23454488813877106,0.0028145425021648407,-0.00536985881626606,1.5048052546262625e-06,-0.003048297017812729,0.1709262877702713,0.09521353244781494,0.0,0.0004883679794147611,-0.015135983936488628,-0.013224928639829159,-0.015136021189391613
normal,36,False,-3.2764077186584473,0.00039626704528927803,-0.23504545895822407,-2.009716272354126,-0.004800131544470787,-1.4097213745117188,-0.007261515129357576,0.17103323340415955,0.09522485733032227,0.17103323340415955,0.09522485733032227,3.420664668083191,0.057134914398193355,0.029909338802099228,0.05859566479921341,0.04425249993801117,0.00039609771920368075,-0.004800204653292894,-0.0072615426033735275,-0.23504111004871348,0.23504111170768738,0.05492626130580902,-0.004800104070454836,-0.23504545895822407,0.24130578339099884,15,0.3297215700149536,0.0,2.2321775361433538e-07,0.0,False,True,False,False,False,False,0.2343209683895111,0.0025732736103236675,-0.005630491767078638,1.1413682159400196e-06,-0.002299524610862136,0.17103323340415955,0.09522485733032227,0.0,0.0004951221635565162,-0.015669407323002815,-0.013714583590626717,-0.015669697895646095
normal,37,False,-3.2686538696289062,0.00040299538522958755,-0.24302712197276577,-2.0019631385803223,-0.004969862289726734,-1.4019685983657837,-0.0075148288160562515,0.17098653316497803,0.0951431542634964,0.17098653316497803,0.0951431542634964,3.4197306632995605,0.05708589255809784,0.029963022097945213,0.05856330320239067,0.04426316171884537,0.00040302856359630823,-0.0049698129296302795,-0.007514771539717913,-0.2430263749208253,0.24302637577056885,0.047225210815668106,-0.004969833884388208,-0.24302712197276577,0.24130578339099884,15,0.3219689130783081,0.0,3.0746736001674435e-07,0.0,False,True,False,False,False,False,0.23445262014865875,0.0026142988353967667,-0.005691176280379295,1.2147739880674635e-06,-0.0023347483947873116,0.17098653316497803,0.0951431542634964,0.0,0.0005037856753915548,-0.01620175875723362,-0.01419952604919672,-0.0162018071860075
normal,38,False,-3.260903835296631,0.0004079500213265419,-0.25112954059739917,-1.9942138195037842,-0.00514403497800231,-1.3942196369171143,-0.007773849181830883,0.17094942927360535,0.09523309767246246,0.17094942927360535,0.09523309767246246,3.418988585472107,0.05713985860347748,0.03009045496582985,0.058559443801641464,0.04432494938373566,0.0004080006619915366,-0.005143977701663971,-0.00777378911152482,-0.2511292471127083,0.25112923979759216,0.03954961523413658,-0.005144005641341209,-0.25112954059739917,0.24130578339099884,15,0.3142198324203491,0.0,2.765935107618134e-07,0.0,False,True,False,False,False,False,0.2343049943447113,0.002881282940506935,-0.005567128770053387,1.4808874766458757e-06,-0.0028305579908192158,0.17094942927360535,0.09523309767246246,0.0,0.0005100008565932512,-0.016741950064897537,-0.014697159640491009,-0.01674196869134903
normal,39,False,-3.2531580924987793,0.00041060522198677063,-0.25917809144103937,-1.986469030380249,-0.005319315940141678,-1.3864752054214478,-0.00803341343998909,0.1706983745098114,0.09516638517379761,0.1706983745098114,0.09516638517379761,3.413967490196228,0.05709983110427856,0.030139625072479248,0.058536987751722336,0.04433830827474594,0.0004104536783415824,-0.005319367162883282,-0.008033416233956814,-0.25917358244897015,0.25917357206344604,0.031915273517370224,-0.005319285672158003,-0.25917811812146585,0.24130578339099884,15,0.3064754009246826,0.0,2.3430560247561516e-07,0.0,False,True,False,False,False,False,0.23446804285049438,0.002888037357479334,-0.005827696993947029,1.2316878610363347e-06,-0.0023036946076899767,0.1706983745098114,0.09516638517379761,0.0,0.0005130671197548509,-0.017278239130973816,-0.01519795972853899,-0.01727854087948799
normal,40,False,-3.245408535003662,0.00041410885751247406,-0.2672490004820408,-1.9787203073501587,-0.005494243465363979,-1.378726840019226,-0.008292858488857746,0.17072024941444397,0.09513986855745316,0.17072024941444397,0.09513986855745316,3.4144049882888794,0.05708392113447189,0.03019307181239128,0.05852222442626953,0.044357649981975555,0.0004140232631471008,-0.005494266282767057,-0.00829285103827715,-0.2672461723568376,0.26724618673324585,0.024348141625523567,-0.005494211800396442,-0.2672490004820408,0.24130578339099884,15,0.29872703552246094,0.0,2.4998652747854067e-07,0.0,False,True,False,False,False,False,0.23428182303905487,0.002696493174880743,-0.005658713635057211,1.3269660712467157e-06,-0.002536006737500429,0.17072024941444397,0.09513986855745316,0.0,0.0005175290862098336,-0.017816411331295967,-0.015697747468948364,-0.01781659945845604
normal,41,False,-3.2376580238342285,0.00041702110320329666,-0.2753602770082541,-1.970970630645752,-0.005670654121786356,-1.370977520942688,-0.008554209023714066,0.17081668972969055,0.09512488543987274,0.17081668972969055,0.09512488543987274,3.416333794593811,0.05707493126392364,0.030319763347506523,0.05850406363606453,0.04441191256046295,0.0004169138555880636,-0.0056706806644797325,-0.008554196916520596,-0.27535662178983106,0.27535662055015564,0.016947336494922638,-0.005670621525496244,-0.2753602770082541,0.24130578339099884,15,0.29097771644592285,0.0,2.3121053516206302e-07,0.0,False,True,False,False,False,False,0.2344263345003128,0.0029230881482362747,-0.00561179593205452,1.3767117934548878e-06,-0.002603251487016678,0.17081668972969055,0.09512488543987274,0.0,0.0005211423267610371,-0.018357107415795326,-0.016201775521039963,-0.018357351422309875
normal,42,False,-3.229907512664795,0.0004178229719400406,-0.2834451399122865,-1.9632208347320557,-0.005848591681569815,-1.36322820186615,-0.008816810324788094,0.17077183723449707,0.09511550515890121,0.17077183723449707,0.09511550515890121,3.4154367446899414,0.05706930309534072,0.030370812863111496,0.05848637968301773,0.044428594410419464,0.0004178685194347054,-0.005848531611263752,-0.008816743269562721,-0.28344447290162533,0.28344446420669556,0.010088878683745861,-0.0058485581539571285,-0.2834451399122865,0.24130578339099884,15,0.2832285165786743,0.0,3.3811372190939437e-07,0.0,False,True,False,False,False,False,0.23437170684337616,0.0028176461346447468,-0.005655127111822367,1.103353042708477e-06,-0.002066531218588352,0.17077183723449707,0.09511550515890121,0.0,0.0005223356420174241,-0.018896298483014107,-0.01671016588807106,-0.01889634318649769
normal,43,False,-3.2221598625183105,0.0004163747653365135,-0.2916376583370259,-1.9554742574691772,-0.0060311583802104,-1.3554819822311401,-0.00908516813069582,0.17081978917121887,0.0952368825674057,0.17081978917121887,0.0952368825674057,3.4163957834243774,0.05714212954044342,0.0304242093116045,0.0584975928068161,0.044460900127887726,0.0004162487748544663,-0.006031195167452097,-0.009085162542760372,-0.29163360291220614,0.29163360595703125,0.006049763411283493,-0.006031123921275139,-0.2916376583370259,0.24130578339099884,15,0.275482177734375,0.0,2.3200786358756886e-07,0.0,False,True,False,False,False,False,0.23424190282821655,0.0027283839881420135,-0.005682697519659996,1.3676090020453557e-06,-0.0026197475381195545,0.17081978917121887,0.0952368825674057,0.0,0.0005203109467402101,-0.0194422397762537,-0.017231782898306847,-0.01944250985980034
normal,44,False,-3.214409589767456,0.0004166550934314728,-0.29979994783860264,-1.9477249383926392,-0.006211328320205212,-1.3477331399917603,-0.009350812062621117,0.17092278599739075,0.09520922601222992,0.17092278599739075,0.09520922601222992,3.418455719947815,0.05712553560733795,0.03054986149072647,0.058489054441452026,0.04451945796608925,0.0004167052102275193,-0.0062112645246088505,-0.00935074221342802,-0.2997993341887944,0.2997993230819702,0.009566058404743671,-0.006211292929947376,-0.29979994783860264,0.24130578339099884,15,0.26773345470428467,0.0,3.387174274394056e-07,0.0,False,True,False,False,False,False,0.23442713916301727,0.0028511546552181244,-0.0055867466144263744,1.8969291204484762e-06,-0.003249339759349823,0.17092278599739075,0.09520922601222992,0.0,0.0005208814982324839,-0.019986622035503387,-0.01774655096232891,-0.01998666301369667
normal,45,False,-3.206660747528076,0.0004141470417380333,-0.30799374692381143,-1.9399769306182861,-0.006394983269274235,-1.3399856090545654,-0.009620270691812038,0.17093443870544434,0.09505060315132141,0.17093443870544434,0.09505060315132141,3.4186887741088867,0.057030361890792844,0.030602453276515007,0.05847011134028435,0.0445362813770771,0.0004140222736168653,-0.0063950191251933575,-0.00962026510387659,-0.30798971817941817,0.3079897165298462,0.016327684745192528,-0.0063949464820325375,-0.30799374692381143,0.24130578339099884,15,0.2599858045578003,0.0,2.3132911053380667e-07,0.0,False,True,False,False,False,False,0.2343389391899109,0.0027809469029307365,-0.00566127197816968,8.744375463720644e-07,-0.0016250410117208958,0.17093443870544434,0.09505060315132141,0.0,0.0005175278638489544,-0.020532647147774696,-0.018271276727318764,-0.020532915368676186
normal,46,False,-3.1989119052886963,0.00041191931813955307,-0.3161553694147271,-1.9322290420532227,-0.006577646359801292,-1.3322381973266602,-0.009888401255011559,0.17101538181304932,0.09508886933326721,0.17101538181304932,0.09508886933326721,3.4203076362609863,0.05705332159996032,0.030654102563858032,0.058469079434871674,0.04456159099936485,0.00041196972597390413,-0.006577582564204931,-0.009888331405818462,-0.3161547824453453,0.3161547780036926,0.023702094331383705,-0.0065776086412370205,-0.3161553694147271,0.24130578339099884,15,0.25223851203918457,0.0,3.3833018164841633e-07,0.0,False,True,False,False,False,False,0.2344522774219513,0.0028952055145055056,-0.005615625064820051,1.1012003824362182e-06,-0.001995742553845048,0.17101538181304932,0.09508886933326721,0.0,0.0005149621283635497,-0.021076984703540802,-0.018793167546391487,-0.021077023819088936
normal,47,False,-3.1911606788635254,0.00040747039020061493,-0.324421605857735,-1.9244790077209473,-0.0067648435942828655,-1.3244885206222534,-0.010162160731852055,0.1710052490234375,0.09516748785972595,0.1710052490234375,0.09516748785972595,3.42010498046875,0.05710049271583557,0.030778614804148674,0.058475200086832047,0.044626906514167786,0.00040736774099059403,-0.006764867343008518,-0.010162146762013435,-0.32441803068059133,0.3244180381298065,0.0312618613243103,-0.006764804944396019,-0.324421605857735,0.24130578339099884,15,0.24448871612548828,0.0,2.295775942684486e-07,0.0,False,True,False,False,False,False,0.23448336124420166,0.0028991198632866144,-0.005425185896456242,2.0495303942880128e-06,-0.0034935649018734694,0.1710052490234375,0.09516748785972595,0.0,0.0005092096980661154,-0.021627867594361305,-0.01932801492512226,-0.021628106012940407
normal,48,False,-3.18341064453125,0.0004028892144560814,-0.3326531043855111,-1.9167299270629883,-0.0069514052011072636,-1.3167400360107422,-0.010434920899569988,0.17092400789260864,0.09510941803455353,0.17092400789260864,0.09510941803455353,3.418480157852173,0.05706565082073212,0.030831074342131615,0.05846450477838516,0.04464779049158096,0.0004029650299344212,-0.006951330695301294,-0.010434846393764019,-0.332653157746364,0.3326531648635864,0.03889643773436546,-0.006951365619897842,-0.3326531043855111,0.24130578339099884,15,0.23674023151397705,0.0,3.0691424512951926e-07,0.0,False,True,False,False,False,False,0.23432382941246033,0.00271731149405241,-0.005780857056379318,1.5207319847831968e-06,-0.002981210593134165,0.17092400789260864,0.09510941803455353,0.0,0.0005037062801420689,-0.022176876664161682,-0.019861044362187386,-0.022176872938871384
normal,49,False,-3.1756632328033447,0.00039771106094121933,-0.3408848697175516,-1.908983588218689,-0.0071385689079761505,-1.308994174003601,-0.010708286426961422,0.17081871628761292,0.09484627842903137,0.17081871628761292,0.09484627842903137,3.4163743257522583,0.05690776705741882,0.03088780865073204,0.05843644216656685,0.044662125408649445,0.0003976218868046999,-0.007138599641621113,-0.010708289220929146,-0.34088222835533355,0.34088224172592163,0.04656698554754257,-0.007138527929782867,-0.3408848697175516,0.24130578339099884,15,0.22899436950683594,0.0,2.7440214012131037e-07,0.0,False,True,False,False,False,False,0.23427875339984894,0.0028181474190205336,-0.005842950195074081,1.2301461538299918e-06,-0.002297851489856839,0.17081871628761292,0.09484627842903137,0.0,0.0004970273585058749,-0.022725481539964676,-0.0203957948833704,-0.022725658491253853
normal,50,False,-3.1679162979125977,0.0003907708451151848,-0.34922575799375366,-1.9012377262115479,-0.007329906802624464,-1.3012489080429077,-0.01098696794360876,0.170728400349617,0.09477319568395615,0.170728400349617,0.09477319568395615,3.41456800699234,0.056863917410373686,0.031018855050206184,0.05840097740292549,0.04470991715788841,0.0003907946520484984,-0.007329872343689203,-0.010986928828060627,-0.34922527774607764,0.3492252826690674,0.05425981059670448,-0.007329864893108606,-0.34922575799375366,0.24130578339099884,15,0.22124922275543213,0.0,3.315646210921841e-07,0.0,False,True,False,False,False,False,0.2343236356973648,0.0030360170640051365,-0.005701194051653147,1.387769884786394e-06,-0.0026045176200568676,0.170728400349617,0.09477319568395615,0.0,0.0004884933005087078,-0.023281684145331383,-0.02094247192144394,-0.02328171767294407
normal,51,False,-3.160168170928955,0.0003825118765234947,-0.35750101242090015,-1.8934907913208008,-0.007521112449467182,-1.2935024499893188,-0.011264829896390438,0.1708255559206009,0.09484203159809113,0.1708255559206009,0.09484203159809113,3.416511118412018,0.05690521895885467,0.031070195138454437,0.05837211385369301,0.04472115635871887,0.00038257020059973,-0.007521049585193396,-0.011264764703810215,-0.3575007989774886,0.3575007915496826,0.06196749210357666,-0.00752106960862875,-0.35750101242090015,0.24130578339099884,15,0.2135026454925537,0.0,2.1997713872679014e-07,0.0,False,True,False,False,False,False,0.23445864021778107,0.0028879214078187943,-0.005728092975914478,1.1879998282893212e-06,-0.0022605769336223602,0.1708255559206009,0.09484203159809113,0.0,0.0004782127507496625,-0.023833386600017548,-0.021488770842552185,-0.02383340150117874
normal,52,False,-3.1524178981781006,0.0003726612776517868,-0.36584112696473525,-1.8857417106628418,-0.007715344429016113,-1.285753846168518,-0.01154639758169651,0.1706618219614029,0.09474983811378479,0.1706618219614029,0.09474983811378479,3.413236439228058,0.05684990286827087,0.031120607629418373,0.05835036188364029,0.04473548382520676,0.00037273019552230835,-0.007715275976806879,-0.011546329595148563,-0.36584118032558816,0.36584118008613586,0.06968686729669571,-0.007715300191193819,-0.36584115364516173,0.24130578339099884,15,0.20575416088104248,0.0,3.0556623187294463e-07,0.0,False,True,False,False,False,False,0.2345447689294815,0.0028831842355430126,-0.0054786065593361855,1.1809971738330205e-06,-0.0025203307159245014,0.1706618219614029,0.09474983811378479,0.0,0.00046591274440288544,-0.024389412254095078,-0.02204371616244316,-0.02438941039144993
normal,53,False,-3.1446659564971924,0.0003637503832578659,-0.3742091225542058,-1.877990961074829,-0.007909251376986504,-1.2780036926269531,-0.011827932670712471,0.17066402733325958,0.09472225606441498,0.17066402733325958,0.09472225606441498,3.4132805466651917,0.056833353638648984,0.031249266117811203,0.058321598917245865,0.044785432517528534,0.00036398088559508324,-0.007909080944955349,-0.011827790178358555,-0.37421184395770324,0.374211847782135,0.07741429656744003,-0.007909205742180347,-0.3742091225542058,0.24130578339099884,15,0.198003888130188,0.0,2.520224882118782e-07,0.0,False,True,False,False,False,False,0.2343348115682602,0.0029917554929852486,-0.005714376922696829,2.393545855738921e-06,-0.0031171166338026524,0.17066402733325958,0.09472225606441498,0.0,0.00045497610699385405,-0.024947455152869225,-0.02259773202240467,-0.02494727447628975
normal,54,False,-3.136909008026123,0.000352468341588974,-0.3825600159903249,-1.8702352046966553,-0.008105151355266571,-1.270248532295227,-0.012111281044781208,0.17067331075668335,0.09487666189670563,0.17067331075668335,0.09487666189670563,3.413466215133667,0.056925997138023376,0.03129759430885315,0.05830371007323265,0.04480065405368805,0.000352445465978235,-0.008105121552944183,-0.01211122702807188,-0.38255764143237125,0.3825576603412628,0.08515157550573349,-0.00810510478913784,-0.3825600159903249,0.24130578339099884,15,0.19024872779846191,0.0,2.61413106272812e-07,0.0,False,True,False,False,False,False,0.23459860682487488,0.0027760211378335953,-0.005948456935584545,1.7372350384903257e-06,-0.0033527284394949675,0.17067331075668335,0.09487666189670563,0.0,0.000440556847024709,-0.025503842160105705,-0.02315744198858738,-0.02550400048494339
normal,55,False,-3.129150152206421,0.0003404039889574051,-0.3909809989067159,-1.8624775409698486,-0.00830338429659605,-1.2624915838241577,-0.012397696264088154,0.17064832150936127,0.0948762595653534,0.17064832150936127,0.0948762595653534,3.4129664301872253,0.05692575573921203,0.03135506808757782,0.05830015614628792,0.04482761025428772,0.0003404954622965306,-0.008303303271532059,-0.012397619895637035,-0.39098147915439196,0.3909814953804016,0.08289448916912079,-0.008303336799144745,-0.3909810255871424,0.3930446207523346,16,0.18249189853668213,0.0,3.0530236472259276e-07,0.0,False,True,False,False,False,False,0.23477591574192047,0.0029334798455238342,-0.0058195325545966625,8.206063739635283e-07,-0.0015131987165659666,0.17064832150936127,0.0948762595653534,0.0,0.00042561933514662087,-0.026065431535243988,-0.023723820224404335,-0.0260654017329216
normal,56,False,-3.1213884353637695,0.0003276253119111061,-0.3994510738077664,-1.8547172546386719,-0.008503415621817112,-1.2547317743301392,-0.01268642395734787,0.17087653279304504,0.09501197934150696,0.17087653279304504,0.09501197934150696,3.417530655860901,0.05700718760490417,0.03148293122649193,0.058319441974163055,0.04490118473768234,0.00032767915399745107,-0.00850335881114006,-0.012686365284025669,-0.39945091372520775,0.3994509279727936,0.07519960403442383,-0.008503367193043232,-0.3994510738077664,0.3930446207523346,16,0.17473208904266357,0.0,3.045614960228704e-07,0.0,False,True,False,False,False,False,0.23490755259990692,0.0030260332860052586,-0.005727843381464481,1.5391402712339186e-06,-0.0030203175265341997,0.17087653279304504,0.09501197934150696,0.0,0.0004095989279448986,-0.026630060747265816,-0.02429533563554287,-0.02663007192313671
normal,57,False,-3.1136248111724854,0.0003118366003036499,-0.4079102897752537,-1.8469548225402832,-0.008706217631697655,-1.2469700574874878,-0.012977808713912964,0.17100514471530914,0.09494148194789886,0.17100514471530914,0.09494148194789886,3.420102894306183,0.05696488916873932,0.031535886228084564,0.058318596333265305,0.044927239418029785,0.000311732612317428,-0.008706257678568363,-0.01297781802713871,-0.4079074082891976,0.4079074263572693,0.06751851737499237,-0.0087061682716012,-0.4079102897752537,0.3930446207523346,16,0.1669701337814331,0.0,1.580685733415521e-07,0.0,False,True,False,False,False,False,0.23521247506141663,0.002953534945845604,-0.005223741289228201,1.7671513887762558e-06,-0.003987942822277546,0.17100514471530914,0.09494148194789886,0.0,0.0003896657726727426,-0.02719382755458355,-0.024874767288565636,-0.02719401940703392
normal,58,False,-3.105851650238037,0.0002973470836877823,-0.41636913221677063,-1.83918297290802,-0.008907711133360863,-1.2391988039016724,-0.01326788030564785,0.17083922028541565,0.09472566843032837,0.17083922028541565,0.09472566843032837,3.416784405708313,0.05683540105819702,0.03159194067120552,0.058295637369155884,0.04494378715753555,0.0002973945811390877,-0.00890765804797411,-0.013267824426293373,-0.41636889209293265,0.41636890172958374,0.05984960123896599,-0.008907659910619259,-0.41636913221677063,0.3930446207523346,16,0.15919899940490723,0.0,2.1741185207702074e-07,0.0,False,True,False,False,False,False,0.23493270576000214,0.002868994604796171,-0.005876816343516111,1.2735001746477792e-06,-0.0024531292729079723,0.17083922028541565,0.09472566843032837,0.0,0.0003717432264238596,-0.027757925912737846,-0.025450456887483597,-0.02775794267654419
normal,59,False,-3.0980775356292725,0.00028138794004917145,-0.42490889639169643,-1.8314101696014404,-0.00911246333271265,-1.23142671585083,-0.013562058098614216,0.17085611820220947,0.0946967825293541,0.17085611820220947,0.0946967825293541,3.4171223640441895,0.05681806951761245,0.031723201274871826,0.05826538801193237,0.0449942946434021,0.00028134550666436553,-0.009112438187003136,-0.013562002219259739,-0.4249058815035081,0.4249058961868286,0.052211545407772064,-0.009112411178648472,-0.42490889639169643,0.3930446207523346,16,0.15142691135406494,0.0,2.409762203114951e-07,0.0,False,True,False,False,False,False,0.23509158194065094,0.0030644438229501247,-0.005823702551424503,2.1470937099365983e-06,-0.0032198955304920673,0.17085611820220947,0.0946967825293541,0.0,0.00035168189788237214,-0.028327059000730515,-0.026035461574792862,-0.02832726016640663
normal,60,False,-3.0903031826019287,0.00026420317590236664,-0.4333861750078872,-1.8236373662948608,-0.009317059069871902,-1.2236545085906982,-0.013855425640940666,0.17077454924583435,0.09465505927801132,0.17077454924583435,0.09465505927801132,3.415490984916687,0.05679303556680679,0.03177344426512718,0.05823585018515587,0.045004647225141525,0.0002644419146236032,-0.009316878393292427,-0.013855271972715855,-0.43338878968967887,0.4333887994289398,0.04462095722556114,-0.00931700598448515,-0.4333861750078872,0.3930446207523346,16,0.1436547040939331,0.0,2.576023803158023e-07,0.0,False,True,False,False,False,False,0.23513847589492798,0.0029606777243316174,-0.0059899091720581055,8.709176313459466e-07,-0.001653205370530486,0.17077454924583435,0.09465505927801132,0.0,0.00033055240055546165,-0.02889258600771427,-0.026620017364621162,-0.028892410919070244
normal,61,False,-3.082529306411743,0.00024613458663225174,-0.4419067826366252,-1.8158650398254395,-0.009523497894406319,-1.2158827781677246,-0.014151088893413544,0.17052289843559265,0.09478144347667694,0.17052289843559265,0.09478144347667694,3.410457968711853,0.056868866086006165,0.03182636573910713,0.05823003873229027,0.0450282022356987,0.000246366806095466,-0.009523325599730015,-0.014150944538414478,-0.44190950404012264,0.441909521818161,0.03710795193910599,-0.009523442946374416,-0.4419068093170517,0.3930446207523346,16,0.13588297367095947,0.0,2.536892225180054e-07,0.0,False,True,False,False,False,False,0.2353040874004364,0.003040845040231943,-0.005823593121021986,1.0565212278379477e-06,-0.001927161356434226,0.17052289843559265,0.09478144347667694,0.0,0.00030795851489529014,-0.029460633173584938,-0.02720983698964119,-0.029460454359650612
normal,62,False,-3.0747547149658203,0.00022629927843809128,-0.4505125541865768,-1.8080918788909912,-0.009733583778142929,-1.2081103324890137,-0.014451292343437672,0.17058947682380676,0.09486915916204453,0.17058947682380676,0.09486915916204453,3.4117895364761353,0.056921495497226714,0.03195523843169212,0.05823889374732971,0.04509706795215607,0.00022633405751548707,-0.009733525104820728,-0.014451222494244576,-0.450511486969519,0.45051148533821106,0.0297304205596447,-0.009733527898788452,-0.4505125541865768,0.3930446207523346,16,0.12811052799224854,0.0,2.5567493366907e-07,0.0,False,True,False,False,False,False,0.23542384803295135,0.0031544179655611515,-0.005214599892497063,2.0456895981624257e-06,-0.003830899717286229,0.17058947682380676,0.09486915916204453,0.0,0.00028291757917031646,-0.030034098774194717,-0.027810079976916313,-0.030034169554710388
normal,63,False,-3.0669758319854736,0.00020611006766557693,-0.4590338021455495,-1.8003144264221191,-0.00994215626269579,-1.200333595275879,-0.014749095775187016,0.17060235142707825,0.0949975773692131,0.17060235142707825,0.0949975773692131,3.412047028541565,0.05699854642152786,0.03201167657971382,0.058245185762643814,0.04512843117117882,0.00020601316646207124,-0.00994217861443758,-0.014749083667993546,-0.4590304404118174,0.4590304493904114,0.022616887465119362,-0.009942099452018738,-0.4590338021455495,0.3930446207523346,16,0.12033367156982422,0.0,1.706118126776346e-07,0.0,False,True,False,False,False,False,0.23513510823249817,0.0029499302618205547,-0.005943374242633581,1.8462415027897805e-06,-0.00345542817376554,0.17060235142707825,0.0949975773692131,0.0,0.00025751645443961024,-0.030602028593420982,-0.02840599976480007,-0.03060225397348404
normal,64,False,-3.059194803237915,0.000184706412255764,-0.467680661552227,-1.7925350666046143,-0.010154720395803452,-1.1925549507141113,-0.015052206814289093,0.17057260870933533,0.09477092325687408,0.17057260870933533,0.09477092325687408,3.4114521741867065,0.05686255395412445,0.032067809253931046,0.058236636221408844,0.045152224600315094,0.00018467058544047177,-0.010154712945222855,-0.01505217794328928,-0.46767868720067,0.4676786959171295,0.0161321721971035,-0.010154662653803825,-0.467680661552227,0.3930446207523346,16,0.11255502700805664,0.0,1.1353704820749044e-07,0.0,False,True,False,False,False,False,0.2352639138698578,0.0029095022473484278,-0.006027600262314081,1.7143008790299064e-06,-0.003258706536144018,0.17057260870933533,0.09477092325687408,0.0,0.0002308382245246321,-0.031178578734397888,-0.029013322666287422,-0.031178710982203484
normal,65,False,-3.05141544342041,0.0001640738919377327,-0.47631674206662056,-1.784757137298584,-0.010366273112595081,-1.184777855873108,-0.015354192815721035,0.17068836092948914,0.09485732764005661,0.17068836092948914,0.09485732764005661,3.4137672185897827,0.056914396584033966,0.03220126032829285,0.05823880806565285,0.0452200323343277,0.00016416588914580643,-0.01036620419472456,-0.015354135073721409,-0.47631780928367834,0.476317822933197,0.011405711062252522,-0.010366213507950306,-0.47631674206662056,0.3930446207523346,16,0.10477817058563232,0.0,3.00197285696413e-07,0.0,False,True,False,False,False,False,0.2353668063879013,0.0032656786497682333,-0.0059327925555408,1.2911249314129236e-06,-0.0024232477881014347,0.17068836092948914,0.09485732764005661,0.0,0.00020520735415630043,-0.031754519790410995,-0.029617752879858017,-0.031754449009895325
normal,66,False,-3.043635845184326,0.00013993959873914719,-0.4849725127357308,-1.7769792079925537,-0.010581763461232185,-1.177000641822815,-0.015660323202610016,0.17063739895820618,0.0949123427271843,0.17063739895820618,0.0949123427271843,3.4127479791641235,0.05694740563631057,0.03225283324718475,0.058235663920640945,0.0452442467212677,0.00013997935457155108,-0.01058170199394226,-0.015660252422094345,-0.48497155224037874,0.4849715530872345,0.011004487052559853,-0.010581702925264835,-0.4849725127357308,0.3930446207523346,16,0.09700095653533936,0.0,3.9820039887672465e-07,0.0,False,True,False,False,False,False,0.23548255860805511,0.0030814690981060266,-0.005932956002652645,1.1290171642031055e-06,-0.002145074075087905,0.17063739895820618,0.0949123427271843,0.0,0.00017497419321443886,-0.0323314368724823,-0.030233437195420265,-0.032331500202417374
normal,67,False,-3.0358569622039795,0.00011292938143014908,-0.49370037391709637,-1.7692018747329712,-0.010801725089550018,-1.1692241430282593,-0.015971679240465164,0.170566126704216,0.0947900116443634,0.170566126704216,0.0947900116443634,3.41132253408432,0.05687400698661804,0.03230652958154678,0.05823207646608353,0.045269303023815155,0.00011309682304272428,-0.010801593773066998,-0.015971563756465912,-0.4937020814643889,0.49370208382606506,0.015273381024599075,-0.010801663622260094,-0.49370042727794927,0.3930446207523346,16,0.08922445774078369,0.0,3.6669331393568427e-07,0.0,False,True,False,False,False,False,0.23543354868888855,0.003095566062256694,-0.00555389141663909,1.423225967300823e-06,-0.0030509051866829395,0.170566126704216,0.0947900116443634,0.0,0.00014137102698441595,-0.03291347250342369,-0.03086189739406109,-0.03291336074471474
normal,68,False,-3.0280792713165283,8.817017078399658e-05,-0.5023775956490687,-1.7614259719848633,-0.01101831253618002,-1.1614489555358887,-0.016279131174087524,0.17072489857673645,0.09475697576999664,0.17072489857673645,0.09475697576999664,3.414497971534729,0.05685418546199798,0.03243940323591232,0.05822136253118515,0.04533038288354874,8.825049008009955e-05,-0.011018231511116028,-0.016279049217700958,-0.5023775422882157,0.5023775696754456,0.021596219390630722,-0.011018249206244946,-0.5023775956490687,0.3930446207523346,16,0.08144927024841309,0.0,3.3801160270741093e-07,0.0,False,True,False,False,False,False,0.2351216822862625,0.003207969944924116,-0.00583728589117527,2.267998070237809e-06,-0.0030946130864322186,0.17072489857673645,0.09475697576999664,0.0,0.00011031311441911384,-0.0334918349981308,-0.031480710953474045,-0.0334918387234211
normal,69,False,-3.0203018188476562,6.129220128059387e-05,-0.5110800570644582,-1.753650188446045,-0.011237576603889465,-1.1536740064620972,-0.01658952422440052,0.17073476314544678,0.09469754993915558,0.17073476314544678,0.09469754993915558,3.4146952629089355,0.05681852996349335,0.03249033913016319,0.058205194771289825,0.04534776508808136,6.12857547821477e-05,-0.01123755518347025,-0.016589490696787834,-0.5110787764039889,0.5110787749290466,0.028646014630794525,-0.011237512342631817,-0.5110800570644582,0.3930446207523346,16,0.07367408275604248,0.0,1.8851712013656652e-07,0.0,False,True,False,False,False,False,0.2352180778980255,0.0029461935628205538,-0.006045274902135134,1.8351507833358482e-06,-0.003600507276132703,0.17073476314544678,0.09469754993915558,0.0,7.660718983970582e-05,-0.034071918576955795,-0.03210717812180519,-0.03407200425863266
normal,70,False,-3.0125203132629395,3.3093616366386414e-05,-0.5198549825180735,-1.7458703517913818,-0.011459765955805779,-1.1458951234817505,-0.016903599724173546,0.17055955529212952,0.09443682432174683,0.17055955529212952,0.09443682432174683,3.4111911058425903,0.05666209459304809,0.03254881128668785,0.05816584825515747,0.04535733163356781,3.301753895357251e-05,-0.011459767818450928,-0.01690356805920601,-0.5198516741451943,0.5198516845703125,0.03600218519568443,-0.011459700763225555,-0.5198549825180735,0.3930446207523346,16,0.06589531898498535,0.0,2.8600308610293723e-07,0.0,False,True,False,False,False,False,0.23548273742198944,0.003123748814687133,-0.006017774809151888,1.1039520586564322e-06,-0.002008748007938266,0.17055955529212952,0.09443682432174683,0.0,4.127192369196564e-05,-0.03465677797794342,-0.03274200111627579,-0.03465699777007103
normal,71,False,-3.004737615585327,4.766508936882019e-06,-0.5286605904621008,-1.7380894422531128,-0.01168275997042656,-1.1381149291992188,-0.017218802124261856,0.17056506872177124,0.09455583989620209,0.17056506872177124,0.09455583989620209,3.411301374435425,0.05673350393772125,0.03268148750066757,0.0581396147608757,0.04541055113077164,4.8408055590698496e-06,-0.011682679876685143,-0.01721872016787529,-0.5286603236578364,0.5286603569984436,0.043508380651474,-0.011682692915201187,-0.5286605904621008,0.3930446207523346,16,0.05811512470245361,0.0,2.823746285685047e-07,0.0,False,True,False,False,False,False,0.23560453951358795,0.0032762212213128805,-0.005841490346938372,1.7154713987110881e-06,-0.0033374258782714605,0.17056506872177124,0.09455583989620209,0.0,6.051006948837312e-06,-0.03524402156472206,-0.033379122614860535,-0.03524404019117355
normal,72,False,-2.9969534873962402,-2.664513885974884e-05,-0.5374361562459508,-1.7303071022033691,-0.011908173561096191,-1.1303335428237915,-0.017536109313368797,0.17090487480163574,0.09478002786636353,0.17090487480163574,0.09478002786636353,3.418097496032715,0.056868016719818115,0.03273625671863556,0.05814182758331299,0.045439042150974274,-2.6877609343500808e-05,-0.011908266693353653,-0.017536137253046036,-0.5374298596653097,0.5374298691749573,0.051099762320518494,-0.011908105574548244,-0.5374361562459508,0.3930446207523346,16,0.05033373832702637,0.0,2.576087467787147e-07,0.0,False,True,False,False,False,False,0.23560351133346558,0.0031681708060204983,-0.005687850993126631,1.5854874391152407e-06,-0.0033001662231981754,0.17090487480163574,0.09478002786636353,0.0,-3.359701076988131e-05,-0.03582865744829178,-0.03402315825223923,-0.035829078406095505
normal,73,False,-2.9891703128814697,-5.6791119277477264e-05,-0.5462715395458911,-1.7225258350372314,-0.012133646756410599,-1.1225531101226807,-0.017854101955890656,0.17060121893882751,0.0947052389383316,0.17060121893882751,0.0947052389383316,3.4120243787765503,0.05682314336299896,0.03279312327504158,0.05814094841480255,0.045467033982276917,-5.578767377301119e-05,-0.012133031152188778,-0.017853669822216034,-0.5462891486273451,0.5462891459465027,0.058740969747304916,-0.012133576907217503,-0.546271592906744,0.3930446207523346,16,0.04255318641662598,0.0,1.7314145850377827e-07,0.0,False,True,False,False,False,False,0.23527222871780396,0.003087864490225911,-0.006013334263116121,1.667675292083004e-06,-0.003167982678860426,0.17060121893882751,0.0947052389383316,0.0,-6.973458948777989e-05,-0.036419276148080826,-0.03466736525297165,-0.03641810640692711
normal,74,False,-2.981389045715332,-8.84905457496643e-05,-0.5551126324570909,-1.7147464752197266,-0.01236079540103674,-1.1147745847702026,-0.018173830583691597,0.1707005798816681,0.09469451010227203,0.1707005798816681,0.09469451010227203,3.414011597633362,0.056816706061363215,0.032926205545663834,0.05813711881637573,0.045531660318374634,-8.69480863912031e-05,-0.01235984917730093,-0.01817316561937332,-0.5551395263269477,0.5551395416259766,0.06641391664743423,-0.012360724620521069,-0.5551125790962379,0.3930446207523346,16,0.0347752571105957,0.0,6.993805641286599e-07,0.0,False,True,False,False,False,False,0.2352832406759262,0.0031855273991823196,-0.005985688883811235,2.408173259027535e-06,-0.0032941708341240883,0.1707005798816681,0.09469451010227203,0.0,-0.00010868511162698269,-0.03700930252671242,-0.035316355526447296,-0.03700750321149826
normal,75,False,-2.973609685897827,-0.00012155808508396149,-0.5639236298472602,-1.7069690227508545,-0.012588649988174438,-1.106998085975647,-0.018493948504328728,0.17091774940490723,0.09485188126564026,0.17091774940490723,0.09485188126564026,3.4183549880981445,0.05691112875938415,0.032984573394060135,0.058147791773080826,0.04556618258357048,-0.00011982957948930562,-0.01258760504424572,-0.018493225798010826,-0.563954525781084,0.5639545321464539,0.07410798966884613,-0.012588578276336193,-0.5639236298472602,0.3930446207523346,16,0.02699875831604004,0.0,7.553342697974585e-07,0.0,False,True,False,False,False,False,0.23529866337776184,0.003230846021324396,-0.006138467695564032,8.033698009057844e-07,-0.0014223584439605474,0.17091774940490723,0.09485188126564026,0.0,-0.0001497869670856744,-0.037596967071294785,-0.03596736863255501,-0.037594906985759735
normal,76,False,-2.9658315181732178,-0.00015603285282850266,-0.5728620529541326,-1.699192762374878,-0.01282072439789772,-1.0992227792739868,-0.018819622695446014,0.1708158403635025,0.09493451565504074,0.1708158403635025,0.09493451565504074,3.41631680727005,0.056960709393024445,0.033036671578884125,0.05817735567688942,0.04560701549053192,-0.00015465024625882506,-0.01281986478716135,-0.018819011747837067,-0.5728857451728161,0.5728857517242432,0.08181794732809067,-0.012820650823414326,-0.5728620529541326,0.3930446207523346,16,0.019223570823669434,0.0,7.906262453616364e-07,0.0,False,True,False,False,False,False,0.23541134595870972,0.003166057402268052,-0.005914478097110987,1.3142638408680796e-06,-0.0024987186770886183,0.1708158403635025,0.09493451565504074,0.0,-0.00019331280782353133,-0.03819238394498825,-0.036630433052778244,-0.0381908044219017
normal,77,False,-2.95805287361145,-0.00019269995391368866,-0.5818412437526135,-1.6914160251617432,-0.013055896386504173,-1.0914469957351685,-0.019148819148540497,0.17097510397434235,0.09501900523900986,0.17097510397434235,0.09501900523900986,3.419502079486847,0.057011403143405914,0.03317031264305115,0.05821260064840317,0.04569145664572716,-0.00019127706764265895,-0.013055016286671162,-0.019148197025060654,-0.5818657897449432,0.5818657875061035,0.08739669620990753,-0.013055821880698204,-0.5818412437526135,0.5447832345962524,17,0.011447787284851074,0.0,7.903034315859259e-07,0.0,False,True,False,False,False,False,0.2356324940919876,0.003573540598154068,-0.005554691422730684,2.2096369320934173e-06,-0.0031961705535650253,0.17097510397434235,0.09501900523900986,0.0,-0.00023909633455332369,-0.038791052997112274,-0.037302348762750626,-0.03878941759467125
normal,78,False,-2.950268030166626,-0.00022942759096622467,-0.590754213732657,-1.6836333274841309,-0.013289662078022957,-1.0836652517318726,-0.019475916400551796,0.17092245817184448,0.09499853849411011,0.17092245817184448,0.09499853849411011,3.4184491634368896,0.05699912309646606,0.0332241989672184,0.05822505056858063,0.045724622905254364,-0.0002279547043144703,-0.013288752175867558,-0.019475271925330162,-0.5907797202203388,0.590779721736908,0.07974842935800552,-0.013289585709571838,-0.5907542670935099,0.5447832345962524,17,0.003665924072265625,0.0,7.627629088347021e-07,0.0,False,True,False,False,False,False,0.23531046509742737,0.0030698846094310284,-0.006158568896353245,1.6306798897858243e-06,-0.0031921393238008022,0.17092245817184448,0.09499853849411011,0.0,-0.00028494338039308786,-0.03938531503081322,-0.03797024488449097,-0.03938361629843712
normal,79,False,-2.9424819946289062,-0.0002667168155312538,-0.5996999472763754,-1.675849437713623,-0.01352471299469471,-1.0758821964263916,-0.019804641604423523,0.17079825699329376,0.09510331600904465,0.17079825699329376,0.09510331600904465,3.4159651398658752,0.057061989605426786,0.033283211290836334,0.05824826657772064,0.04576573893427849,-0.00026531575713306665,-0.013523845933377743,-0.019804026931524277,-0.5997241731035878,0.5997241735458374,0.07212875783443451,-0.013524635694921017,-0.5997000006372283,0.5447832345962524,17,0.0,0.004117131233215332,7.912623232186888e-07,0.0,False,True,False,False,False,False,0.23554584383964539,0.003167202463373542,-0.00612608203664422,1.7216136711795116e-06,-0.0032602206338196993,0.17079825699329376,0.09510331600904465,0.0,-0.0003316446964163333,-0.03998161107301712,-0.03864181786775589,-0.039979998022317886
normal,80,False,-2.9346938133239746,-0.00030472222715616226,-0.6086525643701167,-1.6680632829666138,-0.013760631904006004,-1.0680971145629883,-0.02013430744409561,0.17084603011608124,0.09503328800201416,0.17084603011608124,0.09503328800201416,3.4169206023216248,0.05701997280120849,0.03342200070619583,0.05826452746987343,0.04584326595067978,-0.0003033290558960289,-0.013759773224592209,-0.02013370208442211,-0.6086767368364763,0.6086767315864563,0.0645471140742302,-0.013760552741587162,-0.6086525643701167,0.5447832345962524,17,0.0,0.011902213096618652,7.901415983724291e-07,0.0,False,True,False,False,False,False,0.23553042113780975,0.0034501783084124327,-0.006136760581284761,1.3054790315436549e-06,-0.0024335391353815794,0.17084603011608124,0.09503328800201416,0.0,-0.0003791613271459937,-0.0405784472823143,-0.03931586444377899,-0.040576837956905365
normal,81,False,-2.926908493041992,-0.00034511834383010864,-0.6176704417869434,-1.6602799892425537,-0.014000387862324715,-1.0603148937225342,-0.020468492060899734,0.17091888189315796,0.09508176147937775,0.17091888189315796,0.09508176147937775,3.418377637863159,0.05704905688762665,0.03347593545913696,0.05828150361776352,0.04587871953845024,-0.00034372598747722805,-0.013999530114233494,-0.020467888563871384,-0.6176946676141558,0.6176946759223938,0.05702530965209007,-0.014000307768583298,-0.6176704951477963,0.5447832345962524,17,0.0,0.019684433937072754,7.904412768766633e-07,0.0,False,True,False,False,False,False,0.23567405343055725,0.00317142391577363,-0.006053613033145666,1.4183251551003195e-06,-0.0027879513800144196,0.17091888189315796,0.09508176147937775,0.0,-0.00042965749162249267,-0.04117964580655098,-0.040000881999731064,-0.041178032755851746
normal,82,False,-2.9191198348999023,-0.00038751307874917984,-0.6267393321791336,-1.6524935960769653,-0.01424326654523611,-1.0525294542312622,-0.020806334912776947,0.1708276867866516,0.09504793584346771,0.1708276867866516,0.09504793584346771,3.4165537357330322,0.057028761506080626,0.03352973982691765,0.05829658359289169,0.04591315984725952,-0.0003861215664073825,-0.014242410659790039,-0.020805731415748596,-0.626763558006346,0.6267635822296143,0.04958336800336838,-0.014243184588849545,-0.6267393855399865,0.5447832345962524,17,0.0,0.027469754219055176,7.907443091426103e-07,0.0,False,True,False,False,False,False,0.2357667237520218,0.003450090764090419,-0.0060034627094864845,1.699205995464581e-06,-0.002892976626753807,0.1708276867866516,0.09504793584346771,0.0,-0.0004826519580092281,-0.04178423807024956,-0.040694814175367355,-0.041782625019550323
normal,83,False,-2.9113316535949707,-0.00042930152267217636,-0.6358510179753422,-1.6447075605392456,-0.014486484229564667,-1.0447444915771484,-0.021144963800907135,0.17110426723957062,0.09509667009115219,0.17110426723957062,0.09509667009115219,3.4220853447914124,0.05705800205469131,0.03366890922188759,0.058316029608249664,0.045992471277713776,-0.00042791073792614043,-0.01448562927544117,-0.021144364029169083,-0.6358752438025546,0.6358752250671387,0.0422675646841526,-0.014486401341855526,-0.6358510179753422,0.5447832345962524,17,0.0,0.035254836082458496,7.910504677965946e-07,0.0,False,True,False,False,False,False,0.23539845645427704,0.003387461882084608,-0.006043102126568556,2.1954199382889783e-06,-0.0031933062709867954,0.17110426723957062,0.09509667009115219,0.0,-0.0005348884151317179,-0.04239168390631676,-0.041389718651771545,-0.042390067130327225
normal,84,False,-2.903545379638672,-0.0004724916070699692,-0.6448833561833023,-1.6369235515594482,-0.014729350805282593,-1.036961555480957,-0.02148241177201271,0.17078432440757751,0.09527349472045898,0.17078432440757751,0.09527349472045898,3.4156864881515503,0.057164096832275385,0.033724457025527954,0.05833052098751068,0.04602748900651932,-0.00047110175364650786,-0.01472849678248167,-0.021481812000274658,-0.6449076353713675,0.6449076533317566,0.03515772521495819,-0.014729266986250877,-0.6448834095441551,0.5447832345962524,17,0.0,0.0430377721786499,7.913755553090596e-07,0.0,False,True,False,False,False,False,0.2353758066892624,0.0031178451608866453,-0.006286222953349352,1.7464237771491753e-06,-0.0034024848137050867,0.17078432440757751,0.09527349472045898,0.0,-0.0005888771847821772,-0.04299384355545044,-0.04208362102508545,-0.04299222677946091
normal,85,False,-2.8957619667053223,-0.0005165701732039452,-0.6539468571293505,-1.6291424036026,-0.014973793178796768,-1.0291814804077148,-0.0218217596411705,0.17088682949543,0.09519915282726288,0.17088682949543,0.09519915282726288,3.4177365899086,0.05711949169635772,0.03378403186798096,0.05834850296378136,0.046066269278526306,-0.0005151882069185376,-0.014972947537899017,-0.021821169182658195,-0.6539711363174158,0.6539711356163025,0.028408963233232498,-0.014973707497119904,-0.6539468571293505,0.5447832345962524,17,0.0,0.05081784725189209,7.902973493401078e-07,0.0,False,True,False,False,False,False,0.23555704951286316,0.003330762265250087,-0.005995974410325289,9.655241228756495e-07,-0.0017702265176922083,0.17088682949543,0.09519915282726288,0.0,-0.0006439852295443416,-0.043598074465990067,-0.042782023549079895,-0.043596457690000534
normal,86,False,-2.8879761695861816,-0.0005606962367892265,-0.6630808477620674,-1.621358871459961,-0.01521984301507473,-1.0213990211486816,-0.022163454443216324,0.17077508568763733,0.09522689133882523,0.17077508568763733,0.09522689133882523,3.4155017137527466,0.05713613480329513,0.0339188314974308,0.058366887271404266,0.04614286124706268,-0.0005593151436187327,-0.015218998305499554,-0.022162865847349167,-0.6631051803109855,0.6631051898002625,0.022344030439853668,-0.015219755470752716,-0.6630808477620674,0.5447832345962524,17,0.0,0.05860030651092529,7.906409109637025e-07,0.0,False,True,False,False,False,False,0.23566627502441406,0.003526225220412016,-0.005949713289737701,1.7073647313736728e-06,-0.003323631128296256,0.17077508568763733,0.09522689133882523,0.0,-0.0006991439149715006,-0.04420701041817665,-0.043485015630722046,-0.04420538991689682
normal,87,False,-2.8801891803741455,-0.0006087860092520714,-0.6721826618004912,-1.6135742664337158,-0.015469139441847801,-1.013615608215332,-0.022508058696985245,0.17074960470199585,0.0951768010854721,0.17074960470199585,0.0951768010854721,3.414992094039917,0.05710608065128326,0.03397826850414276,0.05836925283074379,0.046173758804798126,-0.0006074098637327552,-0.015468300320208073,-0.022507473826408386,-0.6722069409885565,0.6722069382667542,0.017686491832137108,-0.015469050966203213,-0.6721826618004912,0.5447832345962524,17,0.0,0.0663837194442749,7.901830940681975e-07,0.0,False,True,False,False,False,False,0.2357112616300583,0.0035031151492148638,-0.0061664879322052,1.540166749691707e-06,-0.0024871621280908585,0.17074960470199585,0.0951768010854721,0.0,-0.0007592623587697744,-0.04481379687786102,-0.044197291135787964,-0.04481217637658119
normal,88,False,-2.872401714324951,-0.0006562452763319016,-0.681334741762338,-1.6057891845703125,-0.015718922019004822,-1.0058315992355347,-0.022853674367070198,0.17088547348976135,0.09521797299385071,0.17088547348976135,0.09521797299385071,3.417709469795227,0.057130783796310425,0.03403299301862717,0.0583798810839653,0.046206437051296234,-0.0006548700039274991,-0.015718083828687668,-0.02285309135913849,-0.6813590743112562,0.681359052658081,0.015738720074295998,-0.01571883261203766,-0.681334741762338,0.5447832345962524,17,0.0,0.07416760921478271,7.905222219051211e-07,0.0,False,True,False,False,False,False,0.23544834554195404,0.003223252482712269,-0.006244170479476452,1.729319251353445e-06,-0.003297016955912113,0.17088547348976135,0.09521797299385071,0.0,-0.0008185874903574586,-0.04542393609881401,-0.04491095244884491,-0.04542231559753418
normal,89,False,-2.8646113872528076,-0.0007034437730908394,-0.6905012825153183,-1.59800124168396,-0.01596876047551632,-0.9980448484420776,-0.023199498653411865,0.17083410918712616,0.09508342295885086,0.17083410918712616,0.09508342295885086,3.416682183742523,0.057050053775310514,0.03417297452688217,0.05837545916438103,0.04627421498298645,-0.0007020639604888856,-0.015967918559908867,-0.023198911920189857,-0.6905256150642365,0.6905256509780884,0.017435142770409584,-0.015968669205904007,-0.6905012291544654,0.5447832345962524,17,0.0,0.08195441961288452,7.919859967842058e-07,0.0,False,True,False,False,False,False,0.235587939620018,0.003416067222133279,-0.00616627698764205,2.2785625333199278e-06,-0.003149462165310979,0.17083410918712616,0.09508342295885086,0.0,-0.0008775799651630223,-0.0460350401699543,-0.04562477022409439,-0.04603341594338417
normal,90,False,-2.8568217754364014,-0.0007532685995101929,-0.6997152610665184,-1.5902142524719238,-0.01622227393090725,-0.9902589321136475,-0.02354949340224266,0.17080393433570862,0.09495718777179718,0.17080393433570862,0.09495718777179718,3.4160786867141724,0.05697431266307831,0.034228719770908356,0.05834990367293358,0.04628930985927582,-0.0007518911734223366,-0.016221433877944946,-0.023548908531665802,-0.6997395936154366,0.6997395753860474,0.021949511021375656,-0.016222180798649788,-0.6997152610665184,0.5447832345962524,17,0.0,0.0897403359413147,7.920324378574151e-07,0.0,False,True,False,False,False,False,0.23555633425712585,0.003357801353558898,-0.006292341742664576,7.377732345048571e-07,-0.0014014164917171001,0.17080393433570862,0.09495718777179718,0.0,-0.0009398639667779207,-0.04664930701255798,-0.046349089592695236,-0.046647682785987854
normal,91,False,-2.84903621673584,-0.0008048238232731819,-0.7089369769413876,-1.5824310779571533,-0.016477689146995544,-0.9824769496917725,-0.023901470005512238,0.17098873853683472,0.09510856866836548,0.17098873853683472,0.09510856866836548,3.4197747707366943,0.057065141201019284,0.03428637608885765,0.05835431069135666,0.046320341527462006,-0.0008034459897316992,-0.01647684909403324,-0.02390088513493538,-0.7089613094903058,0.7089613080024719,0.02794407494366169,-0.016477594152092934,-0.7089369769413876,0.5447832345962524,17,0.0,0.0975223183631897,7.926996090645844e-07,0.0,False,True,False,False,False,False,0.23556660115718842,0.0034166844561696053,-0.006037700921297073,1.3071618241156102e-06,-0.0024703210219740868,0.17098873853683472,0.09510856866836548,0.0,-0.0010043075308203697,-0.047264087945222855,-0.04707884043455124,-0.047262463718652725
normal,92,False,-2.8412537574768066,-0.0008578989654779434,-0.7182823299124047,-1.5746512413024902,-0.016737354919314384,-0.9746983051300049,-0.024258993566036224,0.17103388905525208,0.09528261423110962,0.17103388905525208,0.09528261423110962,3.4206777811050415,0.05716956853866577,0.03442617505788803,0.05838392674922943,0.04640505090355873,-0.000856527651194483,-0.016736522316932678,-0.024258416146039963,-0.7183066624613228,0.7183066606521606,0.034658148884773254,-0.016737259924411774,-0.7182823299124047,0.5447832345962524,17,0.0,0.10530096292495728,7.919141467027657e-07,0.0,False,True,False,False,False,False,0.2355385720729828,0.003825168125331402,-0.006207175552845001,1.9448018520051846e-06,-0.002926892600953579,0.17103388905525208,0.09528261423110962,0.0,-0.0010706596076488495,-0.047887109220027924,-0.047820743173360825,-0.04788548871874809
normal,93,False,-2.83347225189209,-0.0009111873805522919,-0.7275151448446752,-1.5668723583221436,-0.016994748264551163,-0.9669206142425537,-0.024613065645098686,0.1710921972990036,0.09507987648248672,0.1710921972990036,0.09507987648248672,3.421843945980072,0.057047925889492035,0.03447963297367096,0.05837635323405266,0.04642799496650696,-0.0009097600122913718,-0.016993872821331024,-0.02461245283484459,-0.7275401710846809,0.7275401949882507,0.04174374043941498,-0.016994651407003403,-0.7275151448446752,0.5447832345962524,17,0.0,0.11307865381240845,7.981352609931491e-07,0.0,False,True,False,False,False,False,0.23526932299137115,0.0032881705556064844,-0.006377080455422401,1.614637199054414e-06,-0.0031131752766668797,0.1710921972990036,0.09507987648248672,0.0,-0.0011372000444680452,-0.04850267618894577,-0.04855614900588989,-0.04850101098418236
normal,94,False,-2.825686454772949,-0.0009647849947214127,-0.7367487068288862,-1.559089183807373,-0.017252467572689056,-0.9591387510299683,-0.02496746927499771,0.17126570641994476,0.09517983347177505,0.17126570641994476,0.09517983347177505,3.4253141283988953,0.05710790008306503,0.03453929349780083,0.058385610580444336,0.04646245390176773,-0.0009633677545934916,-0.01725161261856556,-0.024966880679130554,-0.736774159955715,0.7367741465568542,0.049045413732528687,-0.017252368852496147,-0.7367487601897391,0.5447832345962524,17,0.0,0.12086057662963867,7.625300781910482e-07,0.0,False,True,False,False,False,False,0.23548004031181335,0.0032558287493884563,-0.006348146125674248,1.7058551975424052e-06,-0.0032692512031644583,0.17126570641994476,0.09517983347177505,0.0,-0.0012042096350342035,-0.0491182766854763,-0.04929248243570328,-0.0491165854036808
normal,95,False,-2.817899227142334,-0.0010206429287791252,-0.7461170049666462,-1.551304578781128,-0.01751542091369629,-0.9513554573059082,-0.02532852068543434,0.17130506038665771,0.09533195197582245,0.17130506038665771,0.09533195197582245,3.4261012077331543,0.05719917118549347,0.034684356302022934,0.05841411277651787,0.0465492345392704,-0.001019319286569953,-0.017514612525701523,-0.025327956303954124,-0.7461403770202124,0.7461403608322144,0.05647999793291092,-0.01751532033085823,-0.7461170583274992,0.5447832345962524,17,0.0,0.12864381074905396,7.946875371089845e-07,0.0,False,True,False,False,False,False,0.23546655476093292,0.0036454505752772093,-0.006194537505507469,1.2043549304507906e-06,-0.002335652243345976,0.17130506038665771,0.09533195197582245,0.0,-0.0012741491664201021,-0.049742691218853,-0.05004377290606499,-0.04974113777279854
normal,96,False,-2.8101139068603516,-0.0010770373046398163,-0.7554170012127062,-1.5435218811035156,-0.01777740567922592,-0.943574070930481,-0.02568788453936577,0.17107653617858887,0.09517396241426468,0.17107653617858887,0.09517396241426468,3.4215307235717773,0.057104377448558806,0.03473778814077377,0.05841578170657158,0.04657678306102753,-0.0010756945703178644,-0.017776597291231155,-0.025687329471111298,-0.7554411736790657,0.7554411888122559,0.06399685889482498,-0.017777303233742714,-0.7554170012127062,0.5447832345962524,17,0.0,0.1364251971244812,7.903765890659997e-07,0.0,False,True,False,False,False,False,0.23559454083442688,0.0034157445188611746,-0.006184910889714956,1.380046114718425e-06,-0.002704052720218897,0.17107653617858887,0.09517396241426468,0.0,-0.0013446181546896696,-0.05036274343729019,-0.05079229548573494,-0.050361134111881256
normal,97,False,-2.802330493927002,-0.0011366475373506546,-0.7648510399212276,-1.5357413291931152,-0.018045563250780106,-0.9357947111129761,-0.026054827496409416,0.17122526466846466,0.09529484808444977,0.17122526466846466,0.09529484808444977,3.424505293369293,0.05717690885066986,0.03479865938425064,0.05844157189130783,0.046620115637779236,-0.0011353057343512774,-0.018044758588075638,-0.026054276153445244,-0.7648752123875872,0.7648752331733704,0.07157100737094879,-0.018045460805296898,-0.7648510399212276,0.5447832345962524,17,0.0,0.14420455694198608,7.906787686806638e-07,0.0,False,True,False,False,False,False,0.2355528622865677,0.0037100790068507195,-0.0062919240444898605,1.4971257087381673e-06,-0.0024573388509452343,0.17122526466846466,0.09529484808444977,0.0,-0.0014191321097314358,-0.05099168047308922,-0.05155846104025841,-0.050990067422389984
normal,98,False,-2.7945480346679688,-0.0011958396062254906,-0.7742846517429259,-1.5279617309570312,-0.018313299864530563,-0.9280164241790771,-0.02642134204506874,0.17125578224658966,0.0951620414853096,0.17125578224658966,0.0951620414853096,3.425115644931793,0.05709722489118576,0.03494115546345711,0.05844694375991821,0.04669404774904251,-0.0011944985017180443,-0.018312495201826096,-0.02642079070210457,-0.7743088775701383,0.7743088603019714,0.07918506860733032,-0.018313195556402206,-0.7742846517429259,0.5447832345962524,17,0.0,0.151982843875885,7.909843020570406e-07,0.0,False,True,False,False,False,False,0.23527851700782776,0.003610878484323621,-0.006199700757861137,2.1773166736238636e-06,-0.003076902125030756,0.17125578224658966,0.0951620414853096,0.0,-0.0014931231271475554,-0.051620591431856155,-0.052323415875434875,-0.05161897465586662
normal,99,False,-2.7867655754089355,-0.0012552905827760696,-0.7836025238747043,-1.5201818943023682,-0.018578730523586273,-0.9202380180358887,-0.026784341782331467,0.1710605025291443,0.09508131444454193,0.1710605025291443,0.09508131444454193,3.4212100505828857,0.05704878866672516,0.03499375656247139,0.05842642858624458,0.046710092574357986,-0.001253950409591198,-0.018577927723526955,-0.026783792302012444,-0.7836266963410637,0.7836267352104187,0.0868290439248085,-0.018578624352812767,-0.7836024705138513,0.5447832345962524,17,0.0,0.1597612500190735,7.913087074484793e-07,0.0,False,True,False,False,False,False,0.23536542057991028,0.0033257189206779003,-0.006479357834905386,1.5294465356419096e-06,-0.0029802871868014336,0.1710605025291443,0.09508131444454193,0.0,-0.0015674380119889975,-0.05224177986383438,-0.05308178439736366,-0.05224016308784485
normal,100,False,-2.778980255126953,-0.0013171574100852013,-0.7930737017368377,-1.5123995542526245,-0.018849968910217285,-0.9124569892883301,-0.027154751121997833,0.17120033502578735,0.09512999653816223,0.17120033502578735,0.09512999653816223,3.424006700515747,0.05707799792289733,0.03505474701523781,0.05842467024922371,0.04673970863223076,-0.0013158252695575356,-0.018849173560738564,-0.027154210954904556,-0.7930979809249029,0.793097972869873,0.08452808111906052,-0.01884986087679863,-0.7930737017368377,0.6965218186378479,18,0.0,0.16754227876663208,7.902326615294442e-07,0.0,False,True,False,False,False,False,0.2355697602033615,0.0035568540915846825,-0.006281073205173016,8.783952694102481e-07,-0.0015870318748056889,0.17120033502578735,0.09512999653816223,0.0,-0.001644781557843089,-0.05287319794297218,-0.0538567453622818,-0.05287158116698265
normal,101,False,-2.7711944580078125,-0.0013791350647807121,-0.8025621151544547,-1.504616618156433,-0.019121695309877396,-0.9046754837036133,-0.027525831013917923,0.17121151089668274,0.09513866156339645,0.17121151089668274,0.09513866156339645,3.424230217933655,0.05708319693803787,0.03519611433148384,0.05842602998018265,0.046811074018478394,-0.0013778038555756211,-0.019120901823043823,-0.027525290846824646,-0.80258639434252,0.8025863766670227,0.07702771574258804,-0.01912158541381359,-0.8025621151544547,0.6965218186378479,18,0.0,0.17532378435134888,7.905755410320126e-07,0.0,False,True,False,False,False,False,0.23572687804698944,0.0038837194442749023,-0.006060625892132521,1.7321107179668616e-06,-0.003102267859503627,0.17121151089668274,0.09513866156339645,0.0,-0.001722254790365696,-0.05350575968623161,-0.05463310331106186,-0.05350413918495178
normal,102,False,-2.763406991958618,-0.001444532535970211,-0.8120623213205607,-1.4968321323394775,-0.019397102296352386,-0.8968924283981323,-0.027900714427232742,0.17098990082740784,0.0951475277543068,0.17098990082740784,0.0951475277543068,3.4197980165481567,0.057088516652584076,0.03525589779019356,0.058419447392225266,0.04683767259120941,-0.0014432062162086368,-0.019396312534809113,-0.027900179848074913,-0.812086600508626,0.8120865821838379,0.06959003210067749,-0.019396990537643433,-0.8120623213205607,0.6965218186378479,18,0.0,0.18310683965682983,7.901186904746282e-07,0.0,False,True,False,False,False,False,0.23582835495471954,0.0037735863588750362,-0.006486578844487667,1.5041418919281568e-06,-0.0023691202513873577,0.17098990082740784,0.0951475277543068,0.0,-0.0018040077993646264,-0.05413910746574402,-0.05541997402906418,-0.05413748696446419
normal,103,False,-2.755615711212158,-0.00150966364890337,-0.8215558040192024,-1.489043951034546,-0.019672095775604248,-0.8891055583953857,-0.02827511355280876,0.1710086166858673,0.094953753054142,0.1710086166858673,0.094953753054142,3.420172333717346,0.05697225183248519,0.03531162813305855,0.05839672312140465,0.0468541756272316,-0.0015083382604643703,-0.019671307876706123,-0.028274578973650932,-0.8215801365681206,0.821580171585083,0.06223480775952339,-0.019671984016895294,-0.8215558040192024,0.6965218186378479,18,0.0,0.19089370965957642,7.904571361905255e-07,0.0,False,True,False,False,False,False,0.23556561768054962,0.0035540510434657335,-0.006285620387643576,1.8269377051183255e-06,-0.0030649336986243725,0.1710086166858673,0.094953753054142,0.0,-0.0018854228546842933,-0.05477200821042061,-0.05620567128062248,-0.05477038770914078
normal,104,False,-2.74782395362854,-0.0015750685706734657,-0.8311263397894183,-1.481255054473877,-0.019949065521359444,-0.881318211555481,-0.028652295470237732,0.17099614441394806,0.09505989402532578,0.17099614441394806,0.09505989402532578,3.419922888278961,0.057035936415195464,0.03545766323804855,0.058385636657476425,0.04692164808511734,-0.0015737386420369148,-0.01994827203452587,-0.028651757165789604,-0.8311506723383365,0.8311507105827332,0.05500035360455513,-0.01994895190000534,-0.8311263397894183,0.6965218186378479,18,0.0,0.1986810564994812,7.919179552118294e-07,0.0,False,True,False,False,False,False,0.23560065031051636,0.0036478224210441113,-0.006289124488830566,2.2038693714421242e-06,-0.0031051207333803177,0.17099614441394806,0.09505989402532578,0.0,-0.0019671733025461435,-0.05541004613041878,-0.05699700862169266,-0.05540842190384865
normal,105,False,-2.740034341812134,-0.0016421014443039894,-0.8406258522644366,-1.4734686613082886,-0.020226094871759415,-0.8735332489013672,-0.029028791934251785,0.1710972785949707,0.09494814276695251,0.1710972785949707,0.09494814276695251,3.421945571899414,0.056968885660171505,0.03551339730620384,0.058360498398542404,0.04693694785237312,-0.0016407739603891969,-0.02022530511021614,-0.029028257355093956,-0.8406501848133549,0.840650200843811,0.047943856567144394,-0.020225979387760162,-0.8406259056252896,0.6965218186378479,18,0.0,0.20646601915359497,7.919643962850387e-07,0.0,False,True,False,False,False,False,0.2355799823999405,0.0036996284034103155,-0.006407867651432753,6.026684218340961e-07,-0.0010773290414363146,0.1710972785949707,0.09494814276695251,0.0,-0.0020509674213826656,-0.0560433454811573,-0.05778851360082626,-0.05604172497987747
normal,106,False,-2.732247829437256,-0.0017104139551520348,-0.8501675731740916,-1.465685248374939,-0.020505333319306374,-0.8657512664794922,-0.029407940804958344,0.17107172310352325,0.09503143280744553,0.17107172310352325,0.09503143280744553,3.421434462070465,0.057018859684467314,0.035571031272411346,0.05836232006549835,0.04696667566895485,-0.0017090861219912767,-0.0205045435577631,-0.029407406225800514,-0.8501919057230097,0.8501918911933899,0.04115702584385872,-0.020505215972661972,-0.8501675731740916,0.6965218186378479,18,0.0,0.21424800157546997,7.926302600935742e-07,0.0,False,True,False,False,False,False,0.23560768365859985,0.0037133072037249804,-0.006140748504549265,1.3489596994986641e-06,-0.0025131534785032272,0.17107172310352325,0.09503143280744553,0.0,-0.002136357594281435,-0.056679461151361465,-0.05858633294701576,-0.056677836924791336
normal,107,False,-2.72446346282959,-0.0017809541895985603,-0.8598478722187037,-1.4579041004180908,-0.02078986167907715,-0.8579715490341187,-0.02979382872581482,0.17118550837039948,0.09512555599212646,0.17118550837039948,0.09512555599212646,3.4237101674079895,0.057075333595275876,0.03571610525250435,0.05838126689195633,0.04704868793487549,-0.0017796328756958246,-0.020789077505469322,-0.029793299734592438,-0.859872151406769,0.8598721623420715,0.034797318279743195,-0.020789742469787598,-0.8598478188578509,0.6965218186378479,18,0.0,0.2220277190208435,7.918462756606459e-07,0.0,False,True,False,False,False,False,0.23562869429588318,0.004083765204995871,-0.006319104228168726,2.162172449970967e-06,-0.002684526378288865,0.17118550837039948,0.09512555599212646,0.0,-0.00222454103641212,-0.05732480809092522,-0.05939926579594612,-0.057323187589645386
normal,108,False,-2.716677665710449,-0.0018515102565288544,-0.8694402859386048,-1.4501214027404785,-0.02107246406376362,-0.8501905202865601,-0.03017687238752842,0.17122766375541687,0.09501472860574722,0.17122766375541687,0.09501472860574722,3.4245532751083374,0.05700883716344833,0.03577042371034622,0.05837520956993103,0.047072816640138626,-0.0018501341110095382,-0.02107163891196251,-0.030176309868693352,-0.8694653121786106,0.8694653511047363,0.029136179015040398,-0.02107234299182892,-0.8694402859386048,0.6965218186378479,18,0.0,0.2298087477684021,7.980564191711892e-07,0.0,False,True,False,False,False,False,0.23540806770324707,0.0035975335631519556,-0.006337102502584457,1.90758214557718e-06,-0.0032374346628785133,0.17122766375541687,0.09501472860574722,0.0,-0.002312667667865753,-0.05796435475349426,-0.06020669639110565,-0.05796268582344055
normal,109,False,-2.7088916301727295,-0.0019231168553233147,-0.8790494549663136,-1.4423387050628662,-0.021356485784053802,-0.8424092531204224,-0.03056151047348976,0.1708858758211136,0.09503021836280823,0.1708858758211136,0.09503021836280823,3.4177175164222717,0.057018131017684937,0.03583233430981636,0.05836958438158035,0.047100961208343506,-0.0019217518856748939,-0.021355682983994484,-0.030560974031686783,-0.8790749080931425,0.8790749311447144,0.024664578959345818,-0.021356362849473953,-0.8790494549663136,0.6965218186378479,18,0.0,0.23759007453918457,7.624600470990117e-07,0.0,False,True,False,False,False,False,0.2355051189661026,0.003639875678345561,-0.006282594986259937,2.012803406614694e-06,-0.0029756624717265368,0.1708858758211136,0.09503021836280823,0.0,-0.0024021898861974478,-0.05860499292612076,-0.06101818010210991,-0.05860329791903496
normal,110,False,-2.7011044025421143,-0.0019952403381466866,-0.8887084630306223,-1.4345548152923584,-0.021642128005623817,-0.8346269130706787,-0.03094828873872757,0.17086417973041534,0.09501591324806213,0.17086417973041534,0.09501591324806213,3.417283594608307,0.05700954794883728,0.035981595516204834,0.058365315198898315,0.047173455357551575,-0.001993964659050107,-0.021641366183757782,-0.030947772786021233,-0.8887317283624827,0.8887317180633545,0.022116227075457573,-0.021642005071043968,-0.8887084096697695,0.6965218186378479,18,0.0,0.24537235498428345,7.946145501591673e-07,0.0,False,True,False,False,False,False,0.23553086817264557,0.003985155839473009,-0.0062827072106301785,1.3446609727907344e-06,-0.0025239153765141964,0.17086417973041534,0.09501591324806213,0.0,-0.002492455765604973,-0.05924878269433975,-0.06183430179953575,-0.059247225522994995
normal,111,False,-2.6933183670043945,-0.0020695356652140617,-0.8983761689139523,-1.426772117614746,-0.021930130198597908,-0.8268457651138306,-0.031337518244981766,0.17074546217918396,0.09505249559879303,0.17074546217918396,0.09505249559879303,3.414909243583679,0.05703149735927582,0.03603551536798477,0.05835689976811409,0.04719620943069458,-0.002068242523819208,-0.02192937210202217,-0.031337011605501175,-0.8984003947411647,0.8984004259109497,0.02216642163693905,-0.02193000540137291,-0.8983761689139523,0.6965218186378479,18,0.0,0.2531535029411316,7.903117875684984e-07,0.0,False,True,False,False,False,False,0.23563827574253082,0.0037976056337356567,-0.006191163789480925,1.4883070207361015e-06,-0.0028670798055827618,0.17074546217918396,0.09505249559879303,0.0,-0.0025853030383586884,-0.05989335849881172,-0.06265716254711151,-0.05989174544811249
normal,112,False,-2.6855318546295166,-0.002146715298295021,-0.9081314933177288,-1.4189889430999756,-0.022222958505153656,-0.8190642595291138,-0.03173249214887619,0.17058415710926056,0.09501838684082031,0.17058415710926056,0.09501838684082031,3.411683142185211,0.05701103210449218,0.036096539348363876,0.05835763365030289,0.04722708463668823,-0.0021454233210533857,-0.022222202271223068,-0.0317319892346859,-0.9081557191449412,0.9081557393074036,0.024801304563879967,-0.02222283184528351,-0.9081314933177288,0.6965218186378479,18,0.0,0.2609350085258484,7.90613341905555e-07,0.0,False,True,False,False,False,False,0.2356017529964447,0.004031719174236059,-0.0064194174483418465,1.8158954162572627e-06,-0.0027365335263311863,0.17058415710926056,0.09501838684082031,0.0,-0.002681779209524393,-0.060543712228536606,-0.06349380314350128,-0.06054209917783737
normal,113,False,-2.6777472496032715,-0.0022231852635741234,-0.9179081620626616,-1.4112077951431274,-0.022515542805194855,-0.8112847805023193,-0.032127443701028824,0.17070522904396057,0.09496266394853592,0.17070522904396057,0.09496266394853592,3.4141045808792114,0.05697759836912155,0.03624243289232254,0.05834724009037018,0.04729483649134636,-0.002221893984824419,-0.022514788433909416,-0.03212694078683853,-0.917932387889874,0.917932391166687,0.029327446594834328,-0.022515414282679558,-0.9179081620626616,0.6965218186378479,18,0.0,0.2687144875526428,7.909183068477432e-07,0.0,False,True,False,False,False,False,0.2353135049343109,0.003937720321118832,-0.006216335576027632,2.3633724595129024e-06,-0.0027194784488528967,0.17070522904396057,0.09496266394853592,0.0,-0.002777367364615202,-0.0611954927444458,-0.06432975828647614,-0.06119387596845627
normal,114,False,-2.6699657440185547,-0.0023013344034552574,-0.9276397942477546,-1.4034297466278076,-0.02280881069600582,-0.8035082817077637,-0.03252260759472847,0.17063497006893158,0.094927117228508,0.17063497006893158,0.094927117228508,3.4126994013786316,0.05695627033710479,0.03630053997039795,0.05832456052303314,0.047312550246715546,-0.0023000440560281277,-0.022808056324720383,-0.032522108405828476,-0.9276639133532611,0.9276639223098755,0.035017479211091995,-0.022808680310845375,-0.9276396875260488,0.6965218186378479,18,0.0,0.2764909863471985,7.912420869615744e-07,0.0,False,True,False,False,False,False,0.23531758785247803,0.0036349156871438026,-0.006383715663105249,2.0892166503472254e-06,-0.0031699235551059246,0.17063497006893158,0.094927117228508,0.0,-0.0028750551864504814,-0.06184425950050354,-0.06516765803098679,-0.061842646449804306
normal,115,False,-2.662182331085205,-0.0023796716704964638,-0.9373765490747251,-1.3956496715545654,-0.023102382197976112,-0.7957299947738647,-0.03291812911629677,0.1708175539970398,0.09521562606096268,0.1708175539970398,0.09521562606096268,3.416351079940796,0.057129375636577606,0.03636028617620468,0.05834284424781799,0.04735156521201134,-0.0023783892393112183,-0.02310163713991642,-0.03291763737797737,-0.9374006681802317,0.9374006986618042,0.04139649122953415,-0.023102249950170517,-0.9373764423530193,0.6965218186378479,18,0.0,0.2842692732810974,7.90168201092456e-07,0.0,False,True,False,False,False,False,0.23559360206127167,0.0038775538560003042,-0.0061820088885724545,2.2379658730642404e-06,-0.0026088159065693617,0.1708175539970398,0.09521562606096268,0.0,-0.002972986549139023,-0.062493376433849335,-0.06600642949342728,-0.0624917633831501
normal,116,False,-2.654397487640381,-0.002460695803165436,-0.9472438245478664,-1.3878685235977173,-0.023401524871587753,-0.7879505157470703,-0.0333205871284008,0.17087578773498535,0.09527187794446945,0.17087578773498535,0.09527187794446945,3.417515754699707,0.05716312676668167,0.0365108996629715,0.05837134271860123,0.04744112119078636,-0.002459414303302765,-0.02340077981352806,-0.033320095390081406,-0.9472681570967845,0.9472681879997253,0.04819437861442566,-0.02340139076113701,-0.9472438245478664,0.6965218186378479,18,0.0,0.29204875230789185,7.905103984739981e-07,0.0,False,True,False,False,False,False,0.23551321029663086,0.004130967427045107,-0.0060760872438549995,2.019049588852795e-06,-0.0028820917941629887,0.17087578773498535,0.09527187794446945,0.0,-0.003074267879128456,-0.06315121054649353,-0.0668611153960228,-0.0631495863199234
