Su2050/forklift_sim/outputs/exp83_single_point_steer_diag/exp83_force_steering_guidance_v3_seed42_point_ypos0p1_yawneg4_normal_steps.csv
mode,step,done,root_x,root_y,root_yaw_deg,fork_center_x,fork_center_y,tip_x,tip_y,raw_drive,raw_steer,applied_drive,applied_steer,drive_target_rad_s,steer_target_rad,left_steer_joint_pos_rad,right_steer_joint_pos_rad,mean_steer_joint_pos_rad,root_y_signed_m,center_y_signed_m,tip_y_signed_m,yaw_err_signed_deg,yaw_err_abs_deg,d_traj_m,d_traj_signed_m,yaw_traj_signed_deg,traj_s_norm,traj_closest_idx,dist_front_m,insert_depth_m,pallet_disp_xy_m,hold_counter,inserted,push_free,hold_entry,clean_insert_ready,dirty_insert,success,policy_vx_r,policy_vy_r,policy_yaw_rate,policy_lift_pos,policy_lift_vel,policy_prev_drive,policy_prev_steer,policy_prev_lift,policy_y_err_obs,policy_yaw_err_obs,policy_d_traj_signed_obs,policy_yaw_traj_err_obs,steer_target_cmd,steer_target_abs,steer_guidance_gate,steer_enforce_gate,steer_penalty_gate,steer_match,steer_wrong_sign,steer_shortfall
normal,0,False,-3.5,0.10000000149011612,-3.9999995421277097,-2.2363834381103516,0.011639337986707687,-1.6378450393676758,-0.030214540660381317,nan,nan,nan,nan,nan,nan,0.0,0.0,0.0,0.10000000149011612,0.011639337986707687,-0.030214540660381317,-3.999999115240887,3.9999990463256836,0.0,0.0,0.6593821402439468,0.0,0,0.5578449964523315,0.0,0.0,0.0,False,True,False,False,False,False,0.0,0.0,0.0,0.0,0.0,0.0,0.0,0.0,0.125,-0.26666659116744995,0.0,0.04395880922675133,-0.10246312618255615,0.10246312618255615,0.05522434413433075,0.0,0.0,0.8975368738174438,False,0.10246312618255615
normal,1,False,-3.499781608581543,0.0998191311955452,-4.015895099873622,-2.236189842224121,0.011107910424470901,-1.6376628875732422,-0.030912019312381744,0.34295541048049927,0.23833893239498138,0.34295541048049927,0.23833893239498138,6.859108209609985,0.14300335943698883,0.031240183860063553,0.030995618551969528,0.03111790120601654,0.0998191311955452,0.011107916943728924,-0.030912009999155998,-4.015895099873622,4.015895366668701,0.000565592257771641,-0.0005139002460055053,0.6434866358588875,0.0,0,0.557662844657898,0.0,6.125415552560298e-08,0.0,False,True,False,False,False,False,-0.0010014483705163002,0.0006627066759392619,-0.011325127445161343,0.0,1.6397862054873258e-05,0.34295541048049927,0.23833893239498138,0.0,0.12477391213178635,-0.267726331949234,-0.001468286500312388,0.04289910942316055,-0.10379752516746521,0.10379752516746521,0.05662897601723671,0.0,0.0,0.6578635573387146,True,0.3421364426612854
normal,2,False,-3.4991672039031982,0.09953083842992783,-4.041070323380643,-2.235614538192749,0.010264411568641663,-1.63710618019104,-0.0320185050368309,0.371724009513855,0.2725779414176941,0.371724009513855,0.2725779414176941,7.4344801902771,0.16354676485061645,0.06281644105911255,0.062369365245103836,0.06259290128946304,0.09953083842992783,0.010264418087899685,-0.032018497586250305,-4.041070750267466,4.041070938110352,0.0015753189800307155,-0.0013078090269118547,0.6183114123518668,0.0,0,0.5571061372756958,0.0,6.125415552560298e-08,0.0,False,True,False,False,False,False,-0.0020169508643448353,0.000873945071361959,-0.01512060035020113,0.0,8.079925464699045e-06,0.371724009513855,0.2725779414176941,0.0,0.12441354990005493,-0.26940470933914185,-0.003736597253009677,0.041220761835575104,-0.10590051114559174,0.10590051114559174,0.05884264409542084,0.0,0.0,0.621521532535553,True,0.378478467464447
normal,3,False,-3.498811721801758,0.09944082796573639,-4.0482757460681835,-2.2352700233459473,0.010015495121479034,-1.6367671489715576,-0.032342687249183655,0.37479376792907715,0.2762075662612915,0.37479376792907715,0.2762075662612915,7.495875358581543,0.1657245397567749,0.06978953629732132,0.07848121225833893,0.07413537800312042,0.09944082796573639,0.010015501640737057,-0.03234267979860306,-4.048276172955006,4.048276424407959,0.001968897646293044,-0.0015278980135917664,0.6111059896643265,0.0,0,0.5567671060562134,0.0,6.125415552560298e-08,0.0,False,True,False,False,False,False,0.026464462280273438,0.002451951615512371,-0.002519521163776517,2.929800075435196e-06,-0.0010894937440752983,0.37479376792907715,0.2762075662612915,0.0,0.12430103123188019,-0.2698850631713867,-0.0043654232285916805,0.040740400552749634,-0.10650254040956497,0.10650254040956497,0.05947636067867279,0.0,0.0,0.6172899007797241,True,0.3827100992202759
normal,4,False,-3.4972808361053467,0.09935201704502106,-4.052165111913682,-2.2337453365325928,0.009840920567512512,-1.6352453231811523,-0.0325578898191452,0.3748469352722168,0.2764268219470978,0.3748469352722168,0.2764268219470978,7.496938705444336,0.16585609316825867,0.07006815820932388,0.0977213904261589,0.0838947743177414,0.09935201704502106,0.009840927086770535,-0.032557882368564606,-4.052165111913682,4.0521650314331055,0.0031927863601595163,-0.0015780380927026272,0.6072166238188274,0.0,0,0.5552452802658081,0.0,6.125415552560298e-08,0.0,False,True,False,False,False,False,0.05910029262304306,0.0038987237494438887,-0.002029125113040209,4.417586751515046e-06,-0.0010083080269396305,0.3748469352722168,0.2764268219470978,0.0,0.12419001758098602,-0.27014434337615967,-0.004508680198341608,0.04048110917210579,-0.10681089013814926,0.10681089013814926,0.05980093777179718,0.0,0.0,0.6167622804641724,True,0.38323771953582764
normal,5,False,-3.4946882724761963,0.09919948875904083,-4.058524444917787,-2.2311627864837646,0.009548153728246689,-1.6326674222946167,-0.0329170823097229,0.37489593029022217,0.2764805257320404,0.37489593029022217,0.2764805257320404,7.497918605804443,0.16588831543922425,0.07015959173440933,0.11365080624818802,0.09190519899129868,0.09919962286949158,0.009548231028020382,-0.03291703388094902,-4.058527006238726,4.058526992797852,0.005623900331556797,-0.0016600446542724967,0.6008573441755752,0.0,0,0.5526673793792725,0.0,3.641417123390056e-08,0.0,False,True,False,False,False,False,0.09056014567613602,0.004089110530912876,-0.003095328575000167,5.238181074673776e-06,-0.002515820786356926,0.37489593029022217,0.2764805257320404,0.0,0.12399952858686447,-0.27056846022605896,-0.004742984659969807,0.04005715623497963,-0.10731923580169678,0.10731923580169678,0.06033603847026825,0.0,0.0,0.6162002086639404,True,0.3837997615337372
normal,6,False,-3.491088628768921,0.09898641705513,-4.067387896026348,-2.227576971054077,0.00913962721824646,-1.6290881633758545,-0.0334181934595108,0.3750501871109009,0.2767786979675293,0.3750501871109009,0.2767786979675293,7.501003742218018,0.16606721878051758,0.0702851191163063,0.1275915950536728,0.09893836081027985,0.09898671507835388,0.009139829315245152,-0.03341803699731827,-4.06739216489458,4.067392349243164,0.003040550509467721,-0.001837042742408812,2.0246315676450366,0.009893262758851051,1,0.5490883588790894,0.0,2.709583668547566e-07,0.0,False,True,False,False,False,False,0.1198868602514267,0.0045036859810352325,-0.004397600889205933,3.4096785839210497e-06,-0.004818623885512352,0.3750501871109009,0.2767786979675293,0.0,0.12373339384794235,-0.27115947008132935,-0.005248693749308586,0.13497543334960938,-0.08418648689985275,0.08418648689985275,0.03598577529191971,0.0,0.0,0.6390348076820374,True,0.36096519231796265
normal,7,False,-3.4865899085998535,0.09871914982795715,-4.07842292040415,-2.223095417022705,0.008629001677036285,-1.624614953994751,-0.034044086933135986,0.3714222013950348,0.27176326513290405,0.3714222013950348,0.27176326513290405,7.428444027900696,0.16305795907974244,0.07076650112867355,0.13814377784729004,0.1044551432132721,0.09871930629014969,0.008629131130874157,-0.034043971449136734,-4.078424201064619,4.078424453735352,0.002802340080961585,-0.001869174069724977,2.013596543267235,0.009893262758851051,1,0.5446151494979858,0.0,2.522081388178776e-07,0.0,False,True,False,False,False,False,0.1451452225446701,0.005418778862804174,-0.00569393765181303,2.911908495661919e-06,-0.005038496106863022,0.3714222013950348,0.27176326513290405,0.0,0.12339913100004196,-0.2718949317932129,-0.005340497475117445,0.13423976302146912,-0.08500698953866959,0.08500698953866959,0.03684946149587631,0.0,0.0,0.6432297229766846,True,0.35677024722099304
normal,8,False,-3.4813590049743652,0.09840890765190125,-4.0914544944537115,-2.2178852558135986,0.00803140178322792,-1.6194143295288086,-0.03477780520915985,0.37113499641418457,0.27133387327194214,0.37113499641418457,0.27133387327194214,7.422699928283691,0.16280032396316527,0.07094975560903549,0.14613741636276245,0.10854358971118927,0.09840910881757736,0.008031556382775307,-0.034777671098709106,-4.091456628887827,4.091456890106201,0.00315968063659966,-0.00197525299154222,3.4914070079424584,0.018403952941298485,2,0.5394145250320435,0.0,2.779334522529098e-07,0.0,False,True,False,False,False,False,0.1656484752893448,0.005923919379711151,-0.007093822117894888,1.5069191476868582e-06,-0.003988684620708227,0.37113499641418457,0.27133387327194214,0.0,0.12301138788461685,-0.27276375889778137,-0.005643580108880997,0.2327604591846466,-0.06116454303264618,0.06116454303264618,0.011752150021493435,0.0,0.0,0.6675015687942505,True,0.3324984312057495
normal,9,False,-3.475525379180908,0.098063163459301,-4.106086467203171,-2.2120747566223145,0.007362984120845795,-1.613614797592163,-0.035599060356616974,0.36691683530807495,0.26578742265701294,0.36691683530807495,0.26578742265701294,7.338336706161499,0.15947245359420775,0.07117602229118347,0.15162131190299988,0.11139866709709167,0.09806326031684875,0.007363077253103256,-0.03559897094964981,-4.106087320976817,4.1060872077941895,0.0038651153445243835,-0.0018710847944021225,3.4767748217495873,0.018403952941298485,2,0.533614993095398,0.0,2.505702525468223e-07,0.0,False,True,False,False,False,False,0.182616725564003,0.009536623023450375,-0.00736423023045063,3.844056209345581e-06,-4.33590030297637e-05,0.36691683530807495,0.26578742265701294,0.0,0.12257907539606094,-0.27373915910720825,-0.005345956888049841,0.23178498446941376,-0.0621638260781765,0.0621638260781765,0.01280402671545744,0.0,0.0,0.6720487475395203,True,0.32795125246047974
normal,10,False,-3.4691977500915527,0.09768356382846832,-4.1219696452312125,-2.2057723999023438,0.006633151322603226,-1.6073243618011475,-0.03649479150772095,0.3665555417537689,0.2653050720691681,0.3665555417537689,0.2653050720691681,7.331110835075378,0.15918304324150084,0.07169752568006516,0.1554870307445526,0.11359228193759918,0.09768372774124146,0.00663328543305397,-0.0364946685731411,-4.121970925891682,4.121971130371094,0.0021227174438536167,-0.0017333683790639043,4.8650617835300425,0.025786833837628365,3,0.5273245573043823,0.0,2.8111364258620597e-07,0.0,False,True,False,False,False,False,0.19635386765003204,0.009618081152439117,-0.008140290156006813,3.3045869258785388e-06,0.000290793483145535,0.3665555417537689,0.2653050720691681,0.0,0.12210465967655182,-0.27479806542396545,-0.0049524810165166855,0.3243374526500702,-0.03983403742313385,0.03983403742313385,0.0,0.0,0.0,0.6948608756065369,True,0.30513912439346313
normal,11,False,-3.4624547958374023,0.09729017317295074,-4.144867427536857,-2.199065685272217,0.005734845995903015,-1.600635051727295,-0.037632256746292114,0.3624637722969055,0.25990694761276245,0.3624637722969055,0.25990694761276245,7.24927544593811,0.15594416856765747,0.07654839754104614,0.15692606568336487,0.1167372316122055,0.09729031473398209,0.005734968464821577,-0.03763214126229286,-4.1448682813105036,4.14486837387085,0.0016384145710617304,-0.0015639134217053652,5.941723712306193,0.03229581564664841,4,0.5206352472305298,0.0,2.5452956720073416e-07,0.0,False,True,False,False,False,False,0.20701342821121216,0.010634219273924828,-0.014800500124692917,0.0,0.001165143446996808,0.3624637722969055,0.25990694761276245,0.0,0.12161289155483246,-0.2763245403766632,-0.00446832412853837,0.39611491560935974,-0.022985056042671204,0.022985056042671204,0.0,0.0,0.0,0.7171080112457275,True,0.28289198875427246
normal,12,False,-3.455200433731079,0.0969248116016388,-4.172941212572902,-2.1918563842773438,0.004750464111566544,-1.5934470891952515,-0.038909852504730225,0.3589745759963989,0.2553364634513855,0.3589745759963989,0.2553364634513855,7.1794915199279785,0.1532018780708313,0.08528843522071838,0.15731962025165558,0.12130402773618698,0.09692499041557312,0.0047506047412753105,-0.038909729570150375,-4.172942920120195,4.172943115234375,0.0015848843613639474,-0.0012614515144377947,6.457658699849208,0.03818148374557495,5,0.5134472846984863,0.0,2.780449221972958e-07,0.0,False,True,False,False,False,False,0.21775837242603302,0.016433604061603546,-0.013473622500896454,9.570080874254927e-05,-0.0002525033778510988,0.3589745759963989,0.2553364634513855,0.0,0.1211562380194664,-0.27819618582725525,-0.0036041473504155874,0.43051058053970337,-0.015609242022037506,0.015609242022037506,0.0,0.0,0.0,0.72905433177948,True,0.2709456980228424
normal,13,False,-3.4479875564575195,0.0965472012758255,-4.203115707665549,-2.1846923828125,0.0037075281143188477,-1.5863059759140015,-0.040267929434776306,0.3570803701877594,0.25291159749031067,0.3570803701877594,0.25291159749031067,7.141607403755188,0.1517469584941864,0.09372628480195999,0.15838998556137085,0.12605813145637512,0.09654734283685684,0.0037076538428664207,-0.040267813950777054,-4.203116134552372,4.203116416931152,0.0020579358097165823,-0.000971421948634088,6.222988767893202,0.043690603226423264,6,0.5063061714172363,0.0,2.552171451952745e-07,0.0,False,True,False,False,False,False,0.22632311284542084,0.020712001249194145,-0.02093503810465336,7.798372081424532e-08,-0.00022009573876857758,0.3570803701877594,0.25291159749031067,0.0,0.1206841766834259,-0.2802077531814575,-0.0027754914481192827,0.4148659110069275,-0.02084656059741974,0.02084656059741974,0.0,0.0,0.0,0.7262418270111084,True,0.2737581729888916
normal,14,False,-3.4404256343841553,0.09620888531208038,-4.232430025809598,-2.177178144454956,0.0027228817343711853,-1.5788143873214722,-0.041558727622032166,0.35782739520072937,0.2538661062717438,0.35782739520072937,0.2538661062717438,7.156547904014587,0.15231966376304626,0.09815496951341629,0.15777434408664703,0.12796466052532196,0.09620904922485352,0.0027230100240558386,-0.04155861958861351,-4.23243173335689,4.232431888580322,0.0032116612419486046,-0.0006338199600577354,5.216553990389476,0.04906890541315079,7,0.49881458282470703,0.0,2.7484847464620543e-07,0.0,False,True,False,False,False,False,0.2329561859369278,0.011195171624422073,-0.012983660213649273,1.4190222827892285e-06,0.00034477643202990294,0.35782739520072937,0.2538661062717438,0.0,0.1202613115310669,-0.2821621000766754,-0.0018109142547473311,0.3477702736854553,-0.03886087238788605,0.03886087238788605,0.0,0.0,0.0,0.707273006439209,True,0.292726993560791
normal,15,False,-3.4326272010803223,0.09563984721899033,-4.273800481612365,-2.169447422027588,0.001241736114025116,-1.5711158514022827,-0.04347191005945206,0.3607030212879181,0.2576964497566223,0.3607030212879181,0.2576964497566223,7.214060425758362,0.15461786985397338,0.10425184667110443,0.15808382630348206,0.13116782903671265,0.09563992917537689,0.0012418304104357958,-0.043471809476614,-4.273800481612365,4.273800373077393,0.002344822743907571,-0.0008825301774777472,1.693116490169126,0.06041956692934036,9,0.4911160469055176,0.0,2.65319272330089e-07,0.0,False,True,False,False,False,False,0.2381318211555481,0.010582247748970985,-0.015226626768708229,1.2401013691487606e-06,-0.00010778802970889956,0.3607030212879181,0.2576964497566223,0.0,0.11954991519451141,-0.2849200367927551,-0.002521514892578125,0.11287443339824677,-0.09980116784572601,0.09980116784572601,0.052422281354665756,0.0,0.0,0.6425023674964905,True,0.3574976325035095
normal,16,False,-3.4246346950531006,0.0951952263712883,-4.305767474475317,-2.1615078449249268,9.236857295036316e-05,-1.5632011890411377,-0.04495509713888168,0.37120598554611206,0.2716478705406189,0.37120598554611206,0.2716478705406189,7.424119710922241,0.16298872232437134,0.10723107308149338,0.1606113165616989,0.13392119109630585,0.09519514441490173,9.233317541657016e-05,-0.04495510831475258,-4.3057653400412015,4.305765151977539,0.002040764782577753,-0.0011437039356678724,-0.2802063762656575,0.06689568608999252,10,0.48320138454437256,0.0,3.023760086762195e-07,0.0,False,True,False,False,False,False,0.2417697310447693,0.007718662731349468,-0.01566595956683159,1.3508380106941331e-05,-0.0002340610371902585,0.37120598554611206,0.2716478705406189,0.0,0.11899393051862717,-0.2870510220527649,-0.003267725696787238,-0.018680425360798836,-0.1344446837902069,0.1344446837902069,0.08888914436101913,0.0,0.0,0.5939074754714966,True,0.4060925543308258
normal,17,False,-3.4165101051330566,0.0947570651769638,-4.343593915872494,-2.1534461975097656,-0.0011796876788139343,-1.5551695823669434,-0.0466221421957016,0.3776245713233948,0.28008729219436646,0.3776245713233948,0.28008729219436646,7.5524914264678955,0.16805237531661987,0.11333794891834259,0.16314013302326202,0.1382390409708023,0.09475704282522202,-0.001179661019705236,-0.04662209376692772,-4.343592208325202,4.343592166900635,0.002772214123979211,-0.0017810246208682656,-2.1115216057279422,0.07424842566251755,11,0.4751697778701782,0.0,2.6036056510747585e-07,0.0,False,True,False,False,False,False,0.24596920609474182,0.025431934744119644,-0.023909632116556168,3.391582140466198e-05,-0.0015022250590845942,0.3776245713233948,0.28008729219436646,0.0,0.11844630539417267,-0.2895728051662445,-0.00508864177390933,-0.1407681107521057,-0.1671810895204544,0.1671810895204544,0.12334851920604706,0.0,0.0,0.5527316331863403,True,0.44726836681365967
normal,18,False,-3.4084107875823975,0.09431010484695435,-4.378691696696251,-2.1454060077667236,-0.0024003349244594574,-1.5471571683883667,-0.04820926487445831,0.38319775462150574,0.28753727674484253,0.38319775462150574,0.28753727674484253,7.663955092430115,0.17252236604690552,0.11723112314939499,0.1648186892271042,0.1410249024629593,0.0943102017045021,-0.0024002471473068,-0.04820918291807175,-4.378691696696251,4.378691673278809,0.004708137363195419,-0.0025815614499151707,-3.7032192849541934,0.08273706585168839,12,0.46715736389160156,0.0,2.7648056288853695e-07,0.0,False,True,False,False,False,False,0.24639654159545898,0.018555765971541405,-0.019546758383512497,2.872872983061825e-06,0.003739101579412818,0.38319775462150574,0.28753727674484253,0.0,0.11788775026798248,-0.2919127643108368,-0.007375889923423529,-0.24688127636909485,-0.1959063708782196,0.1959063708782196,0.15358565747737885,0.0,0.0,0.5165563821792603,True,0.48344364762306213
normal,19,False,-3.400158405303955,0.09379169344902039,-4.421314638438069,-2.137225866317749,-0.0038582831621170044,-1.5390113592147827,-0.050112247467041016,0.387340247631073,0.2931726574897766,0.387340247631073,0.2931726574897766,7.74680495262146,0.17590359449386597,0.12214213609695435,0.16752853989601135,0.14483533799648285,0.09379179775714874,-0.0038581949193030596,-0.05011216923594475,-4.421315065324892,4.4213151931762695,0.0058045960031449795,-0.003942853771150112,-3.745842226696012,0.08273706585168839,12,0.45901167392730713,0.0,3.0505341896969185e-07,0.0,False,True,False,False,False,False,0.25071850419044495,0.01980585791170597,-0.017434123903512955,5.561827492783777e-06,-0.0007081220392137766,0.387340247631073,0.2931726574897766,0.0,0.11723974347114563,-0.2947543263435364,-0.01126529648900032,-0.24972280859947205,-0.1994934380054474,0.1994934380054474,0.15736152231693268,0.0,0.0,0.5073338747024536,True,0.492666095495224
normal,20,False,-3.39176082611084,0.09334775805473328,-4.4634948985443055,-2.1289005279541016,-0.005231939256191254,-1.5307202339172363,-0.05192628502845764,0.38794130086898804,0.29391294717788696,0.38794130086898804,0.29391294717788696,7.758826017379761,0.17634776830673218,0.12853451073169708,0.16908185184001923,0.14880818128585815,0.09334767609834671,-0.0052319676615297794,-0.05192628502845764,-4.463492337223367,4.463492393493652,0.005346239544451237,-0.0,-4.4634948985443055,0.09262263029813766,13,0.4507204294204712,0.0,1.9090890646111802e-07,0.0,False,True,False,False,False,False,0.25408071279525757,0.02429477497935295,-0.025706611573696136,8.042645276873372e-06,-0.0007264596060849726,0.38794130086898804,0.29391294717788696,0.0,0.11668459326028824,-0.29756614565849304,-0.0,-0.29756632447242737,-0.2112393081188202,0.2112393081188202,0.16972559690475464,0.0,0.0,0.49484777450561523,True,0.5051522254943848
normal,21,False,-3.3833069801330566,0.0928926020860672,-4.5076392649237444,-2.120522975921631,-0.006660062819719315,-1.5223788022994995,-0.05381527543067932,0.38992661237716675,0.29660946130752563,0.38992661237716675,0.29660946130752563,7.798532247543335,0.1779656767845154,0.13359354436397552,0.17016316950321198,0.15187835693359375,0.0928923636674881,-0.006660171318799257,-0.0538153201341629,-4.507633715395044,4.507633686065674,0.011583289131522179,-0.0,-4.5076392649237444,0.09262263029813766,13,0.4423789978027344,0.0,2.923307249602658e-07,0.0,False,True,False,False,False,False,0.2562669515609741,0.01941983588039875,-0.02394215762615204,0.0,0.0006289046141318977,0.38992661237716675,0.29660946130752563,0.0,0.11611545085906982,-0.30050891637802124,-0.0,-0.3005092740058899,-0.21410267055034637,0.21410267055034637,0.1727396696805954,0.0,0.0,0.4892878532409668,True,0.5107121467590332
normal,22,False,-3.374419689178467,0.09244589507579803,-4.547913475364725,-2.111706018447876,-0.007994376122951508,-1.5135951042175293,-0.05557002127170563,0.39019304513931274,0.2969033122062683,0.39019304513931274,0.2969033122062683,7.803860902786255,0.178141987323761,0.13398678600788116,0.17344704270362854,0.15371692180633545,0.09244561195373535,-0.007994516752660275,-0.0555700920522213,-4.547907072062378,4.54790735244751,0.019964568316936493,-0.0,-4.547913475364725,0.09262263029813766,13,0.43359529972076416,0.0,2.865018586817314e-07,0.0,False,True,False,False,False,False,0.25833219289779663,0.010348794981837273,-0.02304224856197834,0.0002956611861009151,-0.006383340340107679,0.39019304513931274,0.2969033122062683,0.0,0.11555701494216919,-0.3031938076019287,-0.0,-0.30319422483444214,-0.2167326807975769,0.2167326807975769,0.17550809681415558,0.0,0.0,0.4863640069961548,True,0.5136359930038452
normal,23,False,-3.366197347640991,0.09191995859146118,-4.596488926968209,-2.103569269180298,-0.009590808302164078,-1.505499005317688,-0.057673513889312744,0.3903431296348572,0.29704779386520386,0.3903431296348572,0.29704779386520386,7.8068625926971436,0.17822867631912231,0.13863025605678558,0.17423424124717712,0.15643224120140076,0.09192002564668655,-0.009590739384293556,-0.05767344310879707,-4.596488500081386,4.5964884757995605,0.028117133304476738,-0.0,-4.596488926968209,0.09262263029813766,13,0.4254993200302124,0.0,3.083605122355948e-07,0.0,False,True,False,False,False,False,0.2618885338306427,0.027512023225426674,-0.021363794803619385,4.103862920601387e-06,0.01137735415250063,0.3903431296348572,0.29704779386520386,0.0,0.11490003019571304,-0.3064325749874115,-0.0,-0.3064326047897339,-0.21989759802818298,0.21989759802818298,0.1788395792245865,0.0,0.0,0.48305463790893555,True,0.5169453620910645
normal,24,False,-3.3574910163879395,0.09142953902482986,-4.642530378389619,-2.094944953918457,-0.011095814406871796,-1.4969134330749512,-0.05965910106897354,0.39056161046028137,0.2972402572631836,0.39056161046028137,0.2972402572631836,7.811232209205627,0.17834415435791015,0.1411190629005432,0.1762540340423584,0.1586865484714508,0.09142959117889404,-0.011095752939581871,-0.05965903773903847,-4.642530378389619,4.64253044128418,0.03676930069923401,-0.0,-4.642530805276442,0.09262263029813766,13,0.41691362857818604,0.0,2.7732281182579754e-07,0.0,False,True,False,False,False,False,0.2629223167896271,0.022353364154696465,-0.024196814745664597,1.7751493714968092e-06,-0.0014973388751968741,0.39056161046028137,0.2972402572631836,0.0,0.11428698897361755,-0.3095020353794098,-0.0,-0.3095020651817322,-0.22289279103279114,0.22289279103279114,0.18199242651462555,0.0,0.0,0.47986698150634766,True,0.5201330184936523
normal,25,False,-3.348555564880371,0.09084738790988922,-4.683682695025769,-2.08608341217041,-0.012584749609231949,-1.4880869388580322,-0.061577558517456055,0.39087775349617004,0.29769521951675415,0.39087775349617004,0.29769521951675415,7.817555069923401,0.17861713171005247,0.14611861109733582,0.1766459345817566,0.1613822728395462,0.09084725379943848,-0.012584792450070381,-0.06157756224274635,-4.683678853044361,4.683679103851318,0.045684270560741425,-0.0,-4.683683121912592,0.09262263029813766,13,0.4080871343612671,0.0,2.3392757952933607e-07,0.0,False,True,False,False,False,False,0.2624305486679077,0.03514322638511658,-0.028806833550333977,0.00011822080705314875,-0.006633833982050419,0.39087775349617004,0.29769521951675415,0.0,0.1135590672492981,-0.31224524974823,-0.0,-0.31224554777145386,-0.22565069794654846,0.22565069794654846,0.18489548563957214,0.0,0.0,0.476654052734375,True,0.523345947265625
normal,26,False,-3.3397133350372314,0.09039147198200226,-4.730337155925187,-2.0773258209228516,-0.014068633317947388,-1.4793695211410522,-0.06354835629463196,0.39122870564460754,0.29823559522628784,0.39122870564460754,0.29823559522628784,7.824574112892151,0.1789413571357727,0.14847563207149506,0.17772862315177917,0.16310212016105652,0.09039152413606644,-0.014068568125367165,-0.06354828178882599,-4.7303363021515406,4.7303361892700195,0.05452071130275726,-0.0,-4.730337582812011,0.09262263029813766,13,0.39936983585357666,0.0,3.398309047497605e-07,0.0,False,True,False,False,False,False,0.26460281014442444,0.02369108609855175,-0.022380949929356575,0.00021678082703147084,-0.0009820121340453625,0.39122870564460754,0.29823559522628784,0.0,0.1129894033074379,-0.31535574793815613,-0.0,-0.3153558373451233,-0.2286626100540161,0.2286626100540161,0.18806591629981995,0.0,0.0,0.47310179471969604,True,0.526898205280304
normal,27,False,-3.3311870098114014,0.08995374292135239,-4.776915204083266,-2.06888484954834,-0.015532579272985458,-1.4709689617156982,-0.06549838930368423,0.39109495282173157,0.2981491982936859,0.39109495282173157,0.2981491982936859,7.821899056434631,0.17888951897621155,0.15018828213214874,0.17800629138946533,0.16409727931022644,0.08995360881090164,-0.01553262211382389,-0.06549838930368423,-4.776910935215034,4.776910781860352,0.06305819749832153,-0.0,-4.776915204083266,0.09262263029813766,13,0.3909691572189331,0.0,2.32907368058477e-07,0.0,False,True,False,False,False,False,0.2699563205242157,0.0219091959297657,-0.02502591721713543,2.2377503228199203e-06,-1.0303338058292866e-05,0.39109495282173157,0.2981491982936859,0.0,0.1124420091509819,-0.31846073269844055,-0.0,-0.31846100091934204,-0.2316596806049347,0.2316596806049347,0.1912207305431366,0.0,0.0,0.4701911211013794,True,0.5298088788986206
normal,28,False,-3.3222603797912598,0.08945073932409286,-4.829161455478809,-2.0600550174713135,-0.01718658208847046,-1.4621849060058594,-0.06769759207963943,0.3912903070449829,0.2983962893486023,0.3912903070449829,0.2983962893486023,7.825806140899658,0.17903777360916137,0.1533864140510559,0.1790727972984314,0.16622960567474365,0.08945079147815704,-0.017186516895890236,-0.06769751757383347,-4.829161028591986,4.829161167144775,0.07202565670013428,-0.0,-4.829161455478809,0.09262263029813766,13,0.3821852207183838,0.0,3.392298992821452e-07,0.0,False,True,False,False,False,False,0.2697260081768036,0.028714047744870186,-0.029269399121403694,3.929573324512603e-07,0.00041282971506007016,0.3912903070449829,0.2983962893486023,0.0,0.111813485622406,-0.32194405794143677,-0.0,-0.32194408774375916,-0.23502826690673828,0.23502826690673828,0.19476661086082458,0.0,0.0,0.4665754437446594,True,0.5334245562553406
normal,29,False,-3.313196897506714,0.0888591781258583,-4.8736178761259525,-2.051074504852295,-0.018757473677396774,-1.4532438516616821,-0.06973236054182053,0.3915753662586212,0.2988109588623047,0.3915753662586212,0.2988109588623047,7.831507325172424,0.17928657531738282,0.15513694286346436,0.18056565523147583,0.1678512990474701,0.08885904401540756,-0.018757520243525505,-0.06973236799240112,-4.873614461031368,4.873614311218262,0.081123948097229,-0.0,-4.873618303012776,0.09262263029813766,13,0.373244047164917,0.0,2.3016173145151697e-07,0.0,False,True,False,False,False,False,0.27072033286094666,0.02015829086303711,-0.02690560184419155,7.451167766703293e-05,-0.004001050256192684,0.3915753662586212,0.2988109588623047,0.0,0.1110738068819046,-0.3249076306819916,-0.0,-0.3249078691005707,-0.2379865050315857,0.2379865050315857,0.19788053631782532,0.0,0.0,0.4632025361061096,True,0.5367974638938904
normal,30,False,-3.304352283477783,0.08834841102361679,-4.924251349103726,-2.042325496673584,-0.0203835591673851,-1.4445401430130005,-0.07188674062490463,0.39173173904418945,0.2989920377731323,0.39173173904418945,0.2989920377731323,7.834634780883789,0.1793952226638794,0.1571354866027832,0.18121857941150665,0.16917702555656433,0.08834835141897202,-0.02038356475532055,-0.07188672572374344,-4.924249214669611,4.924249172210693,0.08967275172472,-0.0203834418207407,-4.9242509222169035,0.24385200440883636,15,0.36454033851623535,0.0,2.503552423149813e-07,0.0,False,True,False,False,False,False,0.2703801989555359,0.027259891852736473,-0.027957379817962646,2.3831196358514717e-06,-0.0005756277241744101,0.39173173904418945,0.2989920377731323,0.0,0.11043544113636017,-0.32828328013420105,-0.05823840573430061,-0.3282833993434906,-0.252911776304245,0.252911776304245,0.21359135210514069,0.0,0.0,0.4480961561203003,True,0.5519038438796997
normal,31,False,-3.29486083984375,0.08739727735519409,-4.996224040595913,-2.0329716205596924,-0.022919919341802597,-1.4352513551712036,-0.07517397403717041,0.39169132709503174,0.2990373969078064,0.39169132709503174,0.2990373969078064,7.833826541900635,0.17942243814468384,0.15927426517009735,0.18244153261184692,0.17085790634155273,0.08739715069532394,-0.02291996031999588,-0.07517396658658981,-4.9962201986145045,4.996220111846924,0.08127035945653915,-0.02291978895664215,-4.996224040595913,0.24385200440883636,15,0.3552515506744385,0.0,2.3184614406090986e-07,0.0,False,True,False,False,False,False,0.2774278521537781,0.02024891786277294,-0.014349861070513725,0.00032541638938710093,-0.010926179587841034,0.39169132709503174,0.2990373969078064,0.0,0.10924644023180008,-0.33308133482933044,-0.06548511236906052,-0.33308160305023193,-0.25914648175239563,0.25914648175239563,0.22015419602394104,0.0,0.0,0.4418160915374756,True,0.5581839084625244
normal,32,False,-3.2863192558288574,0.08687780052423477,-5.044262468575905,-2.0245230197906494,-0.024497363716363907,-1.4268467426300049,-0.07725254446268082,0.39172613620758057,0.29918795824050903,0.39172613620758057,0.29918795824050903,7.834522724151611,0.17951277494430543,0.16114704310894012,0.18392673134803772,0.17253687977790833,0.08687769621610641,-0.02449740655720234,-0.07725255936384201,-5.0442599072549665,5.044260025024414,0.07371260970830917,-0.024497224017977715,-5.044262468575905,0.24385200440883636,15,0.34684693813323975,0.0,3.0263763051152637e-07,0.0,False,True,False,False,False,False,0.2723780870437622,0.02913687564432621,-0.029669959098100662,6.238814762582479e-07,-0.00042133801616728306,0.39172613620758057,0.29918795824050903,0.0,0.10859712213277817,-0.33628398180007935,-0.0699920728802681,-0.33628416061401367,-0.2631770372390747,0.2631770372390747,0.22439689934253693,0.021020371466875076,0.004716906230896711,0.43763500452041626,True,0.5623649954795837
normal,33,False,-3.2772910594940186,0.08635767549276352,-5.097166552565885,-2.0155982971191406,-0.026182513684034348,-1.417970895767212,-0.07948953658342361,0.39205047488212585,0.29955044388771057,0.39205047488212585,0.29955044388771057,7.841009497642517,0.17973026633262634,0.16271667182445526,0.18458548188209534,0.1736510694026947,0.0863577276468277,-0.02618245594203472,-0.07948947697877884,-5.097165698792239,5.097165584564209,0.06601256132125854,-0.02618236467242241,-5.097166125679062,0.24385200440883636,15,0.3379710912704468,0.0,2.765956992334395e-07,0.0,False,True,False,False,False,False,0.272690087556839,0.040270909667015076,-0.015269679948687553,0.00017252146790269762,-0.10554315149784088,0.39205047488212585,0.29955044388771057,0.0,0.10794715583324432,-0.3398110568523407,-0.07480675727128983,-0.3398110866546631,-0.26755672693252563,0.26755672693252563,0.22900709509849548,0.0801926851272583,0.018364693969488144,0.4328927993774414,True,0.5671072006225586
normal,34,False,-3.2682766914367676,0.08581791818141937,-5.150042035138716,-2.006688356399536,-0.027886580675840378,-1.409110426902771,-0.08174510300159454,0.39347290992736816,0.3013887405395508,0.39347290992736816,0.3013887405395508,7.869458198547363,0.18083324432373046,0.16392527520656586,0.18535205721855164,0.17463865876197815,0.08581797033548355,-0.027886509895324707,-0.08174502849578857,-5.150041608251892,5.150041580200195,0.05873100459575653,-0.027886420488357544,-5.150042035138716,0.24385200440883636,15,0.32911062240600586,0.0,2.5574266260264267e-07,0.0,False,True,False,False,False,False,0.27305564284324646,0.027169005945324898,-0.027486877515912056,8.338551538145111e-07,0.0003010679502040148,0.39347290992736816,0.3013887405395508,0.0,0.10727246105670929,-0.3433361053466797,-0.07967548817396164,-0.3433361351490021,-0.27195653319358826,0.27195653319358826,0.2336384654045105,0.13926246762275696,0.0325370691716671,0.4266546964645386,True,0.5733453035354614
normal,35,False,-3.2592389583587646,0.08527052402496338,-5.204366798476058,-1.9977588653564453,-0.02963009476661682,-1.4002323150634766,-0.08405518531799316,0.39246952533721924,0.30013442039489746,0.39246952533721924,0.30013442039489746,7.849390506744385,0.18008065223693848,0.16579680144786835,0.18596035242080688,0.1758785843849182,0.08527054637670517,-0.029630057513713837,-0.08405514806509018,-5.204366371589235,5.204366207122803,0.05202162265777588,-0.02962992526590824,-5.204366798476058,0.24385200440883636,15,0.3202323913574219,0.0,1.5911719231098687e-07,0.0,False,True,False,False,False,False,0.27180930972099304,0.027145111933350563,-0.03178275376558304,0.0,0.0010005932999774814,0.39246952533721924,0.30013442039489746,0.0,0.10658818483352661,-0.3469577431678772,-0.08465693145990372,-0.3469577729701996,-0.2764687240123749,0.2764687240123749,0.23838813602924347,0.19845068454742432,0.047308288514614105,0.4233968257904053,True,0.5766031742095947
normal,36,False,-3.2502801418304443,0.08471276611089706,-5.259576925084564,-1.9889113903045654,-0.03140335902571678,-1.3914375305175781,-0.08640419691801071,0.39255911111831665,0.3002839684486389,0.39255911111831665,0.3002839684486389,7.851182222366333,0.18017038106918334,0.16695958375930786,0.18708564341068268,0.17702260613441467,0.08471260219812393,-0.03140343353152275,-0.0864042192697525,-5.2595722293295095,5.259572505950928,0.046218421310186386,-0.031403180211782455,-5.259576498197741,0.24385200440883636,15,0.311437726020813,0.0,2.2321775361433538e-07,0.0,False,True,False,False,False,False,0.2712986171245575,0.04274574667215347,-0.021629417315125465,9.987470548367128e-06,-0.00810557696968317,0.39255911111831665,0.3002839684486389,0.0,0.10589075088500977,-0.35063815116882324,-0.0897233709692955,-0.35063841938972473,-0.28105586767196655,0.28105586767196655,0.24321670830249786,0.2570817768573761,0.06252658367156982,0.41866016387939453,True,0.5813398361206055
normal,37,False,-3.2412288188934326,0.08403176069259644,-5.3200783138657135,-1.9799833297729492,-0.03341624140739441,-1.3825680017471313,-0.08904795348644257,0.3928081691265106,0.3007035553455353,0.3928081691265106,0.3007035553455353,7.856163382530212,0.18042213320732117,0.1687825620174408,0.18778996169567108,0.17828625440597534,0.08403179049491882,-0.03341619297862053,-0.08904789388179779,-5.320077460092067,5.320077419281006,0.041722942143678665,-0.03341605141758919,-5.3200783138657135,0.24385200440883636,15,0.30256831645965576,0.0,3.0746736001674435e-07,0.0,False,True,False,False,False,False,0.2757311761379242,0.03405323624610901,-0.031187664717435837,3.564967528291163e-06,0.0019256498198956251,0.3928081691265106,0.3007035553455353,0.0,0.10503973811864853,-0.354671835899353,-0.09547443687915802,-0.3546718955039978,-0.28616178035736084,0.28616178035736084,0.2485913634300232,0.31621116399765015,0.07860736548900604,0.41313469409942627,True,0.5868653059005737
normal,38,False,-3.2320895195007324,0.08344876021146774,-5.377200893441823,-1.9709618091583252,-0.03525662049651146,-1.3736021518707275,-0.09148391336202621,0.39292120933532715,0.3009495139122009,0.39292120933532715,0.3009495139122009,7.858424186706543,0.18056970834732056,0.1698303520679474,0.18902571499347687,0.17942804098129272,0.08344881236553192,-0.03525656461715698,-0.09148385375738144,-5.377200466554999,5.377200603485107,0.03870146721601486,-0.03525641933083534,-5.377200893441823,0.24385200440883636,15,0.2936023473739624,0.0,2.765935107618134e-07,0.0,False,True,False,False,False,False,0.27593088150024414,0.02978930063545704,-0.02841024287045002,6.170824235596228e-06,0.0031194952316582203,0.39292120933532715,0.3009495139122009,0.0,0.1043110191822052,-0.3584800362586975,-0.10073263198137283,-0.3584800660610199,-0.290914386510849,0.290914386510849,0.2535941004753113,0.3759843111038208,0.09534740447998047,0.40813612937927246,True,0.5918638706207275
normal,39,False,-3.2230141162872314,0.08289790898561478,-5.44077202536807,-1.9620188474655151,-0.037206653505563736,-1.3647220134735107,-0.09409669786691666,0.3930011987686157,0.3010508418083191,0.3930011987686157,0.3010508418083191,7.8600239753723145,0.18063050508499146,0.1718955785036087,0.1893969625234604,0.18064627051353455,0.08289775997400284,-0.037206701934337616,-0.09409670531749725,-5.440767329613016,5.440767288208008,0.0378628708422184,-0.037206441164016724,-5.44077202536807,0.24385200440883636,15,0.2847222089767456,0.0,2.3430560247561516e-07,0.0,False,True,False,False,False,False,0.2740856111049652,0.028954537585377693,-0.03024628758430481,0.0,0.0002753729640971869,0.3930011987686157,0.3010508418083191,0.0,0.1036221981048584,-0.36271780729293823,-0.1063041165471077,-0.3627181351184845,-0.29609215259552,0.29609215259552,0.2590443789958954,0.4351852238178253,0.11273228377103806,0.4028570055961609,True,0.5971429944038391
normal,40,False,-3.2139813899993896,0.08231262117624283,-5.505338657365847,-1.9531223773956299,-0.03921288251876831,-1.355889916419983,-0.09677598625421524,0.3933553695678711,0.3014835715293884,0.3933553695678711,0.3014835715293884,7.867107391357422,0.18089014291763306,0.17372561991214752,0.18999239802360535,0.18185901641845703,0.08231253921985626,-0.0392129048705101,-0.09677597880363464,-5.505336096044909,5.505336284637451,0.03925781697034836,-0.0392126590013504,-5.50533908425267,0.24385200440883636,15,0.2758901119232178,0.0,2.4998652747854067e-07,0.0,False,True,False,False,False,False,0.272554486989975,0.03128034994006157,-0.030629903078079224,0.0,0.0020360322669148445,0.3933553695678711,0.3014835715293884,0.0,0.10289067029953003,-0.36702239513397217,-0.11203616857528687,-0.3670226037502289,-0.3013802170753479,0.3013802170753479,0.26461073756217957,0.49406588077545166,0.1307351440191269,0.39713621139526367,True,0.6028637886047363
normal,41,False,-3.2049455642700195,0.08171216398477554,-5.5626524822387164,-1.9442086219787598,-0.04107452556490898,-1.3470340967178345,-0.09923502057790756,0.393521785736084,0.3016911745071411,0.393521785736084,0.3016911745071411,7.87043571472168,0.18101470470428466,0.17459331452846527,0.19076569378376007,0.18267950415611267,0.08171205967664719,-0.04107454791665077,-0.09923501312732697,-5.562648640257309,5.562648773193359,0.04246850684285164,-0.04107429087162018,-5.5626524822387164,0.24385200440883636,15,0.26703429222106934,0.0,2.3121053516206302e-07,0.0,False,True,False,False,False,False,0.2734462320804596,0.030734220519661903,-0.03052908182144165,4.515393356996356e-06,-0.000638678262475878,0.393521785736084,0.3016911745071411,0.0,0.10214007645845413,-0.37084323167800903,-0.11735512316226959,-0.3708434998989105,-0.30616578459739685,0.30616578459739685,0.2696481943130493,0.5531046390533447,0.14914366602897644,0.39214301109313965,True,0.6078569889068604
normal,42,False,-3.1957499980926514,0.08109436184167862,-5.621219646824283,-1.9351391792297363,-0.04298098012804985,-1.3380244970321655,-0.10175187140703201,0.393754780292511,0.3020418882369995,0.393754780292511,0.3020418882369995,7.87509560585022,0.1812251329421997,0.17539222538471222,0.1919219046831131,0.18365706503391266,0.0810944065451622,-0.042980920523405075,-0.10175180435180664,-5.621218793050637,5.621218681335449,0.04734789580106735,-0.04298073425889015,-5.621219646824283,0.24385200440883636,15,0.25802481174468994,0.0,3.3811372190939437e-07,0.0,False,True,False,False,False,False,0.2750473916530609,0.030294477939605713,-0.029580924659967422,9.57123629632406e-05,-0.00010080763604491949,0.393754780292511,0.3020418882369995,0.0,0.1013680100440979,-0.3747479021549225,-0.12280210107564926,-0.37474796175956726,-0.31106072664260864,0.31106072664260864,0.27480074763298035,0.6131678819656372,0.16849899291992188,0.38689738512039185,True,0.6131026148796082
normal,43,False,-3.186802387237549,0.08048824220895767,-5.67836655894931,-1.9263160228729248,-0.0448443777859211,-1.329260230064392,-0.10421080142259598,0.3940255641937256,0.302346408367157,0.3940255641937256,0.302346408367157,7.880511283874512,0.1814078450202942,0.17627394199371338,0.1926947981119156,0.1844843626022339,0.08048812299966812,-0.04484441503882408,-0.10421079397201538,-5.6783631438547255,5.67836332321167,0.05323342978954315,-0.0448441207408905,-5.678366985836134,0.24385200440883636,15,0.24926042556762695,0.0,2.3200786358756886e-07,0.0,False,True,False,False,False,False,0.27506744861602783,0.030844397842884064,-0.030502833425998688,1.8327124053030275e-05,-0.0013717847177758813,0.3940255641937256,0.302346408367157,0.0,0.10061015188694,-0.3785575330257416,-0.12812605500221252,-0.37855780124664307,-0.31584054231643677,0.31584054231643677,0.2798321545124054,0.6715971231460571,0.18793447315692902,0.38181304931640625,True,0.6181869506835938
normal,44,False,-3.177537679672241,0.0798705443739891,-5.737234678745181,-1.9171807765960693,-0.046757087111473083,-1.3201862573623657,-0.106736920773983,0.3941836357116699,0.30266430974006653,0.3941836357116699,0.30266430974006653,7.883672714233398,0.1815985858440399,0.17710410058498383,0.19363637268543243,0.18537023663520813,0.07987058907747269,-0.04675702378153801,-0.10673685371875763,-5.737234251858358,5.737234115600586,0.06013760343194008,-0.046756818890571594,-5.737234678745181,0.24385200440883636,15,0.24018657207489014,0.0,3.387174274394056e-07,0.0,False,True,False,False,False,False,0.2764216959476471,0.02625766023993492,-0.03050118125975132,9.409495396539569e-05,-6.398151163011789e-05,0.3941836357116699,0.30266430974006653,0.0,0.09983823448419571,-0.38248229026794434,-0.1335909068584442,-0.3824823200702667,-0.32075661420822144,0.32075661420822144,0.28500697016716003,0.7320894598960876,0.208650603890419,0.37657904624938965,True,0.6234209537506104
normal,45,False,-3.168611764907837,0.07924553006887436,-5.795301531974045,-1.908383846282959,-0.04865935817360878,-1.3114503622055054,-0.10924419015645981,0.39428743720054626,0.3028375506401062,0.39428743720054626,0.3028375506401062,7.885748744010925,0.18170253038406373,0.1780531257390976,0.19440260529518127,0.18622785806655884,0.07924540340900421,-0.048659391701221466,-0.10924418270587921,-5.795297689992636,5.795297622680664,0.06738556176424026,-0.048659078776836395,-5.795301531974045,0.24385200440883636,15,0.23145055770874023,0.0,2.3132911053380667e-07,0.0,False,True,False,False,False,False,0.27702596783638,0.02805207669734955,-0.031652823090553284,7.078569979057647e-07,0.0013040758203715086,0.39428743720054626,0.3028375506401062,0.0,0.09905675053596497,-0.38635316491127014,-0.13902594149112701,-0.38635343313217163,-0.32562339305877686,0.32562339305877686,0.2901298999786377,0.7903295755386353,0.22929823398590088,0.37153905630111694,True,0.6284609436988831
normal,46,False,-3.15946364402771,0.0785892978310585,-5.8550571494751935,-1.8993698358535767,-0.05062984302639961,-1.3024998903274536,-0.11183720082044601,0.39446693658828735,0.3031144142150879,0.39446693658828735,0.3031144142150879,7.889338731765747,0.18186864852905274,0.17906510829925537,0.19524934887886047,0.18715722858905792,0.07858934998512268,-0.05062977969646454,-0.11183713376522064,-5.855056722588371,5.8550567626953125,0.07522043585777283,-0.05062955245375633,-5.8550571494751935,0.24385200440883636,15,0.22250020503997803,0.0,3.3833018164841633e-07,0.0,False,True,False,False,False,False,0.2765461206436157,0.02757631428539753,-0.029849210754036903,2.157738663299824e-06,-0.0005002417601644993,0.39446693658828735,0.3031144142150879,0.0,0.09823668748140335,-0.39033710956573486,-0.14465586841106415,-0.39033713936805725,-0.3306463956832886,0.3306463956832886,0.29541724920272827,0.8499985933303833,0.2511042356491089,0.36623919010162354,True,0.6337608098983765
normal,47,False,-3.1501030921936035,0.07786215096712112,-5.91830982383139,-1.8901526927947998,-0.05274801328778267,-1.2933506965637207,-0.11461425572633743,0.3946385383605957,0.3033876419067383,0.3946385383605957,0.3033876419067383,7.892770767211914,0.18203258514404297,0.18056313693523407,0.1964145302772522,0.18848884105682373,0.07786205410957336,-0.05274803563952446,-0.11461424082517624,-5.918306408736804,5.918306350708008,0.08359155058860779,-0.052747711539268494,-5.91830982383139,0.24385200440883636,15,0.21335089206695557,0.0,2.295775942684486e-07,0.0,False,True,False,False,False,False,0.27410486340522766,0.037184737622737885,-0.032687027007341385,0.00020359194604679942,-0.008143620565533638,0.3946385383605957,0.3033876419067383,0.0,0.0973275676369667,-0.3945537507534027,-0.15070775151252747,-0.3945539891719818,-0.335999995470047,0.335999995470047,0.30105262994766235,0.9109939932823181,0.2742571234703064,0.3606123924255371,True,0.6393876075744629
normal,48,False,-3.1411566734313965,0.07716427743434906,-5.979195837640176,-1.8813457489013672,-0.054784707725048065,-1.2846099138259888,-0.1172851175069809,0.3950164020061493,0.3040640950202942,0.3950164020061493,0.3040640950202942,7.900328040122986,0.1824384570121765,0.1813710331916809,0.1967819631099701,0.1890764981508255,0.07716435194015503,-0.054784633219242096,-0.11728504300117493,-5.9791962645269985,5.979196548461914,0.09179507941007614,-0.054784394800662994,-5.9791962645269985,0.24385200440883636,15,0.20461022853851318,0.0,3.0691424512951926e-07,0.0,False,True,False,False,False,False,0.27633774280548096,0.018735729157924652,-0.032236188650131226,8.170031651388854e-05,-0.0026549245230853558,0.3950164020061493,0.3040640950202942,0.0,0.09645543992519379,-0.3986130952835083,-0.1565268486738205,-0.3986130952835083,-0.3411508798599243,0.3411508798599243,0.30647459626197815,0.9692651033401489,0.29705512523651123,0.3547850251197815,True,0.6452149748802185
normal,49,False,-3.132206439971924,0.0765238106250763,-6.038683797103225,-1.8725330829620361,-0.05673311650753021,-1.275862455368042,-0.11985306441783905,0.39512020349502563,0.30410236120224,0.39512020349502563,0.30410236120224,7.902404069900513,0.182461416721344,0.18176770210266113,0.19744499027729034,0.18960633873939514,0.07652372866868973,-0.0567331425845623,-0.11985306441783905,-6.038681662669109,6.038681507110596,0.10009727627038956,-0.056732792407274246,-6.038683797103225,0.24385200440883636,15,0.19586265087127686,0.0,2.7440214012131037e-07,0.0,False,True,False,False,False,False,0.2749568819999695,0.023734351620078087,-0.030774394050240517,6.051146073104974e-08,0.00015991688997019082,0.39512020349502563,0.30410236120224,0.0,0.09565465897321701,-0.40257877111434937,-0.16209369897842407,-0.4025789201259613,-0.34613630175590515,0.34613630175590515,0.31172242760658264,1.0,0.31172242760658264,0.34976136684417725,True,0.6502386331558228
normal,50,False,-3.123178243637085,0.07580877095460892,-6.100445355786242,-1.8636493682861328,-0.05880594998598099,-1.2670470476150513,-0.12256903201341629,0.3952641487121582,0.3042750060558319,0.3952641487121582,0.3042750060558319,7.905282974243164,0.18256500363349915,0.1826571822166443,0.19736993312835693,0.1900135576725006,0.0758088007569313,-0.0588059164583683,-0.12256898730993271,-6.100445355786242,6.10044527053833,0.10225146263837814,-0.058805614709854126,-6.100445782673065,0.3950815796852112,16,0.18704736232757568,0.0,3.315646210921841e-07,0.0,False,True,False,False,False,False,0.27309051156044006,0.03778037801384926,-0.035449739545583725,0.0,0.00046067306539043784,0.3952641487121582,0.3042750060558319,0.0,0.09476099908351898,-0.4066963493824005,-0.16801604628562927,-0.4066963791847229,-0.3513689637184143,0.3513689637184143,0.3172304928302765,1.0,0.3172304928302765,0.34435606002807617,True,0.6556439399719238
normal,51,False,-3.1140735149383545,0.07512301951646805,-6.1614406526217484,-1.8546886444091797,-0.060832470655441284,-1.2581546306610107,-0.12523064017295837,0.3955550193786621,0.3046262264251709,0.3955550193786621,0.3046262264251709,7.911100387573242,0.18277573585510254,0.18359991908073425,0.19753612577915192,0.19056802988052368,0.07512307167053223,-0.06083240732550621,-0.1252305656671524,-6.1614406526217484,6.161440849304199,0.09632749855518341,-0.06083212420344353,-6.1614406526217484,0.3950815796852112,16,0.1781548261642456,0.0,2.1997713872679014e-07,0.0,False,True,False,False,False,False,0.27417606115341187,0.0329802930355072,-0.033115778118371964,4.547085154626984e-06,-0.0007629413739778101,0.3955550193786621,0.3046262264251709,0.0,0.09390383958816528,-0.4107626974582672,-0.1738060712814331,-0.4107626974582672,-0.3565133213996887,0.3565133213996887,0.3226456046104431,1.0,0.3226456046104431,0.3388604521751404,True,0.6611395478248596
normal,52,False,-3.1048595905303955,0.07438495010137558,-6.224710829337692,-1.845625638961792,-0.0629611536860466,-1.249163031578064,-0.12801802158355713,0.39569544792175293,0.30495917797088623,0.39569544792175293,0.30495917797088623,7.913908958435059,0.18297550678253174,0.18452411890029907,0.1978847086429596,0.19120441377162933,0.07438501715660095,-0.06296108663082123,-0.12801794707775116,-6.224710829337692,6.224710941314697,0.09094413369894028,-0.06296079605817795,-6.224710829337692,0.3950815796852112,16,0.16916334629058838,0.0,3.0556623187294463e-07,0.0,False,True,False,False,False,False,0.2750083804130554,0.028690675273537636,-0.033225610852241516,9.16895005502738e-05,0.00017531518824398518,0.39569544792175293,0.30495917797088623,0.0,0.09298127144575119,-0.4149807095527649,-0.17988799512386322,-0.4149807095527649,-0.36187970638275146,0.36187970638275146,0.32829442620277405,1.0,0.32829442620277405,0.3331611156463623,True,0.6668388843536377
normal,53,False,-3.0959854125976562,0.07369832694530487,-6.284084383132143,-1.8368945121765137,-0.06495261192321777,-1.2404996156692505,-0.13062754273414612,0.3958166837692261,0.30517446994781494,0.3958166837692261,0.30517446994781494,7.9163336753845215,0.18310468196868895,0.18492598831653595,0.198419451713562,0.19167271256446838,0.07369855791330338,-0.06495244055986404,-0.13062740862369537,-6.284086944453082,6.284087181091309,0.08634714782238007,-0.06495223939418793,-6.284084810018967,0.3950815796852112,16,0.16049981117248535,0.0,2.520224882118782e-07,0.0,False,True,False,False,False,False,0.2750377357006073,0.02693241648375988,-0.0317533053457737,9.639938980399165e-07,-9.846567991189659e-05,0.3958166837692261,0.30517446994781494,0.0,0.09212319552898407,-0.41893911361694336,-0.18557782471179962,-0.4189389944076538,-0.3669086694717407,0.3669086694717407,0.3335880637168884,1.0,0.3335880637168884,0.32791686058044434,True,0.6720831394195557
normal,54,False,-3.0869059562683105,0.07298814505338669,-6.344458132753179,-1.8279619216918945,-0.06698943674564362,-1.2316365242004395,-0.1332927644252777,0.3959653973579407,0.3053722679615021,0.3959653973579407,0.3053722679615021,7.9193079471588135,0.18322336077690124,0.1858210414648056,0.1987767368555069,0.19229888916015625,0.0729881227016449,-0.06698940694332123,-0.13329270482063293,-6.344455998319063,6.344456195831299,0.08238891512155533,-0.06698905676603317,-6.344458559640001,0.3950815796852112,16,0.15163671970367432,0.0,2.61413106272812e-07,0.0,False,True,False,False,False,False,0.273477166891098,0.03085625357925892,-0.03195235878229141,1.40492801392611e-07,0.00010310295328963548,0.3959653973579407,0.3053722679615021,0.0,0.09123515337705612,-0.4229637384414673,-0.1913973093032837,-0.4229638874530792,-0.3720356523990631,0.3720356523990631,0.3389849066734314,1.0,0.3389849066734314,0.3225920796394348,True,0.6774079203605652
normal,55,False,-3.0778892040252686,0.07199173420667648,-6.416690798320649,-1.819122552871704,-0.06957288831472397,-1.2228811979293823,-0.1366279423236847,0.39613354206085205,0.30566585063934326,0.39613354206085205,0.30566585063934326,7.922670841217041,0.18339951038360594,0.18518470227718353,0.19823706150054932,0.19171088933944702,0.07199182361364365,-0.0695728063583374,-0.13662786781787872,-6.4166912252074715,6.416691303253174,0.07981831580400467,-0.06957249343395233,-6.416690798320649,0.3950815796852112,16,0.14288151264190674,0.0,3.0530236472259276e-07,0.0,False,True,False,False,False,False,0.2756107747554779,0.029080085456371307,-0.029989270493388176,8.555156455258839e-06,0.0006859886343590915,0.39613354206085205,0.30566585063934326,0.0,0.08998978137969971,-0.4277794063091278,-0.19877855479717255,-0.4277793765068054,-0.37833595275878906,0.37833595275878906,0.34561678767204285,1.0,0.34561678767204285,0.3159981966018677,True,0.6840018033981323
normal,56,False,-3.0687382221221924,0.0710492804646492,-6.48718518074435,-1.8101465702056885,-0.07206398248672485,-1.2139883041381836,-0.1398525834083557,0.3963767886161804,0.3058921992778778,0.3963767886161804,0.3058921992778778,7.927535772323608,0.18353531956672667,0.186209574341774,0.19849619269371033,0.19235289096832275,0.07104933261871338,-0.07206393033266068,-0.13985252380371094,-6.487185607631173,6.487185478210449,0.07811552286148071,-0.07206357270479202,-6.487185607631173,0.3950815796852112,16,0.13398849964141846,0.0,3.045614960228704e-07,0.0,False,True,False,False,False,False,0.2778595983982086,0.03206603601574898,-0.03364241495728493,8.10208439361304e-06,-0.0011611221125349402,0.3963767886161804,0.3058921992778778,0.0,0.08881166577339172,-0.43247902393341064,-0.20589593052864075,-0.43247902393341064,-0.3844504654407501,0.3844504654407501,0.35205313563346863,1.0,0.35205313563346863,0.30965733528137207,True,0.6903426647186279
normal,57,False,-3.0595736503601074,0.07030782848596573,-6.548034482286347,-1.8011348247528076,-0.0741419792175293,-1.2050487995147705,-0.14256367087364197,0.3966435194015503,0.3063136637210846,0.3966435194015503,0.3063136637210846,7.932870388031006,0.18378819823265075,0.18732866644859314,0.1986834853887558,0.19300606846809387,0.07030772417783737,-0.07414201647043228,-0.14256367087364197,-6.548031067191762,6.548031330108643,0.07709549367427826,-0.07414155453443527,-6.548034055399524,0.3950815796852112,16,0.12504887580871582,0.0,1.580685733415521e-07,0.0,False,True,False,False,False,False,0.2759105861186981,0.03222736343741417,-0.033129457384347916,3.078455847571604e-05,-0.0009415557142347097,0.3966435194015503,0.3063136637210846,0.0,0.08788465708494186,-0.43653538823127747,-0.21183301508426666,-0.4365355968475342,-0.3896462917327881,0.3896462917327881,0.3575223982334137,1.0,0.3575223982334137,0.3040400743484497,True,0.6959599256515503
normal,58,False,-3.0505335330963135,0.06956513971090317,-6.61027756930585,-1.7922523021697998,-0.07625168561935425,-1.196241021156311,-0.14532089233398438,0.39676016569137573,0.30666735768318176,0.39676016569137573,0.30666735768318176,7.935203313827515,0.18400041460990904,0.18826603889465332,0.19835920631885529,0.1933126151561737,0.06956518441438675,-0.07625163346529007,-0.1453208327293396,-6.61027756930585,6.6102776527404785,0.07722978293895721,-0.07625124603509903,-6.610277996192673,0.3950815796852112,16,0.1162412166595459,0.0,2.1741185207702074e-07,0.0,False,True,False,False,False,False,0.27527713775634766,0.03008449263870716,-0.03397652879357338,0.0,-3.38558093062602e-05,0.39676016569137573,0.30666735768318176,0.0,0.08695647865533829,-0.4406851530075073,-0.21786071360111237,-0.4406851828098297,-0.3949432969093323,0.3949432969093323,0.3630982041358948,1.0,0.3630982041358948,0.2983893156051636,True,0.7016106843948364
normal,59,False,-3.041541576385498,0.06882783025503159,-6.671086316599651,-1.7834157943725586,-0.07832436263561249,-1.1874781847000122,-0.14802607893943787,0.397064208984375,0.30684894323349,0.397064208984375,0.30684894323349,7.9412841796875,0.184109365940094,0.18896524608135223,0.19843149185180664,0.19369837641716003,0.0688277930021286,-0.0783243402838707,-0.1480260193347931,-6.671083328391889,6.671083450317383,0.07839880883693695,-0.07832391560077667,-6.671086316599651,0.3950815796852112,16,0.10747838020324707,0.0,2.409762203114951e-07,0.0,False,True,False,False,False,False,0.2733252942562103,0.023372501134872437,-0.03404446691274643,2.3902689463284332e-06,-0.0074997879564762115,0.397064208984375,0.30684894323349,0.0,0.08603474497795105,-0.44473889470100403,-0.22378262877464294,-0.44473907351493835,-0.4001312553882599,0.4001312553882599,0.36855921149253845,1.0,0.36855921149253845,0.29301977157592773,True,0.7069802284240723
normal,60,False,-3.0324289798736572,0.06804725527763367,-6.733614564017002,-1.7744646072387695,-0.08047785609960556,-1.1786034107208252,-0.15082989633083344,0.3972766697406769,0.30716341733932495,0.3972766697406769,0.30716341733932495,7.945533394813538,0.18429805040359495,0.18839283287525177,0.1995885819196701,0.19399070739746094,0.06804749369621277,-0.08047767728567123,-0.1508297324180603,-6.733617125337941,6.733617305755615,0.08066799491643906,-0.08047739416360855,-6.733614564017002,0.3950815796852112,16,0.09860360622406006,0.0,2.576023803158023e-07,0.0,False,True,False,False,False,False,0.2736322283744812,0.032814376056194305,-0.03366377577185631,0.0,0.0004134480841457844,0.3972766697406769,0.30716341733932495,0.0,0.08505936712026596,-0.4489077925682068,-0.229935422539711,-0.44890764355659485,-0.4054911732673645,0.4054911732673645,0.374201238155365,1.0,0.374201238155365,0.28734540939331055,True,0.7126545906066895
normal,61,False,-3.0234766006469727,0.06727160513401031,-6.7930056201712015,-1.7656668424606323,-0.08255739510059357,-1.1698788404464722,-0.15352705121040344,0.3975350856781006,0.30735069513320923,0.3975350856781006,0.30735069513320923,7.950701713562012,0.18441041707992553,0.18773016333580017,0.19978970289230347,0.19375993311405182,0.06727183610200882,-0.08255722373723984,-0.1535269021987915,-6.79300818149214,6.793008327484131,0.08379237353801727,-0.08255692571401596,-6.7930056201712015,0.3950815796852112,16,0.08987903594970703,0.0,2.536892225180054e-07,0.0,False,True,False,False,False,False,0.27147039771080017,0.030491070821881294,-0.03206361457705498,1.99774785869522e-06,6.016832776367664e-05,0.3975350856781006,0.30735069513320923,0.0,0.08408979326486588,-0.45286720991134644,-0.2358769327402115,-0.4528670310974121,-0.4106208086013794,0.4106208086013794,0.37960085272789,1.0,0.37960085272789,0.2820284962654114,True,0.7179715037345886
normal,62,False,-3.0140485763549805,0.06612632423639297,-6.869393602074978,-1.7564396858215332,-0.0853794738650322,-1.1607468128204346,-0.15714338421821594,0.39762160181999207,0.3075529932975769,0.39762160181999207,0.3075529932975769,7.952432036399841,0.18453179597854613,0.18834860622882843,0.1994045227766037,0.19387656450271606,0.06612635403871536,-0.08537941426038742,-0.15714330971240997,-6.869392321414509,6.869392395019531,0.08857054263353348,-0.0853789821267128,-6.869393602074978,0.3950815796852112,16,0.08074700832366943,0.0,2.5567493366907e-07,0.0,False,True,False,False,False,False,0.27438032627105713,0.007867062464356422,-0.025822121649980545,0.0002912492782343179,-0.004930939991027117,0.39762160181999207,0.3075529932975769,0.0,0.08265794068574905,-0.45795947313308716,-0.24393995106220245,-0.4579595625400543,-0.4173855483531952,0.4173855483531952,0.3867216408252716,1.0,0.3867216408252716,0.2750614881515503,True,0.7249385118484497
normal,63,False,-3.005652904510498,0.06520639359951019,-6.933545726967499,-1.7482144832611084,-0.08770742267370224,-1.1526024341583252,-0.16013826429843903,0.397676944732666,0.3075592517852783,0.397676944732666,0.3075592517852783,7.95353889465332,0.18453555107116698,0.18953855335712433,0.19954100251197815,0.19453978538513184,0.06520629674196243,-0.08770744502544403,-0.16013824939727783,-6.933542311872914,6.933542251586914,0.09328938275575638,-0.08770692348480225,-6.933546153854323,0.3950815796852112,16,0.07260251045227051,0.0,1.706118126776346e-07,0.0,False,True,False,False,False,False,0.27239611744880676,0.022523242980241776,-0.03493478149175644,2.084687480419234e-07,0.0005289028631523252,0.397676944732666,0.3075592517852783,0.0,0.08150786906480789,-0.4622361361980438,-0.2505912184715271,-0.4622364044189453,-0.42301905155181885,0.42301905155181885,0.39265164732933044,1.0,0.39265164732933044,0.26942169666290283,True,0.7305783033370972
normal,64,False,-2.996539831161499,0.06438855826854706,-6.9953226535761495,-1.7392668724060059,-0.08988095074892044,-1.143733263015747,-0.1629539430141449,0.39804500341415405,0.30810219049453735,0.39804500341415405,0.30810219049453735,7.960900068283081,0.1848613142967224,0.19005322456359863,0.19996972382068634,0.1950114667415619,0.06438852101564407,-0.08988094329833984,-0.1629539132118225,-6.995320519142034,6.995320796966553,0.09868014603853226,-0.08988043665885925,-6.9953226535761495,0.3950815796852112,16,0.06373333930969238,0.0,1.1353704820749044e-07,0.0,False,True,False,False,False,False,0.271770715713501,0.029707521200180054,-0.03390858694911003,1.244614225015539e-07,0.0005025186110287905,0.39804500341415405,0.30810219049453735,0.0,0.08048564940690994,-0.46635469794273376,-0.2568012475967407,-0.4663548469543457,-0.42836660146713257,0.42836660146713257,0.39828062057495117,1.0,0.39828062057495117,0.2635312080383301,True,0.7364687919616699
normal,65,False,-2.9875833988189697,0.0635661780834198,-7.058004153363003,-1.7304800748825073,-0.09207868576049805,-1.1350266933441162,-0.16580314934253693,0.3982667326927185,0.30837488174438477,0.3982667326927185,0.30837488174438477,7.96533465385437,0.18502492904663084,0.1901373714208603,0.19986474514007568,0.19500106573104858,0.06356626749038696,-0.09207861870527267,-0.16580310463905334,-7.058005007136649,7.058004856109619,0.10455000400543213,-0.09207815676927567,-7.058004153363003,0.3950815796852112,16,0.055026888847351074,0.0,3.00197285696413e-07,0.0,False,True,False,False,False,False,0.27080410718917847,0.030470140278339386,-0.03113098070025444,0.0,0.0006605023518204689,0.3982667326927185,0.30837488174438477,0.0,0.0794578343629837,-0.47053366899490356,-0.2630804479122162,-0.4705336093902588,-0.4337838590145111,0.4337838590145111,0.4039829969406128,1.0,0.4039829969406128,0.25784122943878174,True,0.7421587705612183
normal,66,False,-2.978691577911377,0.0627591535449028,-7.118937978495979,-1.721754550933838,-0.0942225530743599,-1.1263798475265503,-0.16858023405075073,0.3984036445617676,0.3085278868675232,0.3984036445617676,0.3085278868675232,7.968072891235352,0.1851167321205139,0.19083616137504578,0.2001432478427887,0.19548970460891724,0.06483888626098633,-0.09264318645000458,-0.16723787784576416,-7.141746968342413,7.141746997833252,0.11077191680669785,-0.09422201663255692,-7.118937978495979,0.3950815796852112,16,0.050307273864746094,0.0,0.003962625749409199,0.0,False,True,False,False,False,False,0.26402735710144043,0.029977018013596535,-0.03090466558933258,2.6550878828857094e-05,-0.0027083021122962236,0.3984036445617676,0.3085278868675232,0.0,0.08104860782623291,-0.47611644864082336,-0.269205778837204,-0.4745958745479584,-0.43885430693626404,0.43885430693626404,0.40932032465934753,1.0,0.40932032465934753,0.25261783599853516,True,0.7473821640014648
normal,67,False,-2.9697556495666504,0.06193598359823227,-7.180812662187124,-1.7129888534545898,-0.09640302509069443,-1.1176948547363281,-0.17140361666679382,0.3986605107784271,0.3089938759803772,0.3986605107784271,0.3089938759803772,7.9732102155685425,0.1853963255882263,0.1912505179643631,0.19962263107299805,0.19543656706809998,0.0682702586054802,-0.09161622077226639,-0.16734980046749115,-7.251367662539709,7.251367568969727,0.11740542203187943,-0.09640247374773026,-7.180812662187124,0.3950815796852112,16,0.05083358287811279,0.0,0.013202906586229801,0.0,False,True,False,False,False,False,0.26424410939216614,0.020493071526288986,-0.03261004015803337,0.00018637401808518916,-0.005193472374230623,0.3986605107784271,0.3089938759803772,0.0,0.08533782511949539,-0.48342451453208923,-0.2754356563091278,-0.47872084379196167,-0.44384247064590454,0.44384247064590454,0.41457101702690125,1.0,0.41457101702690125,0.24716365337371826,True,0.7528363466262817
normal,68,False,-2.9613914489746094,0.06109568476676941,-7.24047351081354,-1.7047902345657349,-0.09855186939239502,-1.1095746755599976,-0.1741722822189331,0.3989925682544708,0.3093324303627014,0.3989925682544708,0.3093324303627014,7.9798513650894165,0.18559945821762083,0.1915334165096283,0.19984376430511475,0.19568859040737152,0.07221441715955734,-0.09036634862422943,-0.16737616062164307,-7.374235935519069,7.374236106872559,0.12397167086601257,-0.09855130314826965,-7.24047351081354,0.3950815796852112,16,0.051531076431274414,0.0,0.02195926569402218,0.0,False,True,False,False,False,False,0.2622619569301605,0.03156709671020508,-0.03236587345600128,1.5583018466713838e-06,-0.0023367346730083227,0.3989925682544708,0.3093324303627014,0.0,0.09026802331209183,-0.4916157126426697,-0.28157517313957214,-0.4826982319355011,-0.449047714471817,0.449047714471817,0.4200502336025238,1.0,0.4200502336025238,0.24161982536315918,True,0.7583801746368408
normal,69,False,-2.952306032180786,0.060284323990345,-7.301721524648336,-1.695876121520996,-0.10070643573999405,-1.1007417440414429,-0.17696309089660645,0.3993285894393921,0.30973750352859497,0.3993285894393921,0.30973750352859497,7.986571788787842,0.18584250211715697,0.19292084872722626,0.20016257464885712,0.1965417116880417,0.0770367980003357,-0.08867631107568741,-0.16716980934143066,-7.517124346729382,7.517124652862549,0.13121969997882843,-0.10070586204528809,-7.3017223784219825,0.3950815796852112,16,0.052146196365356445,0.0,0.03126246854662895,0.0,False,True,False,False,False,False,0.2583785653114319,0.03711877018213272,-0.0313856415450573,0.0003233861643821001,-0.023100271821022034,0.3993285894393921,0.30973750352859497,0.0,0.09629599750041962,-0.5011416077613831,-0.2877310514450073,-0.4867814779281616,-0.45463570952415466,0.45463570952415466,0.4259323179721832,1.0,0.4259323179721832,0.23562681674957275,True,0.7643731832504272
normal,70,False,-2.944103956222534,0.059239305555820465,-7.35317163211875,-1.6878191232681274,-0.102879598736763,-1.0927534103393555,-0.17967063188552856,0.3998584747314453,0.31056690216064453,0.3998584747314453,0.31056690216064453,7.997169494628906,0.1863401412963867,0.19240808486938477,0.19823235273361206,0.1953202188014984,0.0808505192399025,-0.08757217228412628,-0.16734912991523743,-7.640765284858599,7.640765190124512,0.13207276165485382,-0.10287901014089584,-7.3531707783451035,0.5463109612464905,17,0.052881717681884766,0.0,0.039830807596445084,0.0,False,True,False,False,False,False,0.25431615114212036,0.03893571346998215,-0.021295761689543724,0.0001596166694071144,-0.012654968537390232,0.3998584747314453,0.31056690216064453,0.0,0.10106314718723297,-0.5093843340873718,-0.2939400374889374,-0.4902113676071167,-0.4598231315612793,0.4598231315612793,0.43139275908470154,1.0,0.43139275908470154,0.22960996627807617,True,0.7703900337219238
normal,71,False,-2.935636281967163,0.05856756120920181,-7.402831376252974,-1.679492473602295,-0.1046401709318161,-1.0844935178756714,-0.18194693326950073,0.400024950504303,0.3106774091720581,0.400024950504303,0.3106774091720581,8.00049901008606,0.18640644550323485,0.193938747048378,0.19835957884788513,0.19614917039871216,0.0851527526974678,-0.0859769880771637,-0.16703617572784424,-7.764325114491422,7.764325141906738,0.12844723463058472,-0.10463957488536835,-7.402831376252974,0.5463109612464905,17,0.053471922874450684,0.0,0.04852696880698204,0.0,False,True,False,False,False,False,0.26129549741744995,0.02827458456158638,-0.032481834292411804,0.0002811776357702911,-5.1808543503284454e-05,0.400024950504303,0.3106774091720581,0.0,0.1064409390091896,-0.5176216959953308,-0.29897022247314453,-0.4935220777988434,-0.4644663631916046,0.4644663631916046,0.43628039956092834,1.0,0.43628039956092834,0.22485625743865967,True,0.7751437425613403
normal,72,False,-2.9271392822265625,0.05772834271192551,-7.463021564540065,-1.6711676120758057,-0.10679887235164642,-1.0762503147125244,-0.1847306489944458,0.40030956268310547,0.31101304292678833,0.40030956268310547,0.31101304292678833,8.00619125366211,0.186607825756073,0.19421616196632385,0.19739006459712982,0.19580310583114624,0.08978663384914398,-0.0845562294125557,-0.16713738441467285,-7.911033308995065,7.911033630371094,0.12563498318195343,-0.10679826140403748,-7.463021564540065,0.5463109612464905,17,0.05424809455871582,0.0,0.057324863970279694,0.0,False,False,False,False,False,False,0.2583937644958496,0.03185512498021126,-0.03189142048358917,1.1941806405957323e-06,-0.0004847090458497405,0.40030956268310547,0.31101304292678833,0.0,0.11223329603672028,-0.5274022221565247,-0.30513790249824524,-0.49753475189208984,-0.4703051447868347,0.4703051447868347,0.442426472902298,1.0,0.442426472902298,0.21868181228637695,True,0.781318187713623
normal,73,False,-2.9186949729919434,0.056883543729782104,-7.5230538047026,-1.6628963947296143,-0.10895955562591553,-1.0680609941482544,-0.18751461803913116,0.40062999725341797,0.31145375967025757,0.40062999725341797,0.31145375967025757,8.01259994506836,0.18687225580215452,0.19507837295532227,0.19741198420524597,0.19624517858028412,0.09502963721752167,-0.08279959112405777,-0.1670321524143219,-8.070274046852035,8.070274353027344,0.12338627874851227,-0.10895892977714539,-7.5230538047026,0.5463109612464905,17,0.055065274238586426,0.0,0.06606579571962357,0.0,False,False,False,False,False,False,0.25720787048339844,0.02679342031478882,-0.030792757868766785,0.0,3.767928865272552e-05,0.40062999725341797,0.31145375967025757,0.0,0.11878705024719238,-0.5380182862281799,-0.3113112449645996,-0.5015369057655334,-0.4763294458389282,0.4763294458389282,0.44876784086227417,1.0,0.44876784086227417,0.2122167944908142,True,0.7877832055091858
normal,74,False,-2.910325288772583,0.05603928118944168,-7.585397210125537,-1.654707908630371,-0.11117015033960342,-1.0599583387374878,-0.19037240743637085,0.40090203285217285,0.3118235170841217,0.40090203285217285,0.3118235170841217,8.018040657043457,0.187094110250473,0.19273383915424347,0.1974598914384842,0.19509686529636383,0.09931720048189163,-0.08170782029628754,-0.16745412349700928,-8.216299222438677,8.216299057006836,0.12177716195583344,-0.11116951704025269,-7.585397210125537,0.5463109612464905,17,0.05585765838623047,0.0,0.0747169628739357,0.0,False,False,False,False,False,False,0.2568255066871643,0.04336570203304291,-0.032934438437223434,0.0001056917171808891,-0.14317908883094788,0.40090203285217285,0.3118235170841217,0.0,0.12414649873971939,-0.5477532744407654,-0.3176271915435791,-0.5056931376457214,-0.4823983311653137,0.4823983311653137,0.455156147480011,1.0,0.455156147480011,0.2057781219482422,True,0.7942218780517578
normal,75,False,-2.9018311500549316,0.05518576502799988,-7.643587006759461,-1.6463842391967773,-0.11329878121614456,-1.0517154932022095,-0.19310502707958221,0.40297970175743103,0.31458327174186707,0.40297970175743103,0.31458327174186707,8.05959403514862,0.18874996304512023,0.19265834987163544,0.19837288558483124,0.19551561772823334,0.10382384061813354,-0.08031518757343292,-0.16753649711608887,-8.358639510968096,8.35863971710205,0.12062034755945206,-0.11329813301563263,-7.643587006759461,0.5463109612464905,17,0.05662739276885986,0.0,0.08351381868124008,0.0,False,False,False,False,False,False,0.2545108199119568,0.030324509367346764,-0.032227594405412674,3.3876538054755656e-06,-0.0010352418757975101,0.40297970175743103,0.31458327174186707,0.0,0.12977980077266693,-0.5572426319122314,-0.3237089514732361,-0.509572446346283,-0.48807138204574585,0.48807138204574585,0.46112778782844543,1.0,0.46112778782844543,0.19734537601470947,True,0.8026546239852905
normal,76,False,-2.893474817276001,0.05435167998075485,-7.701692279802406,-1.6381993293762207,-0.11540596187114716,-1.043611764907837,-0.19581523537635803,0.40173739194869995,0.31296634674072266,0.40173739194869995,0.31296634674072266,8.034747838973999,0.1877798080444336,0.19340071082115173,0.19887986779212952,0.19614028930664062,0.10858102887868881,-0.07873477041721344,-0.1674608439207077,-8.503902266688634,8.503902435302734,0.12008634209632874,-0.11540529876947403,-7.701692279802406,0.5463109612464905,17,0.05737948417663574,0.0,0.09215603023767471,0.0,False,False,False,False,False,False,0.25445908308029175,0.028094058856368065,-0.029386265203356743,9.76121782514383e-07,0.00011360569624230266,0.40173739194869995,0.31296634674072266,0.0,0.13572628796100616,-0.5669268369674683,-0.32972943782806396,-0.5134461522102356,-0.49371278285980225,0.49371278285980225,0.46706607937812805,1.0,0.46706607937812805,0.1933208703994751,True,0.8066791296005249
normal,77,False,-2.8851051330566406,0.05350252240896225,-7.75750858569975,-1.629995584487915,-0.1174779161810875,-1.0354866981506348,-0.19846639037132263,0.40189605951309204,0.3130752146244049,0.40189605951309204,0.3130752146244049,8.03792119026184,0.18784512877464293,0.19341933727264404,0.19949693977832794,0.1964581310749054,0.1131887435913086,-0.0771871954202652,-0.1673627495765686,-8.64388357863346,8.64388370513916,0.12010761350393295,-0.11747724562883377,-7.75750858569975,0.5463109612464905,17,0.05809485912322998,0.0,0.10079371929168701,0.0,False,False,False,False,False,False,0.25482040643692017,0.0317101776599884,-0.03243120014667511,5.447166131489212e-06,-0.001382968621328473,0.40189605951309204,0.3130752146244049,0.0,0.14148592948913574,-0.5762588977813721,-0.3356492817401886,-0.5171672105789185,-0.4991559386253357,0.4991559386253357,0.4727957248687744,1.0,0.4727957248687744,0.187768816947937,True,0.812231183052063
normal,78,False,-2.8766751289367676,0.05263441056013107,-7.814935108693924,-1.6217377185821533,-0.11960390955209732,-1.0273102521896362,-0.20118820667266846,0.4022884964942932,0.31360113620758057,0.4022884964942932,0.31360113620758057,8.045769929885864,0.18816068172454833,0.1939728856086731,0.20003671944141388,0.1970047950744629,0.11797641217708588,-0.07557752728462219,-0.16725841164588928,-8.78931025889408,8.789310455322266,0.12076938897371292,-0.1196032240986824,-7.814935108693924,0.5463109612464905,17,0.058820366859436035,0.0,0.10947749018669128,0.0,False,False,False,False,False,False,0.2539540231227875,0.03218682110309601,-0.032130975276231766,3.203821506758686e-06,-0.0005646114004775882,0.4022884964942932,0.31360113620758057,0.0,0.14747051894664764,-0.5859540104866028,-0.3417235016822815,-0.5209956765174866,-0.5047852993011475,0.5047852993011475,0.47872138023376465,1.0,0.47872138023376465,0.18161356449127197,True,0.818386435508728
normal,79,False,-2.8682966232299805,0.0518023744225502,-7.87013157492409,-1.613525629043579,-0.12164481729269028,-1.0191770792007446,-0.2038017213344574,0.40256696939468384,0.3140779733657837,0.40256696939468384,0.3140779733657837,8.051339387893677,0.1884467840194702,0.1940547078847885,0.20060710608959198,0.19733090698719025,0.1224868893623352,-0.07410670816898346,-0.1672273874282837,-8.928461702854749,8.928462028503418,0.12194321304559708,-0.12164412438869476,-7.87013157492409,0.5463109612464905,17,0.0595325231552124,0.0,0.11810122430324554,0.0,False,False,False,False,False,False,0.25373318791389465,0.02913159318268299,-0.030828943476080894,0.0,0.002742850687354803,0.40256696939468384,0.3140779733657837,0.0,0.153108611702919,-0.595230758190155,-0.34755465388298035,-0.5246754288673401,-0.510218620300293,0.510218620300293,0.4844406545162201,1.0,0.4844406545162201,0.17570340633392334,True,0.8242965936660767
normal,80,False,-2.8599495887756348,0.050923146307468414,-7.929208442376469,-1.6053581237792969,-0.12381771951913834,-1.0110944509506226,-0.20658740401268005,0.4028815031051636,0.3144206404685974,0.4028815031051636,0.3144206404685974,8.057630062103271,0.18865238428115844,0.1947222352027893,0.20087184011936188,0.197797030210495,0.1276223510503769,-0.07236067950725555,-0.16708685457706451,-9.083687997027043,9.083687782287598,0.12381824105978012,-0.12381701171398163,-7.929207588602822,0.5463109612464905,17,0.060320496559143066,0.0,0.12671472132205963,0.0,False,False,False,False,False,False,0.25312164425849915,0.03148460388183594,-0.03163862228393555,4.699609235103708e-06,-0.0014347900869324803,0.4028815031051636,0.3144206404685974,0.0,0.1595279425382614,-0.6055791974067688,-0.3537628948688507,-0.528613805770874,-0.5161195397377014,0.5161195397377014,0.4906521439552307,1.0,0.4906521439552307,0.16945981979370117,True,0.8305401802062988
normal,81,False,-2.8515589237213135,0.05001070350408554,-7.987580946570691,-1.5971462726593018,-0.1260082721710205,-1.0029672384262085,-0.20938333868980408,0.4032856822013855,0.31494736671447754,0.4032856822013855,0.31494736671447754,8.06571364402771,0.18896842002868652,0.1950506865978241,0.2015017420053482,0.19827622175216675,0.1327788531780243,-0.07060666382312775,-0.1669444739818573,-9.23957681954883,9.239577293395996,0.12625278532505035,-0.1260075569152832,-7.987580946570691,0.5463109612464905,17,0.06110036373138428,0.0,0.13535505533218384,0.0,False,False,False,False,False,False,0.25312384963035583,0.029243245720863342,-0.03025299683213234,3.760124309337698e-05,-0.003316855989396572,0.4032856822013855,0.31494736671447754,0.0,0.16597357392311096,-0.6159718036651611,-0.36002159118652344,-0.5325053930282593,-0.522034227848053,0.522034227848053,0.49687814712524414,1.0,0.49687814712524414,0.16301840543746948,True,0.8369815945625305
normal,82,False,-2.8432793617248535,0.04912693798542023,-8.045952596991265,-1.589046597480774,-0.12816989421844482,-0.994952917098999,-0.21215026080608368,0.40363332629203796,0.3154064416885376,0.40363332629203796,0.3154064416885376,8.07266652584076,0.18924386501312254,0.1957942694425583,0.20132406055927277,0.19855916500091553,0.1382502019405365,-0.0686975046992302,-0.1667226105928421,-9.402859321847155,9.402859687805176,0.12915894389152527,-0.12816916406154633,-8.045952596991265,0.5463109612464905,17,0.061926841735839844,0.0,0.14389128983020782,0.0,False,False,False,False,False,False,0.2536184787750244,0.029655933380126953,-0.03265434131026268,1.1205793271074072e-06,0.0009326162980869412,0.40363332629203796,0.3154064416885376,0.0,0.17281275987625122,-0.6268572807312012,-0.3661976158618927,-0.536396861076355,-0.528066873550415,0.528066873550415,0.5032283067703247,1.0,0.5032283067703247,0.15652668476104736,True,0.8434733152389526
normal,83,False,-2.834772825241089,0.04846653342247009,-8.094989086363725,-1.5806922912597656,-0.1299036592245102,-0.9866706132888794,-0.21439245343208313,0.40387392044067383,0.31576502323150635,0.40387392044067383,0.31576502323150635,8.077478408813477,0.1894590139389038,0.19625821709632874,0.2013489305973053,0.19880357384681702,0.14334020018577576,-0.06671733409166336,-0.16621550917625427,-9.54546940284879,9.545469284057617,0.1321583390235901,-0.1299029141664505,-8.094989086363725,0.5463109612464905,17,0.06256794929504395,0.0,0.1525508463382721,0.0,False,False,False,False,False,False,0.2581527829170227,0.02332407236099243,-0.03225712850689888,0.00033060723217204213,-0.0015985312638804317,0.40387392044067383,0.31576502323150635,0.0,0.1791752576828003,-0.6363646388053894,-0.3711511790752411,-0.539665937423706,-0.5330393314361572,0.5330393314361572,0.5084624886512756,1.0,0.5084624886512756,0.15119564533233643,True,0.8488043546676636
normal,84,False,-2.826106071472168,0.04754459857940674,-8.149270307245109,-1.572195053100586,-0.13201360404491425,-0.9782537221908569,-0.21706512570381165,0.40412864089012146,0.31618839502334595,0.40412864089012146,0.31618839502334595,8.08257281780243,0.18971303701400757,0.19638943672180176,0.20172275602817535,0.19905608892440796,0.14844244718551636,-0.06490272283554077,-0.16595815122127533,-9.696300470290181,9.696300506591797,0.13602851331233978,-0.13201284408569336,-8.149269453471463,0.5463109612464905,17,0.06324434280395508,0.0,0.16137567162513733,0.0,False,False,False,False,False,False,0.25475576519966125,0.03174975514411926,-0.03372910991311073,0.00026349863037467003,-0.02591482363641262,0.40412864089012146,0.31618839502334595,0.0,0.18555305898189545,-0.6464200019836426,-0.3771795630455017,-0.5432846546173096,-0.5386538505554199,0.5386538505554199,0.5143724679946899,1.0,0.5143724679946899,0.14515775442123413,True,0.8548422455787659
normal,85,False,-2.818182945251465,0.046478837728500366,-8.211365264536989,-1.564467191696167,-0.13443820178508759,-0.9706183671951294,-0.22013336420059204,0.40479111671447754,0.3170415163040161,0.40479111671447754,0.3170415163040161,8.09582233428955,0.19022490978240966,0.19650043547153473,0.20125828683376312,0.19887936115264893,0.15343454480171204,-0.06342211365699768,-0.1661408394575119,-9.857472444134972,9.85747241973877,0.14041559398174286,-0.1344374269247055,-8.211364410763341,0.5463109612464905,17,0.06420624256134033,0.0,0.16967187821865082,0.0,False,False,False,False,False,False,0.25363579392433167,0.03249817714095116,-0.029318515211343765,1.4053777874778461e-07,0.0005232669645920396,0.40479111671447754,0.3170415163040161,0.0,0.19179317355155945,-0.6571648120880127,-0.38410693407058716,-0.54742431640625,-0.5450765490531921,0.5450765490531921,0.5211332440376282,1.0,0.5211332440376282,0.13788193464279175,True,0.8621180653572083
normal,86,False,-2.80975341796875,0.04553437978029251,-8.27106794807207,-1.5562268495559692,-0.1366889774799347,-0.9624676704406738,-0.22300288081169128,0.4048284590244293,0.3171229362487793,0.4048284590244293,0.3171229362487793,8.096569180488586,0.19027376174926758,0.1970493644475937,0.20126599073410034,0.1991576850414276,0.15885035693645477,-0.06158693879842758,-0.16600167751312256,-10.021898149345628,10.02189826965332,0.14512993395328522,-0.1366882026195526,-8.27106794807207,0.5463109612464905,17,0.06502795219421387,0.0,0.17832797765731812,0.0,False,False,False,False,False,False,0.25397804379463196,0.018381722271442413,-0.034119125455617905,0.0,0.00017191137885674834,0.4048284590244293,0.3171229362487793,0.0,0.19856294989585876,-0.6681265234947205,-0.39053773880004883,-0.5514045357704163,-0.5512582063674927,0.5512582063674927,0.5276402235031128,1.0,0.5276402235031128,0.13161885738372803,True,0.868381142616272
normal,87,False,-2.8014183044433594,0.0445936918258667,-8.328748041839182,-1.5480759143829346,-0.13889147341251373,-0.9544038772583008,-0.22580307722091675,0.4050799608230591,0.31752097606658936,0.4050799608230591,0.31752097606658936,8.101599216461182,0.1905125856399536,0.19735823571681976,0.2016671597957611,0.19951269030570984,0.1643819808959961,-0.05970412492752075,-0.16584721207618713,-10.189544288749945,10.189544677734375,0.15010395646095276,-0.13889068365097046,-8.328748041839182,0.5463109612464905,17,0.06587517261505127,0.0,0.18688221275806427,0.0,False,False,False,False,False,False,0.2533740699291229,0.028194861486554146,-0.02989385463297367,6.24887263711571e-07,-0.00038317390135489404,0.4050799608230591,0.31752097606658936,0.0,0.20547747611999512,-0.6793029308319092,-0.3968305289745331,-0.5552498698234558,-0.5574485063552856,0.5574485063552856,0.534156322479248,1.0,0.534156322479248,0.125030517578125,True,0.874969482421875
normal,88,False,-2.7930641174316406,0.043671563267707825,-8.387293862083592,-1.539909839630127,-0.14109419286251068,-0.9463269710540771,-0.22861237823963165,0.40539342164993286,0.3179735541343689,0.40539342164993286,0.3179735541343689,8.107868432998657,0.19078413248062134,0.19755496084690094,0.20186221599578857,0.19970858097076416,0.16982759535312653,-0.05784562975168228,-0.16568784415721893,-10.354442130786978,10.354442596435547,0.1553843766450882,-0.1410933881998062,-8.387293862083592,0.5463109612464905,17,0.06668436527252197,0.0,0.1954316943883896,0.0,False,False,False,False,False,False,0.2527834475040436,0.028046872466802597,-0.026741204783320427,4.7970777814043686e-05,-0.047441232949495316,0.40539342164993286,0.3179735541343689,0.0,0.21228449046611786,-0.6902961134910583,-0.40312397480010986,-0.5591529011726379,-0.5635844469070435,0.5635844469070435,0.5406152009963989,1.0,0.5406152009963989,0.11844199895858765,True,0.8815580010414124
normal,89,False,-2.7847509384155273,0.042728595435619354,-8.44559635683882,-1.531785249710083,-0.1433122456073761,-0.9382917881011963,-0.2314344048500061,0.40621161460876465,0.31904566287994385,0.40621161460876465,0.31904566287994385,8.124232292175293,0.1914273977279663,0.19751012325286865,0.20231123268604279,0.19991067051887512,0.17541752755641937,-0.0559222549200058,-0.165501207113266,-10.523079501394593,10.523079872131348,0.1609310507774353,-0.14331142604351044,-8.445597210612467,0.5463109612464905,17,0.06753301620483398,0.0,0.20395739376544952,0.0,False,False,False,False,False,False,0.25207221508026123,0.02549222856760025,-0.027829255908727646,2.474784423611709e-06,-0.000601935142185539,0.40621161460876465,0.31904566287994385,0.0,0.21927191317081451,-0.701538622379303,-0.40946123003959656,-0.5630397796630859,-0.569800853729248,0.569800853729248,0.5471587777137756,1.0,0.5471587777137756,0.1111534833908081,True,0.8888465166091919
normal,90,False,-2.7763891220092773,0.041803255677223206,-8.504276219545693,-1.5236146450042725,-0.14552071690559387,-0.9302116632461548,-0.23425064980983734,0.4060087502002716,0.3188933730125427,0.4060087502002716,0.3188933730125427,8.120175004005432,0.19133602380752562,0.1979537457227707,0.202132448554039,0.20004309713840485,0.1806740164756775,-0.05420158803462982,-0.16545537114143372,-10.685792536670867,10.685792922973633,0.16673289239406586,-0.14551988244056702,-8.504276219545693,0.5463109612464905,17,0.06837153434753418,0.0,0.2125289887189865,0.0,False,False,False,False,False,False,0.25394323468208313,0.03242534026503563,-0.03273240476846695,4.586177510645939e-06,-0.00026937329676002264,0.4060087502002716,0.3188933730125427,0.0,0.22584252059459686,-0.7123861908912659,-0.41577109694480896,-0.5669517517089844,-0.5759543180465698,0.5759543180465698,0.5536361336708069,1.0,0.5536361336708069,0.10515230894088745,True,0.8948476910591125
normal,91,False,-2.768064260482788,0.040854811668395996,-8.564789988044714,-1.5154883861541748,-0.14779220521450043,-0.9221794605255127,-0.23714882135391235,0.40642693638801575,0.31939461827278137,0.40642693638801575,0.31939461827278137,8.128538727760315,0.19163677096366882,0.19855333864688873,0.2022274285554886,0.20039038360118866,0.18620966374874115,-0.05233173817396164,-0.16532188653945923,-10.854576756345638,10.85457706451416,0.17073601484298706,-0.14779135584831238,-8.564789134271066,0.6975403428077698,18,0.06922221183776855,0.0,0.2210593819618225,0.0,False,False,False,False,False,False,0.25304165482521057,0.03688880801200867,-0.04641186073422432,8.225618512369692e-05,-0.05403747037053108,0.40642693638801575,0.31939461827278137,0.0,0.23276208341121674,-0.7236384153366089,-0.4222610294818878,-0.5709859132766724,-0.5822725296020508,0.5822725296020508,0.5602868795394897,1.0,0.5602868795394897,0.09833288192749023,True,0.9016671180725098
normal,92,False,-2.759690999984741,0.039870187640190125,-8.62383782719312,-1.507310152053833,-0.15006761252880096,-0.9140937328338623,-0.24003563821315765,0.4075358510017395,0.32090651988983154,0.4075358510017395,0.32090651988983154,8.15071702003479,0.19254391193389891,0.19847014546394348,0.20289520919322968,0.20068266987800598,0.19178391993045807,-0.05042470991611481,-0.16515189409255981,-11.023523193013196,11.023523330688477,0.16881094872951508,-0.15006674826145172,-8.623838680966765,0.6975403428077698,18,0.07008695602416992,0.0,0.22964762151241302,0.0,False,False,False,False,False,False,0.2540660500526428,0.03487202152609825,-0.035679616034030914,3.2498945756742614e-08,0.00018360750982537866,0.4075358510017395,0.32090651988983154,0.0,0.2397298961877823,-0.7349015474319458,-0.42876213788986206,-0.5749225616455078,-0.5885526537895203,0.5885526537895203,0.5668975114822388,1.0,0.5668975114822388,0.0905408263206482,True,0.9094591736793518
normal,93,False,-2.7509071826934814,0.038707539439201355,-8.689421303603583,-1.4987444877624512,-0.1526636779308319,-0.905631422996521,-0.24331067502498627,0.4071085453033447,0.3204317092895508,0.4071085453033447,0.3204317092895508,8.142170906066895,0.19225902557373045,0.19829422235488892,0.2036847621202469,0.2009894847869873,0.19787514209747314,-0.04840991646051407,-0.16506801545619965,-11.211435357458587,11.211435317993164,0.16742758452892303,-0.15266279876232147,-8.689421303603583,0.6975403428077698,18,0.07091772556304932,0.0,0.23852872848510742,0.0,False,False,False,False,False,False,0.25477612018585205,0.04652116447687149,-0.0398249626159668,0.00043913815170526505,-0.00544480187818408,0.4071085453033447,0.3204317092895508,0.0,0.24734392762184143,-0.7474290132522583,-0.43617942929267883,-0.579294741153717,-0.5956332087516785,0.5956332087516785,0.5743507742881775,1.0,0.5743507742881775,0.08393508195877075,True,0.9160649180412292
normal,94,False,-2.7428877353668213,0.037752166390419006,-8.745813906712145,-1.4909141063690186,-0.15485137701034546,-0.8978904485702515,-0.24608208239078522,0.4076794385910034,0.32115277647972107,0.4076794385910034,0.32115277647972107,8.153588771820068,0.19269166588783262,0.19869978725910187,0.20328786969184875,0.2009938359260559,0.20320764183998108,-0.04658227413892746,-0.1649005115032196,-11.373097397376325,11.37309741973877,0.16640152037143707,-0.15485049784183502,-8.745813906712145,0.6975403428077698,18,0.0718538761138916,0.0,0.24685101211071014,0.0,False,False,False,False,False,False,0.2545807957649231,0.027527399361133575,-0.029876913875341415,3.345431832713075e-05,-0.0022789740469306707,0.4076794385910034,0.32115277647972107,0.0,0.25400954484939575,-0.7582064867019653,-0.4424299895763397,-0.58305424451828,-0.6016449928283691,0.6016449928283691,0.5806789398193359,1.0,0.5806789398193359,0.0772022008895874,True,0.9227977991104126
normal,95,False,-2.7345871925354004,0.03676079958677292,-8.80520154777176,-1.482813835144043,-0.15714028477668762,-0.8898851871490479,-0.24898561835289001,0.40769433975219727,0.3212006986141205,0.40769433975219727,0.3212006986141205,8.153886795043945,0.1927204191684723,0.1990719586610794,0.2038280963897705,0.20145002007484436,0.2090333104133606,-0.044528454542160034,-0.16463333368301392,-11.547179282526088,11.547179222106934,0.1657780557870865,-0.157139390707016,-8.80520154777176,0.6975403428077698,18,0.07271671295166016,0.0,0.25533387064933777,0.0,False,False,False,False,False,False,0.25309446454048157,0.031504761427640915,-0.033515263348817825,1.6080521163530648e-06,-0.0005443659611046314,0.40769433975219727,0.3212006986141205,0.0,0.26129162311553955,-0.7698119282722473,-0.44896969199180603,-0.5870134234428406,-0.608009934425354,0.608009934425354,0.5873788595199585,1.0,0.5873788595199585,0.07078933715820312,True,0.9292106628417969
normal,96,False,-2.7263362407684326,0.035721778869628906,-8.86095296687199,-1.4747521877288818,-0.15939727425575256,-0.8819131851196289,-0.25181952118873596,0.4080221951007843,0.32167190313339233,0.4080221951007843,0.32167190313339233,8.160443902015686,0.1930031418800354,0.19827918708324432,0.20396257936954498,0.20112088322639465,0.21472400426864624,-0.04253165423870087,-0.16438621282577515,-11.717765818368093,11.717765808105469,0.16556039452552795,-0.15939636528491974,-8.860953820645635,0.6975403428077698,18,0.07357525825500488,0.0,0.26376351714134216,0.0,False,False,False,False,False,False,0.2537565231323242,0.026815373450517654,-0.029451927170157433,0.0,0.005113102961331606,0.4080221951007843,0.32167190313339233,0.0,0.268405020236969,-0.7811843752861023,-0.455418199300766,-0.5907302498817444,-0.6142232418060303,0.6142232418060303,0.5939192175865173,1.0,0.5939192175865173,0.06410485506057739,True,0.9358951449394226
normal,97,False,-2.7179415225982666,0.03467322885990143,-8.917185060535058,-1.4665496349334717,-0.1616741120815277,-0.8738014698028564,-0.2546781301498413,0.40823298692703247,0.3218837380409241,0.40823298692703247,0.3218837380409241,8.16465973854065,0.19313024282455443,0.19841113686561584,0.20402775704860687,0.20121943950653076,0.2201223075389862,-0.040667824447155,-0.16419652104377747,-11.881085886706854,11.881086349487305,0.16575400531291962,-0.1616731882095337,-8.917185060535058,0.6975403428077698,18,0.0743793249130249,0.0,0.27231520414352417,0.0,False,False,False,False,False,False,0.25327250361442566,0.034449733793735504,-0.03258131444454193,0.0,-0.00015325855929404497,0.40823298692703247,0.3218837380409241,0.0,0.27515289187431335,-0.7920723557472229,-0.46192342042922974,-0.5944790244102478,-0.6203126907348633,0.6203126907348633,0.6003291606903076,1.0,0.6003291606903076,0.057803571224212646,True,0.9421964287757874
normal,98,False,-2.709648609161377,0.03351020812988281,-8.981552763273259,-1.4584779739379883,-0.16424281895160675,-0.8658348321914673,-0.25791269540786743,0.40875235199928284,0.32246091961860657,0.40875235199928284,0.32246091961860657,8.175047039985657,0.19347655177116393,0.19858860969543457,0.2035083770751953,0.20104849338531494,0.2252202033996582,-0.03917299211025238,-0.16440840065479279,-12.04768188452628,12.04768180847168,0.16669341921806335,-0.16424188017845154,-8.981552763273259,0.6975403428077698,18,0.07530021667480469,0.0,0.28084027767181396,0.0,False,False,False,False,False,False,0.254871666431427,0.028695615008473396,-0.030580326914787292,1.0253235814161599e-05,-0.003461199812591076,0.40875235199928284,0.32246091961860657,0.0,0.28152525424957275,-0.8031787872314453,-0.4692625403404236,-0.5987702012062073,-0.6270102858543396,0.6270102858543396,0.6073792576789856,1.0,0.6073792576789856,0.050528764724731445,True,0.9494712352752686
normal,99,False,-2.7011983394622803,0.03243335336446762,-9.03465236142823,-1.450211524963379,-0.16647911071777344,-0.85765540599823,-0.26069819927215576,0.40904349088668823,0.322849303483963,0.40904349088668823,0.322849303483963,8.180869817733765,0.1937095820903778,0.19919134676456451,0.2036348283290863,0.201413094997406,0.23047521710395813,-0.03731392323970795,-0.164157897233963,-12.204794164683145,12.204793930053711,0.16770151257514954,-0.16647815704345703,-9.034653215201876,0.6975403428077698,18,0.07607007026672363,0.0,0.28943878412246704,0.0,False,False,False,False,False,False,0.24930796027183533,0.05647873878479004,-0.0393754281103611,1.4205617844709195e-05,-0.008164825849235058,0.40904349088668823,0.322849303483963,0.0,0.28809401392936707,-0.8136529326438904,-0.47565189003944397,-0.6023101806640625,-0.6328408718109131,0.6328408718109131,0.6135166883468628,1.0,0.6135166883468628,0.04430985450744629,True,0.9556901454925537
normal,100,False,-2.692960023880005,0.03143377602100372,-9.090671865453382,-1.4421682357788086,-0.16870176792144775,-0.8497045040130615,-0.2635001540184021,0.40972840785980225,0.3237459361553192,0.40972840785980225,0.3237459361553192,8.194568157196045,0.19424756169319152,0.19982363283634186,0.20377464592456818,0.20179913938045502,0.23600128293037415,-0.0353822186589241,-0.16392868757247925,-12.371185256827472,12.371185302734375,0.16914002597332,-0.16870079934597015,-9.090671865453382,0.6975403428077698,18,0.07690691947937012,0.0,0.29783153533935547,0.0,False,False,False,False,False,False,0.2513006031513214,0.019522497430443764,-0.0334097258746624,6.819731765972392e-07,-9.89508698694408e-05,0.40972840785980225,0.3237459361553192,0.0,0.2950015962123871,-0.8247456550598145,-0.48200228810310364,-0.6060447692871094,-0.6389496922492981,0.6389496922492981,0.619947075843811,1.0,0.619947075843811,0.03730440139770508,True,0.9626955986022949
normal,101,False,-2.684626579284668,0.030383966863155365,-9.149571147987341,-1.4340412616729736,-0.1710372269153595,-0.8416752815246582,-0.2664446234703064,0.40967297554016113,0.32368147373199463,0.40967297554016113,0.32368147373199463,8.193459510803223,0.19420888423919677,0.19962437450885773,0.20449873805046082,0.20206156373023987,0.2413696050643921,-0.03353100270032883,-0.16374346613883972,-12.534105759099786,12.534106254577637,0.1710849553346634,-0.1710362434387207,-9.149571147987341,0.6975403428077698,18,0.0777050256729126,0.0,0.3063085079193115,0.0,False,False,False,False,False,False,0.2513742446899414,0.03220779821276665,-0.03196713328361511,4.023034989586449e-07,0.0014158808626234531,0.40967297554016113,0.32368147373199463,0.0,0.3017120063304901,-0.8356070518493652,-0.48867499828338623,-0.6099714040756226,-0.645112156867981,0.645112156867981,0.6264338493347168,1.0,0.6264338493347168,0.031206369400024414,True,0.9687936305999756
normal,102,False,-2.6763644218444824,0.02924761176109314,-9.213967025255867,-1.4260063171386719,-0.17357900738716125,-0.8337478637695312,-0.2696520984172821,0.4099867343902588,0.324105829000473,0.4099867343902588,0.324105829000473,8.199734687805176,0.19446349740028382,0.20015458762645721,0.2042485475540161,0.20220157504081726,0.24670547246932983,-0.031841643154621124,-0.16378134489059448,-12.703129889169153,12.703129768371582,0.1736249476671219,-0.17357800900936127,-9.213967025255867,0.6975403428077698,18,0.07860672473907471,0.0,0.3147701621055603,0.0,False,False,False,False,False,False,0.2519936263561249,0.029176238924264908,-0.03228314220905304,0.0,0.0005122339352965355,0.4099867343902588,0.324105829000473,0.0,0.3083818554878235,-0.8468753099441528,-0.49593716859817505,-0.6142644882202148,-0.6517583727836609,0.6517583727836609,0.6334298849105835,1.0,0.6334298849105835,0.024135828018188477,True,0.9758641719818115
normal,103,False,-2.668088674545288,0.028197601437568665,-9.273697883321276,-1.417942762374878,-0.1759324073791504,-0.8257848024368286,-0.27262288331985474,0.41028326749801636,0.32452237606048584,0.41028326749801636,0.32452237606048584,8.205665349960327,0.1947134256362915,0.20090483129024506,0.2049892395734787,0.20294703543186188,0.252456396818161,-0.029818184673786163,-0.16352349519729614,-12.87602161385604,12.876021385192871,0.176345095038414,-0.1759313941001892,-9.273698737094922,0.6975403428077698,18,0.07945263385772705,0.0,0.3231786787509918,0.0,False,False,False,False,False,False,0.2512763738632202,0.032837141305208206,-0.03283894062042236,2.8847598514403217e-06,-0.0005091861821711063,0.41028326749801636,0.32452237606048584,0.0,0.31557050347328186,-0.8584014177322388,-0.5026611089706421,-0.6182465553283691,-0.6581472158432007,0.6581472158432007,0.6401549577713013,1.0,0.6401549577713013,0.017330408096313477,True,0.9826695919036865
normal,104,False,-2.659848690032959,0.027132123708724976,-9.333891486702951,-1.4099178314208984,-0.17831115424633026,-0.817861795425415,-0.2756236791610718,0.41068771481513977,0.3249751329421997,0.41068771481513977,0.3249751329421997,8.213754296302795,0.1949850797653198,0.2012818306684494,0.20545794069766998,0.2033698856830597,0.25850561261177063,-0.02770581841468811,-0.16327591240406036,-13.058754787363268,13.058754920959473,0.17943847179412842,-0.17831014096736908,-9.333891486702951,0.6975403428077698,18,0.08036339282989502,0.0,0.3315489590167999,0.0,False,False,False,False,False,False,0.25110211968421936,0.02898498997092247,-0.03299201652407646,0.0,-9.338374366052449e-05,0.41068771481513977,0.3249751329421997,0.0,0.3231320083141327,-0.8705836534500122,-0.509457528591156,-0.6222594380378723,-0.6648035049438477,0.6648035049438477,0.647161602973938,1.0,0.647161602973938,0.010221362113952637,True,0.9897786378860474
