Su2050/forklift_sim/outputs/exp83_single_point_steer_diag/exp83_stage1_entry_geometry_v3_seed42_singlepoint_center_normal_steps.csv
mode,step,done,root_x,root_y,root_yaw_deg,fork_center_x,fork_center_y,tip_x,tip_y,raw_drive,raw_steer,applied_drive,applied_steer,drive_target_rad_s,steer_target_rad,left_steer_joint_pos_rad,right_steer_joint_pos_rad,mean_steer_joint_pos_rad,root_y_signed_m,center_y_signed_m,tip_y_signed_m,yaw_err_signed_deg,yaw_err_abs_deg,d_traj_m,d_traj_signed_m,yaw_traj_signed_deg,traj_s_norm,traj_closest_idx,dist_front_m,insert_depth_m,pallet_disp_xy_m,hold_counter,inserted,push_free,hold_entry,clean_insert_ready,dirty_insert,success,policy_vx_r,policy_vy_r,policy_yaw_rate,policy_lift_pos,policy_lift_vel,policy_prev_drive,policy_prev_steer,policy_prev_lift
normal,0,False,-3.5,0.0,0.0,-2.233297824859619,0.0,-1.6332979202270508,0.0,nan,nan,nan,nan,nan,nan,0.0,0.0,0.0,0.0,0.0,0.0,0.0,0.0,0.0,0.0,0.0,0.0,0,0.5532978773117065,0.0,0.0,0.0,False,True,False,False,False,False,0.0,0.0,0.0,0.0,0.0,0.0,0.0,0.0
normal,1,False,-3.499765634536743,0.00030781514942646027,0.029408886915584062,-2.2330636978149414,0.0009579904144629836,-1.633063793182373,0.001265959581360221,0.3701314628124237,-0.5547486543655396,0.3701314628124237,-0.5547486543655396,7.402629256248474,-0.3328491926193237,-0.05973425880074501,-0.06024395674467087,-0.05998910963535309,0.0003078172157984227,0.000957996875513345,0.0012659680796787143,0.029409083683729097,0.02940908446907997,0.0009861851576715708,0.0009579036850482225,0.029408886915584062,0.0,0,0.5530637502670288,0.0,6.125415552560298e-08,0.0,False,True,False,False,False,False,-0.0009943655459210277,-0.0014239923330023885,0.02440079301595688,1.0584679799308105e-08,1.260061253560707e-06,0.3701314628124237,-0.5547486543655396,0.0
normal,2,False,-3.4991331100463867,0.0007912064902484417,0.07867461451206291,-2.2324323654174805,0.0025305538438260555,-1.6324328184127808,0.0033544322941452265,0.3551903963088989,-0.5366636514663696,0.3551903963088989,-0.5366636514663696,7.1038079261779785,-0.3219981908798218,-0.12203659862279892,-0.12268755584955215,-0.12236207723617554,0.0007912085857242346,0.002530560363084078,0.0033544409088790417,0.07867481461526125,0.07867481559515,0.00267445738427341,0.0025303247384727,0.07867461451206291,0.0,0,0.552432656288147,0.0,6.125415552560298e-08,0.0,False,True,False,False,False,False,-0.00201230077072978,-0.0017182575538754463,0.029515020549297333,1.2386119685459107e-08,1.3000895705772564e-05,0.3551903963088989,-0.5366636514663696,0.0
normal,3,False,-3.4986908435821533,0.0009014145471155643,0.09621039816445001,-2.2319905757904053,0.0030284447129815817,-1.6319913864135742,0.004035957157611847,0.3555769622325897,-0.5373014211654663,0.3555769622325897,-0.5373014211654663,7.111539244651794,-0.3223808526992798,-0.14832621812820435,-0.13907773792743683,-0.14370197057724,0.0009014166425913572,0.003028451232239604,0.0040359655395150185,0.09621059826764836,0.09621059894561768,0.0032985417637974024,0.0030281704384833574,0.09621039816445001,0.0,0,0.55199134349823,0.0,6.125415552560298e-08,0.0,False,True,False,False,False,False,0.025841644033789635,0.004940918181091547,0.002249310724437237,6.199394647410372e-06,0.0007635569199919701,0.3555769622325897,-0.5373014211654663,0.0
normal,4,False,-3.497302293777466,0.000881862360984087,0.10137738291071177,-2.230602264404297,0.003123124595731497,-1.6306030750274658,0.004184745717793703,0.356083482503891,-0.5379531383514404,0.356083482503891,-0.5379531383514404,7.12166965007782,-0.32277188301086424,-0.1697416603565216,-0.15350042283535004,-0.16162103414535522,0.0008818644564598799,0.003123131114989519,0.004184754099696875,0.1013775830139101,0.10137758404016495,0.004125524777919054,0.003122841939330101,0.10137738291071177,0.0,0,0.5506030321121216,0.0,6.125415552560298e-08,0.0,False,True,False,False,False,False,0.05934268608689308,0.0031682003755122423,0.007398420013487339,0.0,-0.0019756273832172155,0.356083482503891,-0.5379531383514404,0.0
normal,5,False,-3.4946274757385254,0.0008619888685643673,0.1170304756111951,-2.2279281616210938,0.003449311014264822,-1.6279293298721313,0.0046748504973948,0.35724684596061707,-0.5390411615371704,0.35724684596061707,-0.5390411615371704,7.144936919212341,-0.32342469692230225,-0.19450592994689941,-0.1714598536491394,-0.1829828917980194,0.0008621210581623018,0.003449387615546584,0.004674900788813829,0.11702796765110923,0.11702796816825867,0.006382086779922247,0.003448998788371682,0.1170304756111951,0.0,0,0.5479292869567871,0.0,3.641417123390056e-08,0.0,False,True,False,False,False,False,0.08524575084447861,-0.006620937958359718,0.009914941154420376,1.6156129277078435e-05,0.0001731996308080852,0.35724684596061707,-0.5390411615371704,0.0
normal,6,False,-3.4914984703063965,0.0007809547241777182,0.13695002863444972,-2.2248001098632812,0.0038086597342044115,-1.624801754951477,0.005242795683443546,0.3578868806362152,-0.539685845375061,0.3578868806362152,-0.539685845375061,7.157737612724304,-0.3238115072250366,-0.2087952196598053,-0.18470239639282227,-0.19674880802631378,0.0007812503026798368,0.0038088620640337467,0.005242954008281231,0.1369457997868581,0.13694579899311066,0.004584223963320255,0.003808258567005396,0.13695001529423648,0.009580372832715511,1,0.5448019504547119,0.0,2.709583668547566e-07,0.0,False,True,False,False,False,False,0.1207301989197731,-0.028865408152341843,0.02615421824157238,1.5081805031513795e-05,0.004775627516210079,0.3578868806362152,-0.539685845375061,0.0
normal,7,False,-3.486954927444458,0.0005869853775948286,0.1794533753647267,-2.220259189605713,0.004554356448352337,-1.6202620267868042,0.006433584727346897,0.35834744572639465,-0.5404421091079712,0.35834744572639465,-0.5404421091079712,7.166948914527893,-0.3242652654647827,-0.22363607585430145,-0.20009632408618927,-0.21186619997024536,0.0005871424218639731,0.004554486367851496,0.006433702073991299,0.1794521480651102,0.17945215106010437,0.004969978239387274,0.00455387681722641,0.1794533753647267,0.009580372832715511,1,0.5402622222900391,0.0,2.522081388178776e-07,0.0,False,True,False,False,False,False,0.1343076527118683,-0.012929913587868214,0.016441797837615013,8.432702088612132e-06,-1.1848751455545425e-06,0.35834744572639465,-0.5404421091079712,0.0
normal,8,False,-3.4818007946014404,0.00042297225445508957,0.21834363206534627,-2.2151079177856445,0.005250127986073494,-1.6151123046875,0.007536611519753933,0.3585582971572876,-0.5406692028045654,0.3585582971572876,-0.5406692028045654,7.171165943145752,-0.3244015216827392,-0.2287028729915619,-0.21446003019809723,-0.22158145904541016,0.0004231731581967324,0.005250282119959593,0.007536743767559528,0.2183415243116571,0.21834152936935425,0.0057548414915800095,0.005249490030109882,0.21834363206534627,0.017815569415688515,2,0.5351125001907349,0.0,2.779334522529098e-07,0.0,False,True,False,False,False,False,0.1675397902727127,-0.02037946693599224,0.022073734551668167,5.9816702560056e-06,-0.0005840994999743998,0.3585582971572876,-0.5406692028045654,0.0
normal,9,False,-3.475990056991577,0.00022567622363567352,0.2662145203074748,-2.209301710128784,0.006111158058047295,-1.609308123588562,0.008898939937353134,0.3592781126499176,-0.5414716005325317,0.3592781126499176,-0.5414716005325317,7.185562252998352,-0.324882960319519,-0.23892742395401,-0.21763326227664948,-0.22828033566474915,0.00022577797062695026,0.006111251190304756,0.008899028412997723,0.2662141201010781,0.26621413230895996,0.007017470430582762,0.006110415328294039,0.2662145203074748,0.017815569415688515,2,0.5293083190917969,0.0,2.505702525468223e-07,0.0,False,True,False,False,False,False,0.1793455332517624,-0.025779390707612038,0.026155881583690643,0.0,1.9490369595587254e-05,0.3592781126499176,-0.5414716005325317,0.0
normal,10,False,-3.4696390628814697,2.0059524103999138e-06,0.3190355748103568,-2.2029566764831543,0.0070552462711930275,-1.6029659509658813,0.010396162047982216,0.3593936264514923,-0.5416040420532227,0.3593936264514923,-0.5416040420532227,7.187872529029846,-0.3249624252319336,-0.24638189375400543,-0.22416801750659943,-0.23527495563030243,2.1684479634132003e-06,0.007055380381643772,0.010396282188594341,0.319034267469461,0.31903427839279175,0.007227042224258184,0.00705427210777998,0.3190355481299304,0.024949943646788597,3,0.5229661464691162,0.0,2.8111364258620597e-07,0.0,False,True,False,False,False,False,0.1950867623090744,-0.02605731412768364,0.02985873818397522,4.741840712085832e-06,-0.001368016004562378,0.3593936264514923,-0.5416040420532227,0.0
normal,11,False,-3.463012218475342,-0.00023967964807525277,0.36794205046474887,-2.196336269378662,0.007894772104918957,-1.5963486433029175,0.011747825890779495,0.35955849289894104,-0.541933536529541,0.35955849289894104,-0.541933536529541,7.191169857978821,-0.3251601219177246,-0.2593185305595398,-0.23423071205615997,-0.2467746138572693,-0.00023953775234986097,0.007894895039498806,0.011747939512133598,0.36794114333024974,0.36794114112854004,0.007951281033456326,0.00789356417953968,0.36794202378432245,0.031228050589561462,4,0.5163488388061523,0.0,2.5452956720073416e-07,0.0,False,True,False,False,False,False,0.20386779308319092,-0.011368914507329464,0.03633619099855423,1.1914712558791507e-05,-0.0031042578630149364,0.35955849289894104,-0.541933536529541,0.0
normal,12,False,-3.455941915512085,-0.0005956802051514387,0.4197215811604833,-2.1892738342285156,0.008683491498231888,-1.589289903640747,0.013078766874969006,0.35965496301651,-0.5422036647796631,0.35965496301651,-0.5422036647796631,7.1930992603302,-0.32532219886779784,-0.26956796646118164,-0.24779249727725983,-0.25868022441864014,-0.0005955007509328425,0.008683632127940655,0.01307888887822628,0.41971982025233795,0.4197198152542114,0.0088075315579772,0.0086820712313056,0.4197215811604833,0.03689507395029068,5,0.5092900991439819,0.0,2.780449221972958e-07,0.0,False,True,False,False,False,False,0.2106896936893463,-0.005807224661111832,0.0769360139966011,0.0,0.012168459594249725,0.35965496301651,-0.5422036647796631,0.0
normal,13,False,-3.4488749504089355,-0.0006939792074263096,0.48875131489404033,-2.1822190284729004,0.010111264884471893,-1.5822407007217407,0.015229394659399986,0.3596666157245636,-0.5421750545501709,0.3596666157245636,-0.5421750545501709,7.193332314491272,-0.32530503273010253,-0.2780642509460449,-0.2569802701473236,-0.26752227544784546,-0.0006938332808203995,0.010111390613019466,0.015229511074721813,0.48875040775954115,0.4887504279613495,0.010395820252597332,0.010109572671353817,0.48875131489404033,0.04219473898410797,6,0.5022408962249756,0.0,2.552171451952745e-07,0.0,False,True,False,False,False,False,0.21560585498809814,-0.035884249955415726,0.03651302307844162,1.465653099330666e-06,0.004178986884653568,0.3596666157245636,-0.5421750545501709,0.0
normal,14,False,-3.441669225692749,-0.0009565924992784858,0.5582520115152109,-2.175027370452881,0.011385113932192326,-1.575055718421936,0.01723102293908596,0.3602767288684845,-0.5426737070083618,0.3602767288684845,-0.5426737070083618,7.20553457736969,-0.32560422420501706,-0.2856268882751465,-0.260701447725296,-0.27316415309906006,-0.0009564246283844113,0.011385241523385048,0.017231130972504616,0.5582501438853597,0.5582501292228699,0.011651336215436459,0.011383372358977795,0.5582519581543579,0.052672307938337326,8,0.4950559139251709,0.0,2.7484847464620543e-07,0.0,False,True,False,False,False,False,0.2205827236175537,-0.03899024426937103,0.048057060688734055,3.390078973097843e-06,-0.00029985676519572735,0.3602767288684845,-0.5426737070083618,0.0
normal,15,False,-3.434154987335205,-0.001214256975799799,0.6286216362648539,-2.1675291061401367,0.012683109380304813,-1.5675653219223022,0.01926588825881481,0.3602618873119354,-0.5426653623580933,0.3602618873119354,-0.5426653623580933,7.2052377462387085,-0.3255992174148559,-0.2927798628807068,-0.2652415633201599,-0.27901071310043335,-0.001214175601489842,0.01268320344388485,0.01926598697900772,0.6286222232342358,0.6286222338676453,0.012773092836141586,0.012681358493864536,0.6286216362648539,0.058338917791843414,9,0.4875655174255371,0.0,2.65319272330089e-07,0.0,False,True,False,False,False,False,0.22752302885055542,-0.04452001303434372,0.045221563428640366,0.0,0.009959747083485126,0.3602618873119354,-0.5426653623580933,0.0
normal,16,False,-3.426298141479492,-0.001396378967911005,0.7108647978346238,-2.159693479537964,0.014319103211164474,-1.5597397089004517,0.021763071417808533,0.36027660965919495,-0.5427374839782715,0.36027660965919495,-0.5427374839782715,7.205532193183899,-0.32564249038696286,-0.298099547624588,-0.26879942417144775,-0.2834494709968567,-0.0013964649988338351,0.014319067820906639,0.021763058379292488,0.7108670389904451,0.7108670473098755,0.014348524622619152,0.014317362569272518,0.7108647444737708,0.06461702287197113,10,0.4797400236129761,0.0,3.023760086762195e-07,0.0,False,True,False,False,False,False,0.23293574154376984,-0.03697044774889946,0.041184380650520325,2.2780012898238056e-07,0.00019559403881430626,0.36027660965919495,-0.5427374839782715,0.0
normal,17,False,-3.418463706970215,-0.0016487804241478443,0.7842080628333082,-2.1518802642822266,0.01568804495036602,-1.551936388015747,0.023899996653199196,0.36027222871780396,-0.5427184104919434,0.36027222871780396,-0.5427184104919434,7.205444574356079,-0.325631046295166,-0.30249711871147156,-0.274129718542099,-0.2883134186267853,-0.001648799516260624,0.01568807102739811,0.023900045081973076,0.7842100905457181,0.7842100858688354,0.015744615346193314,0.015686392784118652,0.7842080094724553,0.07175160199403763,11,0.47193658351898193,0.0,2.6036056510747585e-07,0.0,False,True,False,False,False,False,0.23221638798713684,-0.054250117391347885,0.04067002981901169,2.1267954508630282e-08,0.00022887956583872437,0.36027222871780396,-0.5427184104919434,0.0
normal,18,False,-3.410557746887207,-0.001894232351332903,0.8622247246890152,-2.1439990997314453,0.017167218029499054,-1.5440670251846313,0.02619607374072075,0.3605726957321167,-0.5430415868759155,0.3605726957321167,-0.5430415868759155,7.211453914642334,-0.3258249521255493,-0.30928677320480347,-0.27721768617630005,-0.29325222969055176,-0.0018941323505714536,0.017167305573821068,0.026196155697107315,0.8622241910804863,0.8622242212295532,0.017418788745999336,0.017165664583444595,0.8622247246890152,0.07998659461736679,12,0.4640672206878662,0.0,2.7648056288853695e-07,0.0,False,True,False,False,False,False,0.23655965924263,-0.047522954642772675,0.04688534885644913,0.0,-0.0020420693326741457,0.3605726957321167,-0.5430415868759155,0.0
normal,19,False,-3.402472734451294,-0.002113796304911375,0.9494295918039762,-2.1359446048736572,0.018875347450375557,-1.536026954650879,0.028817296028137207,0.36074697971343994,-0.5432322025299072,0.36074697971343994,-0.5432322025299072,7.214939594268799,-0.3259393215179443,-0.31344231963157654,-0.2804153561592102,-0.2969288229942322,-0.0021136943250894547,0.01887543499469757,0.028817377984523773,0.9494289514737415,0.9494289755821228,0.019553452730178833,0.018873639404773712,0.9494295918039762,0.07998659461736679,12,0.45602715015411377,0.0,3.0505341896969185e-07,0.0,False,True,False,False,False,False,0.24870671331882477,-0.040831733494997025,0.034898318350315094,0.00030252698343247175,-0.0030226907692849636,0.36074697971343994,-0.5432322025299072,0.0
normal,20,False,-3.3943207263946533,-0.0023435503244400024,1.0377799029870893,-2.127826452255249,0.020598560571670532,-1.52792489528656,0.031465571373701096,0.3608345687389374,-0.5435066223144531,0.3608345687389374,-0.5435066223144531,7.216691374778748,-0.32610397338867186,-0.3159254789352417,-0.2836093604564667,-0.2997674345970154,-0.002343636006116867,0.020598532631993294,0.031465571373701096,1.0377823575863223,1.0377823114395142,0.02071293070912361,0.0,1.0377797962653836,0.08956717699766159,13,0.44792497158050537,0.0,1.9090890646111802e-07,0.0,False,True,False,False,False,False,0.24908466637134552,-0.051532309502363205,0.04882783815264702,0.0,0.0025007170625030994,0.3608345687389374,-0.5435066223144531,0.0
normal,21,False,-3.38600492477417,-0.002611282281577587,1.1276044678138675,-2.1195480823516846,0.022316323593258858,-1.5196642875671387,0.03412380814552307,0.3607579469680786,-0.5433750152587891,0.3607579469680786,-0.5433750152587891,7.215158939361572,-0.32602500915527344,-0.31871986389160156,-0.285433828830719,-0.3020768463611603,-0.0026115253567695618,0.022316213697195053,0.03412376344203949,1.1276105509510972,1.1276105642318726,0.024642711505293846,0.0,1.1276044678138675,0.08956717699766159,13,0.43966448307037354,0.0,2.923307249602658e-07,0.0,False,True,False,False,False,False,0.24974554777145386,-0.04734246805310249,0.047585248947143555,7.56349720631988e-07,-0.00011296142474748194,0.3607579469680786,-0.5433750152587891,0.0
normal,22,False,-3.3777377605438232,-0.00280954223126173,1.2056532529030148,-2.111316204071045,0.02384321764111519,-1.511448860168457,0.03646785765886307,0.36080899834632874,-0.5432796478271484,0.36080899834632874,-0.5432796478271484,7.216179966926575,-0.32596778869628906,-0.3201189935207367,-0.2896641790866852,-0.30489158630371094,-0.00280982768163085,0.023843076080083847,0.0364677868783474,1.2056596562053616,1.2056596279144287,0.030291708186268806,0.0,1.2056531461813091,0.08956717699766159,13,0.4314490556716919,0.0,2.865018586817314e-07,0.0,False,True,False,False,False,False,0.24972549080848694,-0.04980253800749779,0.03679580241441727,3.107108170752326e-08,0.00022259977413341403,0.36080899834632874,-0.5432796478271484,0.0
normal,23,False,-3.369123697280884,-0.0030646100640296936,1.3000666376349836,-2.102747678756714,0.025674957782030106,-1.5029021501541138,0.039288055151700974,0.3607567846775055,-0.5433230400085449,0.3607567846775055,-0.5433230400085449,7.21513569355011,-0.32599382400512694,-0.32203567028045654,-0.292599618434906,-0.3073176443576813,-0.0030645476654171944,0.025675026699900627,0.039288125932216644,1.3000670645218069,1.3000670671463013,0.03744193911552429,0.0,1.3000667443566896,0.08956717699766159,13,0.4229024648666382,0.0,3.083605122355948e-07,0.0,False,True,False,False,False,False,0.25153860449790955,-0.04738511145114899,0.0520675852894783,0.0,-0.0007358650327660143,0.3607567846775055,-0.5433230400085449,0.0
normal,24,False,-3.3608310222625732,-0.00344244297593832,1.3896783993804338,-2.094501495361328,0.02727772295475006,-1.494678020477295,0.04182897508144379,0.36047467589378357,-0.543097734451294,0.36047467589378357,-0.543097734451294,7.209493517875671,-0.32585864067077636,-0.32431793212890625,-0.2947094738483429,-0.3095136880874634,-0.003442388027906418,0.027277784422039986,0.04182903841137886,1.3896787195455511,1.389678716659546,0.04476858675479889,0.0,1.3896783993804338,0.08956717699766159,13,0.4146782159805298,0.0,2.7732281182579754e-07,0.0,False,True,False,False,False,False,0.249825119972229,-0.04559975862503052,0.05397448688745499,1.470599045205745e-06,-0.0016130483709275723,0.36047467589378357,-0.543097734451294,0.0
normal,25,False,-3.3525078296661377,-0.0037329941987991333,1.4772890224207758,-2.08622670173645,0.02892347238957882,-1.4864261150360107,0.04439189285039902,0.3605409264564514,-0.5432101488113403,0.3605409264564514,-0.5432101488113403,7.210818529129028,-0.32592608928680417,-0.3261803388595581,-0.29894986748695374,-0.3125650882720947,-0.003733127610757947,0.028923429548740387,0.04439189285039902,1.4772930778455955,1.4772931337356567,0.052465979009866714,0.0,1.4772890224207758,0.08956717699766159,13,0.4064263105392456,0.0,2.3392757952933607e-07,0.0,False,True,False,False,False,False,0.2563605010509491,-0.04813438281416893,0.04676142334938049,0.0,-0.0028088667895644903,0.3605409264564514,-0.5432101488113403,0.0
normal,26,False,-3.3439323902130127,-0.00398909579962492,1.5739531679276755,-2.0777082443237305,0.030803672969341278,-1.4779345989227295,0.047283999621868134,0.3608224391937256,-0.543487548828125,0.3608224391937256,-0.543487548828125,7.216448783874512,-0.326092529296875,-0.3267976939678192,-0.3016887903213501,-0.31424325704574585,-0.003989045508205891,0.0308037381619215,0.047284070402383804,1.57395380825791,1.5739538669586182,0.060690246522426605,0.0,1.5739531679276755,0.08956717699766159,13,0.3979349136352539,0.0,3.398309047497605e-07,0.0,False,True,False,False,False,False,0.2541404962539673,-0.049743372946977615,0.05111686512827873,0.0,2.9563874704763293e-05,0.3608224391937256,-0.543487548828125,0.0
normal,27,False,-3.3354711532592773,-0.004189616069197655,1.6660363909356122,-2.0693044662475586,0.032638128846883774,-1.4695581197738647,0.050082363188266754,0.3607209622859955,-0.5434674024581909,0.3607209622859955,-0.5434674024581909,7.21441924571991,-0.32608044147491455,-0.32872718572616577,-0.3036712110042572,-0.3161991834640503,-0.004189748782664537,0.03263808786869049,0.050082363188266754,1.666040446360432,1.6660404205322266,0.0689145028591156,0.0,1.6660363909356122,0.08956717699766159,13,0.3895583152770996,0.0,2.32907368058477e-07,0.0,False,True,False,False,False,False,0.24703040719032288,-0.07300961762666702,0.07433715462684631,8.913845704228152e-06,0.001652455423027277,0.3607209622859955,-0.5434674024581909,0.0
normal,28,False,-3.3270254135131836,-0.004376431927084923,1.7689566695571262,-2.060926914215088,0.03472566232085228,-1.4612128734588623,0.05324719101190567,0.3607887327671051,-0.5433791875839233,0.3607887327671051,-0.5433791875839233,7.215774655342102,-0.326027512550354,-0.33030807971954346,-0.3047710359096527,-0.3175395727157593,-0.0043763816356658936,0.034725725650787354,0.05324726179242134,1.768957203165655,1.768957257270813,0.07731091976165771,0.0,1.7689565628354202,0.08956717699766159,13,0.3812131881713867,0.0,3.392298992821452e-07,0.0,False,True,False,False,False,False,0.2552812695503235,-0.050124313682317734,0.05360030755400658,5.37292294211511e-07,-0.0010457859607413411,0.3607887327671051,-0.5433791875839233,0.0
normal,29,False,-3.318521022796631,-0.004574235528707504,1.8674134195560368,-2.0524916648864746,0.03670345991849899,-1.452810287475586,0.05625550448894501,0.3609464466571808,-0.5434832572937012,0.3609464466571808,-0.5434832572937012,7.218928933143616,-0.3260899543762207,-0.3310171365737915,-0.30706560611724854,-0.31904137134552,-0.004574371501803398,0.03670341148972511,0.05625550076365471,1.8674174749808565,1.8674174547195435,0.08575957268476486,0.0,1.8674134195560368,0.08956717699766159,13,0.3728104829788208,0.0,2.3016173145151697e-07,0.0,False,True,False,False,False,False,0.25535571575164795,-0.05021074041724205,0.053125858306884766,0.0,-0.00025400647427886724,0.3609464466571808,-0.5434832572937012,0.0
normal,30,False,-3.310159683227539,-0.004700714722275734,1.9542355826340654,-2.044194459915161,0.038495391607284546,-1.4445433616638184,0.05895613133907318,0.3608919680118561,-0.5435090065002441,0.3608919680118561,-0.5435090065002441,7.217839360237122,-0.3261054039001465,-0.33211541175842285,-0.30847689509391785,-0.32029616832733154,-0.00470077246427536,0.03849538788199425,0.05895614996552467,1.9542379305115927,1.954237937927246,0.0940452292561531,0.0,1.9542355826340654,0.08956717699766159,13,0.3645435571670532,0.0,2.503552423149813e-07,0.0,False,True,False,False,False,False,0.251435250043869,-0.057003069669008255,0.0375029593706131,9.878777795790938e-09,0.0001475479657528922,0.3608919680118561,-0.5435090065002441,0.0
normal,31,False,-3.3015475273132324,-0.004869835451245308,2.0538807855485586,-2.0356593132019043,0.040527887642383575,-1.436044692993164,0.062031470239162445,0.36082082986831665,-0.5434714555740356,0.36082082986831665,-0.5434714555740356,7.216416597366333,-0.3260828733444214,-0.3329280614852905,-0.3101101219654083,-0.32151907682418823,-0.0048699649050831795,0.04052784666419029,0.062031470239162445,2.0538846275299667,2.053884744644165,0.09026853740215302,0.04052765667438507,2.0538805721051467,0.24130578339099884,15,0.3560448884963989,0.0,2.3184614406090986e-07,0.0,False,True,False,False,False,False,0.25521397590637207,-0.04787261411547661,0.05302363261580467,2.6376082473689166e-07,0.0006533847190439701,0.36082082986831665,-0.5434714555740356,0.0
normal,32,False,-3.293088436126709,-0.005046511068940163,2.155422219731376,-2.02728271484375,0.042594581842422485,-1.4277070760726929,0.06516078859567642,0.36071059107780457,-0.5435199737548828,0.36071059107780457,-0.5435199737548828,7.214211821556091,-0.3261119842529297,-0.33310237526893616,-0.3118419051170349,-0.32247215509414673,-0.0050466121174395084,0.0425945408642292,0.06516077369451523,2.155424994495726,2.1554250717163086,0.08389914035797119,0.042594339698553085,2.155422219731376,0.24130578339099884,15,0.3477073907852173,0.0,3.0263763051152637e-07,0.0,False,True,False,False,False,False,0.25441738963127136,-0.05264370143413544,0.055267807096242905,0.0,-0.00010336436389479786,0.36071059107780457,-0.5435199737548828,0.0
normal,33,False,-3.2846412658691406,-0.00519895926117897,2.2521415403601646,-2.0189175605773926,0.04457883536815643,-1.419381022453308,0.0681571364402771,0.36087533831596375,-0.5436110496520996,0.36087533831596375,-0.5436110496520996,7.217506766319275,-0.32616662979125977,-0.33365166187286377,-0.3138646185398102,-0.3237581253051758,-0.005198907572776079,0.04457889124751091,0.06815719604492188,2.2521415403601646,2.2521414756774902,0.07792757451534271,0.04457858204841614,2.252141326916753,0.24130578339099884,15,0.33938121795654297,0.0,2.765956992334395e-07,0.0,False,True,False,False,False,False,0.2548946142196655,-0.04811700060963631,0.05537160858511925,1.300438725593267e-05,-0.0026351052802056074,0.36087533831596375,-0.5436110496520996,0.0
normal,34,False,-3.2763664722442627,-0.005336929112672806,2.3499607348887372,-2.0107297897338867,0.04660172760486603,-1.4112342596054077,0.0712035596370697,0.3608149588108063,-0.5434926748275757,0.3608149588108063,-0.5434926748275757,7.2162991762161255,-0.3260956048965454,-0.3341619074344635,-0.3160726726055145,-0.325117290019989,-0.005336872301995754,0.0466017983853817,0.07120363414287567,2.349961375218972,2.349961519241333,0.07264649122953415,0.04660145938396454,2.3499607348887372,0.24130578339099884,15,0.3312344551086426,0.0,2.5574266260264267e-07,0.0,False,True,False,False,False,False,0.2544776499271393,-0.05335737764835358,0.050721511244773865,2.5781707790883956e-06,6.627553375437856e-05,0.3608149588108063,-0.5434926748275757,0.0
normal,35,False,-3.267721176147461,-0.005503388121724129,2.4504669685254745,-2.0021774768829346,0.048655323684215546,-1.4027260541915894,0.07430873066186905,0.3608661890029907,-0.5435624122619629,0.3608661890029907,-0.5435624122619629,7.2173237800598145,-0.3261374473571777,-0.3343256115913391,-0.31818023324012756,-0.32625293731689453,-0.005503364372998476,0.04865536093711853,0.07430876791477203,2.450467608855709,2.450467586517334,0.06777197122573853,0.04865504428744316,2.4504669685254745,0.24130578339099884,15,0.32272613048553467,0.0,1.5911719231098687e-07,0.0,False,True,False,False,False,False,0.2562503516674042,-0.04910384118556976,0.056821051985025406,0.0,0.003853605128824711,0.3608661890029907,-0.5435624122619629,0.0
normal,36,False,-3.259338617324829,-0.005634337663650513,2.555022864009795,-1.9938957691192627,0.05083369463682175,-1.394492268562317,0.07758096605539322,0.3606226444244385,-0.5434337854385376,0.3606226444244385,-0.5434337854385376,7.2124528884887695,-0.32606027126312254,-0.33403047919273376,-0.31965509057044983,-0.3268427848815918,-0.0056345053017139435,0.05083362013101578,0.07758094370365143,2.5550271328780263,2.5550272464752197,0.06400728970766068,0.05083340406417847,2.555022864009795,0.24130578339099884,15,0.31449246406555176,0.0,2.2321775361433538e-07,0.0,False,True,False,False,False,False,0.25426554679870605,-0.053927093744277954,0.058610137552022934,1.2500003094828571e-06,0.00027833133935928345,0.3606226444244385,-0.5434337854385376,0.0
normal,37,False,-3.2507734298706055,-0.005706381052732468,2.65603538541876,-1.9854321479797363,0.05299254506826401,-1.3860766887664795,0.08079652488231659,0.3607885539531708,-0.5435059070587158,0.3607885539531708,-0.5435059070587158,7.2157710790634155,-0.32610354423522947,-0.3342277407646179,-0.3219195306301117,-0.3280736207962036,-0.005706347990781069,0.05299259349703789,0.08079658448696136,2.6560360257489948,2.656036138534546,0.06110904738306999,0.05299224331974983,2.65603538541876,0.24130578339099884,15,0.30607688426971436,0.0,3.0746736001674435e-07,0.0,False,True,False,False,False,False,0.25481536984443665,-0.05354521796107292,0.056110527366399765,0.0,0.0002590550575405359,0.3607885539531708,-0.5435059070587158,0.0
normal,38,False,-3.2423858642578125,-0.005803458392620087,2.7588734883268224,-1.9771519899368286,0.05516648292541504,-1.37784743309021,0.08404617756605148,0.36083167791366577,-0.543555498123169,0.36083167791366577,-0.543555498123169,7.216633558273315,-0.32613329887390136,-0.33421018719673157,-0.3233416974544525,-0.32877594232559204,-0.00580340763553977,0.055166538804769516,0.08404623717069626,2.758873701770234,2.758873701095581,0.05944782868027687,0.05516616627573967,2.7588734883268224,0.24130578339099884,15,0.2978476285934448,0.0,2.765935107618134e-07,0.0,False,True,False,False,False,False,0.25326693058013916,-0.05176724120974541,0.05619852617383003,5.071444206805609e-07,6.003013550071046e-05,0.36083167791366577,-0.543555498123169,0.0
normal,39,False,-3.233931303024292,-0.005868097767233849,2.8588725804176867,-1.9688057899475098,0.05730998516082764,-1.369552493095398,0.08723560720682144,0.36073821783065796,-0.5434719324111938,0.36073821783065796,-0.5434719324111938,7.214764356613159,-0.3260831594467163,-0.3345426917076111,-0.32468047738075256,-0.329611599445343,-0.005868247710168362,0.05730993673205376,0.08723559975624084,2.8588770627293294,2.858877182006836,0.05894938111305237,0.05730965733528137,2.8588725804176867,0.24130578339099884,15,0.2895526885986328,0.0,2.3430560247561516e-07,0.0,False,True,False,False,False,False,0.25429850816726685,-0.044780902564525604,0.047500334680080414,5.242144652584102e-06,-0.002939765341579914,0.36073821783065796,-0.5434719324111938,0.0
normal,40,False,-3.2253897190093994,-0.005917463451623917,2.958549799843914,-1.9603760242462158,0.05946144834160805,-1.361175775527954,0.09042954444885254,0.36056220531463623,-0.5432752370834351,0.36056220531463623,-0.5432752370834351,7.211244106292725,-0.325965142250061,-0.3342303931713104,-0.3270603120326996,-0.330645352602005,-0.005917548201978207,0.05946142598986626,0.09042955189943314,2.9585527880516755,2.958552837371826,0.05970396846532822,0.05946110934019089,2.9585500132873253,0.24130578339099884,15,0.28117597103118896,0.0,2.4998652747854067e-07,0.0,False,True,False,False,False,False,0.2529595196247101,-0.048978839069604874,0.05109919607639313,4.757148781209253e-05,-0.0003222334198653698,0.36056220531463623,-0.5432752370834351,0.0
normal,41,False,-3.216919422149658,-0.005953188985586166,3.0643722685324484,-1.9520286321640015,0.06176203489303589,-1.3528865575790405,0.09383676946163177,0.360646516084671,-0.5434082746505737,0.360646516084671,-0.5434082746505737,7.21293032169342,-0.3260449647903442,-0.3340725600719452,-0.3285392224788666,-0.3313058912754059,-0.0059532951563596725,0.0617620125412941,0.09383677691221237,3.064375897070445,3.064375877380371,0.06183347851037979,0.061761680990457535,3.0643722685324484,0.24130578339099884,15,0.2728867530822754,0.0,2.3121053516206302e-07,0.0,False,True,False,False,False,False,0.24918510019779205,-0.04741383343935013,0.05535818263888359,0.00018312210158910602,0.0010781066957861185,0.360646516084671,-0.5434082746505737,0.0
normal,42,False,-3.2084789276123047,-0.005873631685972214,3.1650599290690145,-1.943709135055542,0.06406430900096893,-1.3446242809295654,0.09719188511371613,0.3604678511619568,-0.5433148145675659,0.3604678511619568,-0.5433148145675659,7.209357023239136,-0.32598888874053955,-0.33574286103248596,-0.3271292746067047,-0.33143606781959534,-0.00587358558550477,0.06406436860561371,0.0971919521689415,3.1650605693992495,3.165060520172119,0.06505169719457626,0.06406394392251968,3.1650599290690145,0.24130578339099884,15,0.26462459564208984,0.0,3.3811372190939437e-07,0.0,False,True,False,False,False,False,0.25745394825935364,-0.041090864688158035,0.03184647113084793,0.00032400665804743767,0.012049688026309013,0.3604678511619568,-0.5433148145675659,0.0
normal,43,False,-3.2004523277282715,-0.0058948323130607605,3.260336372235638,-1.935800552368164,0.06614618748426437,-1.3367716073989868,0.10026992857456207,0.3607683479785919,-0.5435183048248291,0.3607683479785919,-0.5435183048248291,7.215366959571838,-0.3261109828948974,-0.3356286287307739,-0.3289916515350342,-0.33231014013290405,-0.005894956644624472,0.06614615768194199,0.10026993602514267,3.260340427660458,3.260340452194214,0.06887628883123398,0.06614580750465393,3.260336372235638,0.24130578339099884,15,0.2567718029022217,0.0,2.3200786358756886e-07,0.0,False,True,False,False,False,False,0.24996556341648102,-0.05519232153892517,0.05559816583991051,3.529186869855039e-06,-0.001094565261155367,0.3607683479785919,-0.5435183048248291,0.0
normal,44,False,-3.191901683807373,-0.005965199321508408,3.3698951678435813,-1.9273899793624878,0.06849391013383865,-1.3284274339675903,0.10376302897930145,0.36052951216697693,-0.5432953834533691,0.36052951216697693,-0.5432953834533691,7.210590243339539,-0.32597723007202145,-0.3344435393810272,-0.3298752009868622,-0.3321593701839447,-0.005965149030089378,0.06849396973848343,0.10376309603452682,3.3698955947304046,3.3698956966400146,0.07384943217039108,0.06849351525306702,3.36989495440017,0.24130578339099884,15,0.24842774868011475,0.0,3.387174274394056e-07,0.0,False,True,False,False,False,False,0.24979695677757263,-0.04722939804196358,0.06217723712325096,0.0001505018153693527,-0.0057918778620660305,0.36052951216697693,-0.5432953834533691,0.0
normal,45,False,-3.1838629245758057,-0.005940716713666916,3.4677465923272996,-1.919480323791504,0.07067785412073135,-1.3205788135528564,0.10696984827518463,0.3605293929576874,-0.5431994199752808,0.3605293929576874,-0.5431994199752808,7.210587859153748,-0.3259196519851684,-0.3360677659511566,-0.33117663860321045,-0.3336222171783447,-0.005940839648246765,0.07067781686782837,0.10696985572576523,3.4677506477521196,3.4677507877349854,0.0791013166308403,0.07067745178937912,3.4677465923272996,0.24130578339099884,15,0.2405790090560913,0.0,2.3132911053380667e-07,0.0,False,True,False,False,False,False,0.25189855694770813,-0.06087241694331169,0.05271422117948532,3.5976595427200664e-06,0.0005701903719455004,0.3605293929576874,-0.5431994199752808,0.0
normal,46,False,-3.1754088401794434,-0.005946926772594452,3.577573045973343,-1.91117525100708,0.07309511303901672,-1.3123445510864258,0.11053503304719925,0.3606914281845093,-0.5433377027511597,0.3606914281845093,-0.5433377027511597,7.2138285636901855,-0.32600262165069577,-0.3350311517715454,-0.33224979043006897,-0.333640456199646,-0.005946876015514135,0.0730951726436615,0.11053510010242462,3.577573899746989,3.5775740146636963,0.08522627502679825,0.0730946958065033,3.577573045973343,0.24130578339099884,15,0.2323448657989502,0.0,3.3833018164841633e-07,0.0,False,True,False,False,False,False,0.2508859932422638,-0.054973967373371124,0.05687470734119415,9.10594462766312e-06,-0.0014264616183936596,0.3606914281845093,-0.5433377027511597,0.0
normal,47,False,-3.166994333267212,-0.0058945417404174805,3.679032731329532,-1.9029028415679932,0.07538608461618423,-1.304139256477356,0.11388635635375977,0.36063823103904724,-0.5431838035583496,0.36063823103904724,-0.5431838035583496,7.212764620780945,-0.3259102821350098,-0.3348291218280792,-0.33231860399246216,-0.3335738778114319,-0.005894642788916826,0.07538606226444244,0.11388637125492096,3.679036146424117,3.6790361404418945,0.09163619577884674,0.07538565248250961,3.679032731329532,0.24130578339099884,15,0.22413945198059082,0.0,2.295775942684486e-07,0.0,False,True,False,False,False,False,0.2541438639163971,-0.025095492601394653,0.05154548957943916,6.0584927268791944e-05,-0.008833024650812149,0.36063823103904724,-0.5431838035583496,0.0
normal,48,False,-3.1586878299713135,-0.005815211683511734,3.775699117992253,-1.8947350978851318,0.07759799808263779,-1.2960374355316162,0.11710841953754425,0.3603651523590088,-0.5429238080978394,0.3603651523590088,-0.5429238080978394,7.207303047180176,-0.3257542848587036,-0.33587098121643066,-0.3319859504699707,-0.3339284658432007,-0.00581513624638319,0.07759807258844376,0.11710849404335022,3.775699117992253,3.7756991386413574,0.0982513427734375,0.07759755104780197,3.775699117992253,0.24130578339099884,15,0.21603763103485107,0.0,3.0691424512951926e-07,0.0,False,True,False,False,False,False,0.24736139178276062,-0.05368787795305252,0.04829959198832512,9.898228745441884e-05,-0.0010615619830787182,0.3603651523590088,-0.5429238080978394,0.0
normal,49,False,-3.1505539417266846,-0.0057538896799087524,3.8771543210367994,-1.8867509365081787,0.07989731431007385,-1.2881242036819458,0.12046779692173004,0.3604448139667511,-0.5430669784545898,0.3604448139667511,-0.5430669784545898,7.208896279335022,-0.3258401870727539,-0.3362976610660553,-0.3326364755630493,-0.3344670534133911,-0.005753977689892054,0.07989728450775146,0.12046779692173004,3.8771568823577383,3.877156972885132,0.10507871955633163,0.07989685982465744,3.8771547479236226,0.24130578339099884,15,0.20812439918518066,0.0,2.7440214012131037e-07,0.0,False,True,False,False,False,False,0.24745413661003113,-0.04914451390504837,0.05042974278330803,1.2595199223142117e-05,-0.002135823480784893,0.3604448139667511,-0.5430669784545898,0.0
normal,50,False,-3.142436981201172,-0.005698859691619873,3.98121993700476,-1.8787916898727417,0.08224761486053467,-1.2802395820617676,0.12390531599521637,0.36044076085090637,-0.5430494546890259,0.36044076085090637,-0.5430494546890259,7.208815217018127,-0.3258296728134155,-0.3359072208404541,-0.33359572291374207,-0.3347514867782593,-0.005698835477232933,0.08224765211343765,0.12390536069869995,3.981220363891583,3.9812204837799072,0.11212672293186188,0.08224714547395706,3.98121993700476,0.24130578339099884,15,0.200239896774292,0.0,3.315646210921841e-07,0.0,False,True,False,False,False,False,0.2443608194589615,-0.05882570147514343,0.05773000419139862,1.455164237995632e-06,0.000676932162605226,0.36044076085090637,-0.5430494546890259,0.0
normal,51,False,-3.1342780590057373,-0.005588080734014511,4.078609043059033,-1.870784044265747,0.08450616896152496,-1.272303581237793,0.12718120217323303,0.36027172207832336,-0.5429378747940063,0.36027172207832336,-0.5429378747940063,7.205434441566467,-0.3257627248764038,-0.33606424927711487,-0.33374032378196716,-0.334902286529541,-0.00558802206069231,0.08450622856616974,0.127181276679039,4.078609043059033,4.078608989715576,0.1193048506975174,0.08450568467378616,4.078609043059033,0.24130578339099884,15,0.19230377674102783,0.0,2.1997713872679014e-07,0.0,False,True,False,False,False,False,0.24695716798305511,-0.05027478560805321,0.056240785866975784,4.652617917599855e-07,0.0004124328843317926,0.36027172207832336,-0.5429378747940063,0.0
normal,52,False,-3.125927209854126,-0.005512058734893799,4.162859853357963,-1.8625670671463013,0.08644001185894012,-1.2641500234603882,0.12999503314495087,0.3603467047214508,-0.5429776906967163,0.3603467047214508,-0.5429776906967163,7.206934094429016,-0.32578661441802975,-0.3361630439758301,-0.33292198181152344,-0.33454251289367676,-0.005511989817023277,0.0864400789141655,0.12999510765075684,4.162860280244787,4.16286039352417,0.11953745037317276,0.08643952012062073,4.162860280244787,0.3930446207523346,16,0.1841503381729126,0.0,3.0556623187294463e-07,0.0,False,True,False,False,False,False,0.25573742389678955,0.00070914626121521,0.07494612038135529,0.0,0.04934626817703247,0.3603467047214508,-0.5429776906967163,0.0
normal,53,False,-3.117682456970215,-0.005095243453979492,4.275985715259946,-1.854506254196167,0.08935104310512543,-1.2561763525009155,0.13408750295639038,0.3600884974002838,-0.5426545143127441,0.3600884974002838,-0.5426545143127441,7.201769948005676,-0.3255927085876465,-0.33580243587493896,-0.33432769775390625,-0.3350650668144226,-0.005095014348626137,0.08935121446847916,0.13408763706684113,4.275983153939007,4.2759833335876465,0.11633913964033127,0.08935052901506424,4.275985715259946,0.3930446207523346,16,0.1761765480041504,0.0,2.520224882118782e-07,0.0,False,True,False,False,False,False,0.24891206622123718,-0.05239128693938255,0.057589780539274216,1.790163196346839e-06,-0.0004313330864533782,0.3600884974002838,-0.5426545143127441,0.0
normal,54,False,-3.109311103820801,-0.0049461424350738525,4.374728479430351,-1.846299648284912,0.09167694300413132,-1.2480477094650269,0.13744449615478516,0.36030277609825134,-0.5430783033370972,0.36030277609825134,-0.5430783033370972,7.206055521965027,-0.3258469820022583,-0.3366314470767975,-0.3334710896015167,-0.3350512683391571,-0.004946164321154356,0.0916769728064537,0.13744455575942993,4.374731467638113,4.374731540679932,0.11313845217227936,0.09167642146348953,4.3747289063171735,0.3930446207523346,16,0.16804790496826172,0.0,2.61413106272812e-07,0.0,False,True,False,False,False,False,0.24877095222473145,-0.051003530621528625,0.04846149682998657,1.2686104128079023e-05,-0.002858801744878292,0.36030277609825134,-0.5430783033370972,0.0
normal,55,False,-3.1010661125183105,-0.004783187061548233,4.473026000644236,-1.8382222652435303,0.09400659799575806,-1.2400497198104858,0.14080044627189636,0.3602477014064789,-0.5430638790130615,0.3602477014064789,-0.5430638790130615,7.204954028129578,-0.3258383274078369,-0.33725863695144653,-0.33270514011383057,-0.33498188853263855,-0.004783095791935921,0.09400667995214462,0.14080052077770233,4.473025573757412,4.473025798797607,0.11057610809803009,0.09400606155395508,4.473026000644236,0.3930446207523346,16,0.16005003452301025,0.0,3.0530236472259276e-07,0.0,False,True,False,False,False,False,0.2483394593000412,-0.04675693437457085,0.047488145530223846,2.645546601343085e-06,-0.001848589046858251,0.3602477014064789,-0.5430638790130615,0.0
normal,56,False,-3.0929527282714844,-0.004617515951395035,4.570505606705011,-1.8302786350250244,0.09632065892219543,-1.2321866750717163,0.14413213729858398,0.3603305220603943,-0.5431188344955444,0.3603305220603943,-0.5431188344955444,7.206610441207886,-0.32587130069732667,-0.33774909377098083,-0.3331982493400574,-0.3354736566543579,-0.004617461934685707,0.09632071107625961,0.14413219690322876,4.570505606705011,4.570505619049072,0.10865364223718643,0.09632010757923126,4.570505606705011,0.3930446207523346,16,0.15218698978424072,0.0,3.045614960228704e-07,0.0,False,True,False,False,False,False,0.2468877136707306,-0.051922768354415894,0.04994405061006546,2.359865902690217e-06,0.0004213559441268444,0.3603305220603943,-0.5431188344955444,0.0
normal,57,False,-3.0846331119537354,-0.004453573375940323,4.6774949705245605,-1.8221498727798462,0.09884222596883774,-1.224148154258728,0.1477704495191574,0.3602939546108246,-0.5431188344955444,0.3602939546108246,-0.5431188344955444,7.205879092216492,-0.32587130069732667,-0.3371015191078186,-0.3351825773715973,-0.33614206314086914,-0.004453675821423531,0.09884218871593475,0.1477704495191574,4.677498385619145,4.6774983406066895,0.10745417326688766,0.09884165972471237,4.677495397411383,0.3930446207523346,16,0.14414823055267334,0.0,1.580685733415521e-07,0.0,False,True,False,False,False,False,0.24326416850090027,-0.057948749512434006,0.07197745889425278,0.0,-0.02012648992240429,0.3602939546108246,-0.5431188344955444,0.0
normal,58,False,-3.0768840312957764,-0.004264622926712036,4.757095275772358,-1.8145453929901123,0.100785031914711,-1.2166122198104858,0.15054400265216827,0.36012378334999084,-0.5429264307022095,0.36012378334999084,-0.5429264307022095,7.202475666999817,-0.32575585842132565,-0.333797812461853,-0.3331739604473114,-0.3334859013557434,-0.004264575429260731,0.10078508406877518,0.15054406225681305,4.757095275772358,4.7570953369140625,0.10654111206531525,0.10078445822000504,4.757094848885536,0.3930446207523346,16,0.1366124153137207,0.0,2.1741185207702074e-07,0.0,False,True,False,False,False,False,0.24161769449710846,-0.060524970293045044,0.054716598242521286,0.0,-0.006104148458689451,0.36012378334999084,-0.5429264307022095,0.0
normal,59,False,-3.068281412124634,-0.004019338637590408,4.857332570710526,-1.8061285018920898,0.10323858261108398,-1.2082833051681519,0.1540435403585434,0.35999998450279236,-0.542931318283081,0.35999998450279236,-0.542931318283081,7.199999690055847,-0.3257587909698486,-0.33352628350257874,-0.3349454998970032,-0.33423590660095215,-0.004019379615783691,0.10323860496282578,0.15404359996318817,4.857335132031466,4.857335090637207,0.10649368166923523,0.10323799401521683,4.857332143823704,0.3930446207523346,16,0.12828350067138672,0.0,2.409762203114951e-07,0.0,False,True,False,False,False,False,0.24352985620498657,-0.0529545396566391,0.053218718618154526,4.699676537711639e-06,-0.0015739218797534704,0.35999998450279236,-0.542931318283081,0.0
normal,60,False,-3.0601983070373535,-0.0038338154554367065,4.963502738716497,-1.7982463836669922,0.10576269030570984,-1.2004963159561157,0.1576753854751587,0.360099196434021,-0.5429414510726929,0.360099196434021,-0.5429414510726929,7.20198392868042,-0.3257648706436157,-0.33320358395576477,-0.3358309864997864,-0.33451730012893677,-0.0038335779681801796,0.10576286911964417,0.15767554938793182,4.963499750508736,4.963500022888184,0.10732510685920715,0.10576208680868149,4.963502311829674,0.3930446207523346,16,0.12049651145935059,0.0,2.576023803158023e-07,0.0,False,True,False,False,False,False,0.24305643141269684,-0.05446694791316986,0.05586590617895126,4.120440166843764e-07,-0.0004883112269453704,0.360099196434021,-0.5429414510726929,0.0
normal,61,False,-3.052405834197998,-0.003603365272283554,5.059764863557718,-1.790639877319336,0.10811319202184677,-1.1929779052734375,0.16103008389472961,0.3601514995098114,-0.5429688692092896,0.3601514995098114,-0.5429688692092896,7.203029990196228,-0.3257813215255737,-0.33381718397140503,-0.33683228492736816,-0.3353247344493866,-0.003603134537115693,0.1081133633852005,0.16103023290634155,5.05976230223678,5.059762477874756,0.10863549262285233,0.10811257362365723,5.059764863557718,0.3930446207523346,16,0.11297810077667236,0.0,2.536892225180054e-07,0.0,False,True,False,False,False,False,0.24112428724765778,-0.061669349670410156,0.04997875913977623,4.6900659071980044e-06,0.0016887661768123507,0.3601514995098114,-0.5429688692092896,0.0
normal,62,False,-3.0439906120300293,-0.0031746774911880493,5.168685890251911,-1.7824392318725586,0.11094033718109131,-1.184878945350647,0.1649933010339737,0.3601960837841034,-0.5429563522338867,0.3601960837841034,-0.5429563522338867,7.203921675682068,-0.325773811340332,-0.33434104919433594,-0.3367384970188141,-0.3355397582054138,-0.003174642100930214,0.11094039678573608,0.16499337553977966,5.168686744025558,5.168686866760254,0.11096715182065964,0.11093970388174057,5.1686854633650885,0.3930446207523346,16,0.10487914085388184,0.0,2.5567493366907e-07,0.0,False,True,False,False,False,False,0.245356947183609,-0.038475487381219864,0.03751552104949951,1.713872370601166e-05,-0.007263149134814739,0.3601960837841034,-0.5429563522338867,0.0
normal,63,False,-3.036090850830078,-0.002923194319009781,5.273231753895889,-1.774749755859375,0.11349353939294815,-1.1772891283035278,0.1686367690563202,0.3599063754081726,-0.5428534746170044,0.3599063754081726,-0.5428534746170044,7.198127508163452,-0.32571208477020264,-0.33274635672569275,-0.3365723192691803,-0.3346593379974365,-0.0029232893139123917,0.11349351704120636,0.16863678395748138,5.273235168990474,5.273235321044922,0.11361490935087204,0.11349289119243622,5.273231753895889,0.3930446207523346,16,0.09728920459747314,0.0,1.706118126776346e-07,0.0,False,True,False,False,False,False,0.23662129044532776,-0.05415474250912666,0.06077270954847336,5.0598744564922526e-05,-0.000609426642768085,0.3599063754081726,-0.5428534746170044,0.0
normal,64,False,-3.027797222137451,-0.0027973540127277374,5.373318784672317,-1.7666614055633545,0.11582257598638535,-1.1692979335784912,0.1720093935728073,0.3598954677581787,-0.5427355766296387,0.3598954677581787,-0.5427355766296387,7.197909355163574,-0.3256413459777832,-0.3337424099445343,-0.3369327485561371,-0.3353375792503357,-0.002797388704493642,0.11582258343696594,0.1720094233751297,5.373320919106432,5.373321056365967,0.11658810824155807,0.11582191288471222,5.373318784672317,0.3930446207523346,16,0.08929800987243652,0.0,1.1353704820749044e-07,0.0,False,True,False,False,False,False,0.24264000356197357,-0.05324861407279968,0.059317007660865784,0.0,-2.8388225473463535e-05,0.3598954677581787,-0.5427355766296387,0.0
normal,65,False,-3.0192720890045166,-0.0028329528868198395,5.457365969956617,-1.7583117485046387,0.1176367998123169,-1.1610313653945923,0.1746998280286789,0.36013224720954895,-0.5428532361984253,0.36013224720954895,-0.5428532361984253,7.202644944190979,-0.32571194171905515,-0.3344884216785431,-0.3342670798301697,-0.3343777656555176,-0.0028328613843768835,0.11763686686754227,0.17469987273216248,5.45736511618297,5.457365036010742,0.11961938440799713,0.11763612926006317,5.457365969956617,0.3930446207523346,16,0.0810316801071167,0.0,3.00197285696413e-07,0.0,False,True,False,False,False,False,0.24869410693645477,-0.06355553865432739,0.04851779714226723,0.0004399111494421959,0.014158613048493862,0.36013224720954895,-0.5428532361984253,0.0
normal,66,False,-3.011648178100586,-0.0022943243384361267,5.547262785378209,-1.7508783340454102,0.12015372514724731,-1.1536881923675537,0.17815381288528442,0.3603137731552124,-0.5430154800415039,0.3603137731552124,-0.5430154800415039,7.206275463104248,-0.32580928802490233,-0.3365788757801056,-0.3327745795249939,-0.33467674255371094,-0.0022942840587347746,0.12015378475189209,0.1781538873910904,5.547263639151855,5.5472636222839355,0.12363246828317642,0.1201530396938324,5.547262785378209,0.3930446207523346,16,0.07368850708007812,0.0,3.9820039887672465e-07,0.0,False,True,False,False,False,False,0.2522946894168854,-0.0491732582449913,0.038160450756549835,3.153050329274265e-06,-0.00029021146474406123,0.3603137731552124,-0.5430154800415039,0.0
normal,67,False,-3.0030736923217773,-0.0016727596521377563,5.66329190456427,-1.7425544261932373,0.12332820892333984,-1.1454830169677734,0.18253754079341888,0.3603629171848297,-0.543135404586792,0.3603629171848297,-0.543135404586792,7.207258343696594,-0.3258812427520752,-0.33632752299308777,-0.33320683240890503,-0.3347671627998352,-0.0016725931782275438,0.12332834303379059,0.18253764510154724,5.663290197016977,5.663290500640869,0.1288876086473465,0.12332750111818314,5.66329190456427,0.3930446207523346,16,0.06548333168029785,0.0,3.6669331393568427e-07,0.0,False,True,False,False,False,False,0.24757201969623566,-0.050984978675842285,0.05809520184993744,1.1209556760150008e-05,-0.002922725398093462,0.3603629171848297,-0.543135404586792,0.0
normal,68,False,-2.9948012828826904,-0.0013492405414581299,5.768893032435013,-1.7345144748687744,0.12597477436065674,-1.1375532150268555,0.18628445267677307,0.36006632447242737,-0.5429118871688843,0.36006632447242737,-0.5429118871688843,7.201326489448547,-0.32574713230133057,-0.33638307452201843,-0.33429351449012756,-0.335338294506073,-0.0013491602148860693,0.1259748637676239,0.18628454208374023,5.768893032435013,5.768893241882324,0.13393495976924896,0.12597405910491943,5.768893032435013,0.3930446207523346,16,0.05755352973937988,0.0,3.3801160270741093e-07,0.0,False,True,False,False,False,False,0.2415887713432312,-0.06493446975946426,0.07533875107765198,0.0,0.004138067364692688,0.36006632447242737,-0.5429118871688843,0.0
normal,69,False,-2.986729860305786,-0.0010229125618934631,5.8686637400755055,-1.7266666889190674,0.1284954845905304,-1.1298112869262695,0.18984457850456238,0.35992947220802307,-0.5426933765411377,0.35992947220802307,-0.5426933765411377,7.198589444160461,-0.3256160259246826,-0.3365931510925293,-0.3348017930984497,-0.3356974720954895,-0.0010229182662442327,0.1284954994916916,0.18984460830688477,5.868664593849152,5.868664741516113,0.13912415504455566,0.1284947544336319,5.868663313188682,0.3930446207523346,16,0.049811482429504395,0.0,1.8851712013656652e-07,0.0,False,True,False,False,False,False,0.24699804186820984,-0.04521089792251587,0.05589156970381737,0.0002811776357702911,-0.08010508865118027,0.35992947220802307,-0.5426933765411377,0.0
normal,70,False,-2.9786014556884766,-0.0006475076079368591,5.965167909745438,-1.718758225440979,0.13099302351474762,-1.1220070123672485,0.19334733486175537,0.3602629601955414,-0.5431340932846069,0.3602629601955414,-0.5431340932846069,7.205259203910828,-0.32588045597076415,-0.3358299732208252,-0.33548909425735474,-0.33565953373908997,-0.005845606327056885,0.12728381156921387,0.19034336507320404,6.032884539611061,6.03288459777832,0.1446019411087036,0.13099227845668793,5.965167909745438,0.3930446207523346,16,0.04705631732940674,0.0,0.005105235148221254,0.0,False,True,False,False,False,False,0.23121462762355804,-0.06077701598405838,0.07427065074443817,7.080253681124304e-07,0.013366042636334896,0.3602629601955414,-0.5431340932846069,0.0
normal,71,False,-2.9706528186798096,-0.0001672804355621338,6.042338802082828,-1.7109880447387695,0.1331700086593628,-1.1143214702606201,0.19632801413536072,0.3596133291721344,-0.5422650575637817,0.3596133291721344,-0.5422650575637817,7.192266583442688,-0.32535903453826903,-0.3371453583240509,-0.33568960428237915,-0.3364174962043762,-0.010943461209535599,0.12540386617183685,0.1899876445531845,6.1792678732423045,6.179267883300781,0.14998966455459595,0.1331692487001419,6.0423392289696505,0.3930446207523346,16,0.04780149459838867,0.0,0.013523438945412636,0.0,False,True,False,False,False,False,0.23965346813201904,-0.0638134703040123,0.03847769275307655,0.0,-0.035443343222141266,0.3596133291721344,-0.5422650575637817,0.0
normal,72,False,-2.9627137184143066,0.00020101666450500488,6.142019009716817,-1.7032828330993652,0.1357295960187912,-1.106726884841919,0.19992555677890778,0.3600105345249176,-0.5427836179733276,0.3600105345249176,-0.5427836179733276,7.200210690498352,-0.32567017078399657,-0.33687278628349304,-0.3351981043815613,-0.33603543043136597,-0.016784440726041794,0.12353721261024475,0.19000349938869476,6.360117622085903,6.3601179122924805,0.15591037273406982,0.13572882115840912,6.142019009716817,0.3930446207523346,16,0.04881763458251953,0.0,0.0220880638808012,0.0,False,True,False,False,False,False,0.23790399730205536,-0.054263852536678314,0.054006427526474,3.6051553706784034e-06,0.0017484283307567239,0.3600105345249176,-0.5427836179733276,0.0
normal,73,False,-2.954864501953125,0.0005643293261528015,6.244114116109229,-1.6956770420074463,0.13833686709403992,-1.0992366075515747,0.20359572768211365,0.35981693863868713,-0.5425715446472168,0.35981693863868713,-0.5425715446472168,7.196338772773743,-0.3255429267883301,-0.33587220311164856,-0.3368804156780243,-0.3363763093948364,-0.022752778604626656,0.12165652960538864,0.19005903601646423,6.546190331210444,6.54619026184082,0.16201063990592957,0.13833607733249664,6.244114542996052,0.3930446207523346,16,0.049845337867736816,0.0,0.030547162517905235,0.0,False,True,False,False,False,False,0.23594023287296295,-0.049370668828487396,0.05141875520348549,4.176370111963479e-06,0.00030876602977514267,0.35981693863868713,-0.5425715446472168,0.0
normal,74,False,-2.9472947120666504,0.0010139942169189453,6.3395335663616,-1.6883385181427002,0.14088337123394012,-1.0920075178146362,0.20713543891906738,0.3597739040851593,-0.5424710512161255,0.3597739040851593,-0.5424710512161255,7.195478081703186,-0.32548263072967526,-0.33638206124305725,-0.33697548508644104,-0.33667877316474915,-0.02799747884273529,0.12012220919132233,0.19028222560882568,6.7151495744826954,6.715149879455566,0.16368699073791504,0.14088256657123566,6.3395335663616,0.5447832345962524,17,0.05084526538848877,0.0,0.03873487934470177,0.0,False,True,False,False,False,False,0.2325172871351242,-0.056371547281742096,0.04509088397026062,7.615029176122334e-07,-0.00213646306656301,0.3597739040851593,-0.5424710512161255,0.0
normal,75,False,-2.9393911361694336,0.0014278441667556763,6.431021815859805,-1.6806600093841553,0.14330731332302094,-1.0844354629516602,0.21051150560379028,0.35954180359840393,-0.542411208152771,0.35954180359840393,-0.542411208152771,7.190836071968079,-0.3254467248916626,-0.33666104078292847,-0.3350047767162323,-0.3358328938484192,-0.03242364525794983,0.11898500472307205,0.1907029002904892,6.864966785719163,6.864966869354248,0.16205374896526337,0.14330649375915527,6.431021815859805,0.5447832345962524,17,0.0517117977142334,0.0,0.04715939611196518,0.0,False,True,False,False,False,False,0.22997593879699707,-0.0419180691242218,0.058241620659828186,0.0,-0.0005793382879346609,0.35954180359840393,-0.542411208152771,0.0
normal,76,False,-2.9317586421966553,0.0018212273716926575,6.529890084756208,-1.673274040222168,0.14587250351905823,-1.0771664381027222,0.21410542726516724,0.3593718707561493,-0.5422989130020142,0.3593718707561493,-0.5422989130020142,7.187437415122986,-0.3253793478012085,-0.33635395765304565,-0.33601242303848267,-0.33618319034576416,-0.03765096142888069,0.11745074391365051,0.19091792404651642,7.033248132716292,7.033248424530029,0.1610593944787979,0.14587166905403137,6.529890084756208,0.5447832345962524,17,0.05269348621368408,0.0,0.05541205778717995,0.0,False,False,False,False,False,False,0.23134887218475342,-0.048526324331760406,0.05459506809711456,0.0,0.00016844458878040314,0.3593718707561493,-0.5422989130020142,0.0
normal,77,False,-2.9243288040161133,0.0022479966282844543,6.6180682538278965,-1.666067361831665,0.14823594689369202,-1.0700654983520508,0.2173861861228943,0.3594464361667633,-0.5423862934112549,0.3594464361667633,-0.5423862934112549,7.188928723335266,-0.32543177604675294,-0.3357626497745514,-0.3361276090145111,-0.33594512939453125,-0.04317320138216019,0.11558057367801666,0.19077761471271515,7.199721187130658,7.199721336364746,0.1603219211101532,0.14823509752750397,6.6180682538278965,0.5447832345962524,17,0.053723692893981934,0.0,0.06348728388547897,0.0,False,False,False,False,False,False,0.22820790112018585,-0.0599362775683403,0.039627354592084885,5.986704309179913e-06,0.003370372112840414,0.3594464361667633,-0.5423862934112549,0.0
normal,78,False,-2.9161620140075684,0.0027285292744636536,6.711261062410843,-1.6581398248672485,0.15076285600662231,-1.0622512102127075,0.22088241577148438,0.3592880964279175,-0.5421754121780396,0.3592880964279175,-0.5421754121780396,7.18576192855835,-0.3253052473068237,-0.33736228942871094,-0.33655107021331787,-0.3369566798210144,-0.0481773242354393,0.11413247138261795,0.19101391732692719,7.361875854442284,7.361876010894775,0.15985393524169922,0.15076199173927307,6.711261489297666,0.5447832345962524,17,0.05447554588317871,0.0,0.07201716303825378,0.0,False,False,False,False,False,False,0.23060059547424316,-0.05369989946484566,0.04959703981876373,0.0,-0.0009199167834594846,0.3592880964279175,-0.5421754121780396,0.0
normal,79,False,-2.9085354804992676,0.0031505227088928223,6.811214050724809,-1.650773286819458,0.15337924659252167,-1.0550079345703125,0.22453823685646057,0.35926276445388794,-0.5422790050506592,0.35926276445388794,-0.5422790050506592,7.185255289077759,-0.3253674030303955,-0.3366073668003082,-0.3375653326511383,-0.33708634972572327,-0.053153738379478455,0.11283846199512482,0.1914641559123993,7.529856673115932,7.5298566818237305,0.160063698887825,0.15337836742401123,6.811214050724809,0.5447832345962524,17,0.055477261543273926,0.0,0.08022414892911911,0.0,False,False,False,False,False,False,0.22740145027637482,-0.05455390363931656,0.06194065138697624,4.126465000808821e-07,0.005864775273948908,0.35926276445388794,-0.5422790050506592,0.0
normal,80,False,-2.9008703231811523,0.003626100718975067,6.908296652040078,-1.643364667892456,0.1559857726097107,-1.0477206707000732,0.22815412282943726,0.3591195344924927,-0.5420814752578735,0.3591195344924927,-0.5420814752578735,7.1823906898498535,-0.3252488851547241,-0.3375864624977112,-0.33768782019615173,-0.33763712644577026,-0.05906406044960022,0.11089233309030533,0.19139574468135834,7.710763624793828,7.710763931274414,0.160634383559227,0.15598487854003906,6.908296652040078,0.5447832345962524,17,0.05647075176239014,0.0,0.08845312148332596,0.0,False,False,False,False,False,False,0.23078607022762299,-0.050880253314971924,0.05333775281906128,1.2175618394394405e-05,0.00042701419442892075,0.3591195344924927,-0.5420814752578735,0.0
normal,81,False,-2.893343448638916,0.004104845225811005,7.000679656319555,-1.636085033416748,0.15849190950393677,-1.0405582189559937,0.23162057995796204,0.3592427670955658,-0.5422356128692627,0.3592427670955658,-0.5422356128692627,7.184855341911316,-0.3253413677215576,-0.33859339356422424,-0.33761417865753174,-0.3381037712097168,-0.06453894078731537,0.10916028916835785,0.19143657386302948,7.881640443675561,7.881640434265137,0.16151149570941925,0.15849100053310394,7.000679656319555,0.5447832345962524,17,0.05746948719024658,0.0,0.09654449671506882,0.0,False,False,False,False,False,False,0.23135147988796234,-0.05454345792531967,0.05278530344367027,3.3732681004039478e-06,-0.0012289779260754585,0.3592427670955658,-0.5422356128692627,0.0
normal,82,False,-2.8855483531951904,0.004598371684551239,7.097492038275785,-1.6285526752471924,0.16110959649085999,-1.0331501960754395,0.23524442315101624,0.35932084918022156,-0.5422641038894653,0.35932084918022156,-0.5422641038894653,7.186416983604431,-0.3253584623336792,-0.33794116973876953,-0.3382226526737213,-0.33808189630508423,-0.07060690224170685,0.10715104639530182,0.1913498342037201,8.067017754165231,8.067017555236816,0.16282208263874054,0.16110867261886597,7.097492038275785,0.5447832345962524,17,0.058490753173828125,0.0,0.10487964749336243,0.0,False,False,False,False,False,False,0.22480757534503937,-0.06735080480575562,0.05982242897152901,9.348902494821232e-06,-0.001064745825715363,0.35932084918022156,-0.5422641038894653,0.0
normal,83,False,-2.8777294158935547,0.005136832594871521,7.1943979084462795,-1.621000051498413,0.1637738198041916,-1.025723934173584,0.2389155626296997,0.35924574732780457,-0.5420961380004883,0.35924574732780457,-0.5420961380004883,7.184914946556091,-0.32525768280029294,-0.3390499949455261,-0.33833980560302734,-0.33869490027427673,-0.07634934037923813,0.10533350706100464,0.19139139354228973,8.24636400761778,8.246363639831543,0.16455353796482086,0.16377288103103638,7.1943979084462795,0.5447832345962524,17,0.05947840213775635,0.0,0.11322630941867828,0.0,False,False,False,False,False,False,0.22963346540927887,-0.07111601531505585,0.05316224694252014,4.845403054787312e-06,-0.003128952346742153,0.35924574732780457,-0.5420961380004883,0.0
normal,84,False,-2.87007999420166,0.005532033741474152,7.2860855140908845,-1.6136062145233154,0.16617989540100098,-1.0184509754180908,0.24227413535118103,0.3593033254146576,-0.5422862768173218,0.3593033254146576,-0.5422862768173218,7.186066508293152,-0.32537176609039303,-0.33957743644714355,-0.3390035331249237,-0.3392904996871948,-0.08216968923807144,0.10337619483470917,0.19126391410827637,8.42296281747669,8.42296314239502,0.16640259325504303,0.16617894172668457,7.2860855140908845,0.5447832345962524,17,0.060439348220825195,0.0,0.12134432047605515,0.0,False,False,False,False,False,False,0.23205766081809998,-0.062048498541116714,0.0522000677883625,0.0,0.0005721659399569035,0.3593033254146576,-0.5422862768173218,0.0
normal,85,False,-2.862288236618042,0.00606381893157959,7.385383658018176,-1.6060948371887207,0.16888901591300964,-1.0110723972320557,0.24601459503173828,0.35944709181785583,-0.5424315929412842,0.35944709181785583,-0.5424315929412842,7.188941836357117,-0.3254589557647705,-0.33900395035743713,-0.3391563594341278,-0.33908015489578247,-0.08795856684446335,0.10167914628982544,0.1915050446987152,8.61011000073504,8.61011028289795,0.16889256238937378,0.16888804733753204,7.385383658018176,0.5447832345962524,17,0.061541199684143066,0.0,0.1296696960926056,0.0,False,False,False,False,False,False,0.23228983581066132,-0.04926525056362152,0.055172890424728394,0.0,-0.005524280946701765,0.35944709181785583,-0.5424315929412842,0.0
normal,86,False,-2.8547043800354004,0.006612502038478851,7.477510957090601,-1.5987743139266968,0.17145733535289764,-1.0038766860961914,0.2495395541191101,0.35950320959091187,-0.5424181222915649,0.35950320959091187,-0.5424181222915649,7.190064191818237,-0.32545087337493894,-0.33890292048454285,-0.3396371603012085,-0.33927005529403687,-0.0938979983329773,0.09969651699066162,0.19139663875102997,8.791168924121969,8.791169166564941,0.1715703308582306,0.17145635187625885,7.477510103316955,0.5447832345962524,17,0.06256270408630371,0.0,0.13776570558547974,0.0,False,False,False,False,False,False,0.23176129162311554,-0.04882720857858658,0.04527098685503006,2.2597380677780166e-07,0.000746661564335227,0.35950320959091187,-0.5424181222915649,0.0
normal,87,False,-2.8468170166015625,0.007183261215686798,7.574456100848823,-1.591167688369751,0.1741529107093811,-0.9964029788970947,0.2532415986061096,0.359546422958374,-0.542487621307373,0.359546422958374,-0.542487621307373,7.1909284591674805,-0.32549257278442384,-0.3388281464576721,-0.33960381150245667,-0.3392159938812256,-0.09955884516239166,0.09795337915420532,0.1915091872215271,8.970524569084626,8.970524787902832,0.17470137774944305,0.17415191233158112,7.574456100848823,0.5447832345962524,17,0.06355869770050049,0.0,0.14614325761795044,0.0,False,False,False,False,False,False,0.2328777015209198,-0.05153705179691315,0.05233277752995491,1.9987659470643848e-05,-0.003356675384566188,0.359546422958374,-0.542487621307373,0.0
normal,88,False,-2.839059591293335,0.007649704813957214,7.660934833477647,-1.5836637020111084,0.1765143722295761,-0.9890190362930298,0.2565006613731384,0.35951030254364014,-0.542517900466919,0.35951030254364014,-0.542517900466919,7.190206050872803,-0.32551074028015137,-0.3395942747592926,-0.3375696539878845,-0.33858197927474976,-0.1049962192773819,0.09612274169921875,0.19138695299625397,9.135724646992433,9.135725021362305,0.17779922485351562,0.17651335895061493,7.660934833477647,0.5447832345962524,17,0.06437397003173828,0.0,0.15424419939517975,0.0,False,False,False,False,False,False,0.2373015135526657,-0.04351877421140671,0.03779274970293045,0.00033958815038204193,0.0019710888154804707,0.35951030254364014,-0.542517900466919,0.0
normal,89,False,-2.83145809173584,0.008224032819271088,7.755934227096062,-1.5763440132141113,0.17916998267173767,-0.98183274269104,0.26014211773872375,0.35961058735847473,-0.5425139665603638,0.35961058735847473,-0.5425139665603638,7.192211747169495,-0.32550837993621823,-0.33856478333473206,-0.3383355140686035,-0.3384501338005066,-0.11048037558794022,0.09440021216869354,0.1914462149143219,9.308098984849691,9.308098793029785,0.1814471036195755,0.1791689544916153,7.755934227096062,0.5447832345962524,17,0.06544208526611328,0.0,0.16244789958000183,0.0,False,False,False,False,False,False,0.2311432808637619,-0.04428155720233917,0.04357948154211044,7.177445513661951e-05,-0.0013841199688613415,0.35961058735847473,-0.5425139665603638,0.0
normal,90,False,-2.8239521980285645,0.008829973638057709,7.84396768153471,-1.5691022872924805,0.18170419335365295,-0.9747161865234375,0.26358968019485474,0.35935112833976746,-0.5423054695129395,0.35935112833976746,-0.5423054695129395,7.187022566795349,-0.32538328170776365,-0.3369938135147095,-0.33770832419395447,-0.33735108375549316,-0.11603469401597977,0.0925169438123703,0.19130177795886993,9.476404237508914,9.476404190063477,0.1852162629365921,0.18170315027236938,7.84396768153471,0.5447832345962524,17,0.06640410423278809,0.0,0.17046219110488892,0.0,False,False,False,False,False,False,0.22369210422039032,-0.06094980239868164,0.039075322449207306,1.3382479835399863e-07,-6.975612632231787e-05,0.35935112833976746,-0.5423054695129395,0.0
normal,91,False,-2.816465139389038,0.009413018822669983,7.93823026849641,-1.5619012117385864,0.18435145914554596,-0.9676506519317627,0.26721471548080444,0.3594984710216522,-0.542385458946228,0.3594984710216522,-0.542385458946228,7.189969420433044,-0.3254312753677368,-0.33653193712234497,-0.33864471316337585,-0.3375883102416992,-0.121503084897995,0.09086364507675171,0.19145561754703522,9.651402221781103,9.651402473449707,0.18932239711284637,0.1843504011631012,7.938229414722763,0.5447832345962524,17,0.06741535663604736,0.0,0.1784311830997467,0.0,False,False,False,False,False,False,0.22502310574054718,-0.050102971494197845,0.05377434194087982,1.4321761909741326e-07,-0.0001849062682595104,0.3594984710216522,-0.542385458946228,0.0
normal,92,False,-2.808903932571411,0.01001814752817154,8.033065737574743,-1.554631233215332,0.18703284859657288,-0.9605187177658081,0.2708795964717865,0.35928669571876526,-0.5421533584594727,0.35928669571876526,-0.5421533584594727,7.185733914375305,-0.32529201507568356,-0.33679521083831787,-0.3382350206375122,-0.33751511573791504,-0.12695887684822083,0.08916634321212769,0.19153860211372375,9.823894380401544,9.823894500732422,0.19369642436504364,0.18703177571296692,8.033065737574743,0.5447832345962524,17,0.06838619709014893,0.0,0.1864767223596573,0.0,False,False,False,False,False,False,0.226369708776474,-0.046449098736047745,0.04821893945336342,8.356460057257209e-06,-0.005615775473415852,0.35928669571876526,-0.5421533584594727,0.0
normal,93,False,-2.801305055618286,0.010548964142799377,8.12779363117365,-1.5473268032073975,0.18963715434074402,-0.9533536434173584,0.27446603775024414,0.35941532254219055,-0.5422616004943848,0.35941532254219055,-0.5422616004943848,7.188306450843811,-0.32535696029663086,-0.3364188075065613,-0.3388739228248596,-0.33764636516571045,-0.13246876001358032,0.08742155879735947,0.1915772259235382,9.996775859804675,9.99677562713623,0.1982131451368332,0.18963606655597687,8.127794484947296,0.5447832345962524,17,0.06935656070709229,0.0,0.19454032182693481,0.0,False,False,False,False,False,False,0.2276114523410797,-0.05191478133201599,0.048658233135938644,6.1376636040222365e-06,-0.0014014793559908867,0.35941532254219055,-0.5422616004943848,0.0
normal,94,False,-2.7935690879821777,0.011278443038463593,8.2081849577047,-1.5398433208465576,0.19212591648101807,-0.945989727973938,0.27778810262680054,0.3595353662967682,-0.5422617197036743,0.3595353662967682,-0.5422617197036743,7.190707325935364,-0.3253570318222046,-0.3373425006866455,-0.3388431966304779,-0.3380928635597229,-0.1373777538537979,0.08589649200439453,0.1916550248861313,10.152236087956043,10.152235984802246,0.20287376642227173,0.19212481379508972,8.208184103931055,0.5447832345962524,17,0.07022416591644287,0.0,0.20264990627765656,0.0,False,False,False,False,False,False,0.21777398884296417,-0.06863953173160553,0.0794501006603241,6.417227996280417e-05,0.010862676426768303,0.3595353662967682,-0.5422617197036743,0.0
normal,95,False,-2.786017656326294,0.011679671704769135,8.293019322290844,-1.5325610637664795,0.19438326358795166,-0.9388350248336792,0.28092464804649353,0.3593028485774994,-0.5420122146606445,0.3593028485774994,-0.5420122146606445,7.186056971549988,-0.3252073287963867,-0.33680614829063416,-0.33796536922454834,-0.33738577365875244,-0.1410553753376007,0.08518196642398834,0.1923440396785736,10.28842493736422,10.28842544555664,0.20744217932224274,0.19438214600086212,8.293019322290844,0.5447832345962524,17,0.07110953330993652,0.0,0.21056848764419556,0.0,False,False,False,False,False,False,0.22750672698020935,-0.045437514781951904,0.049410346895456314,4.502465162659064e-05,-0.006705841980874538,0.3593028485774994,-0.5420122146606445,0.0
normal,96,False,-2.778867244720459,0.012301675975322723,8.380132408738833,-1.5256898403167725,0.19691084325313568,-0.9320961236953735,0.2843548357486725,0.35956498980522156,-0.5422797203063965,0.35956498980522156,-0.5422797203063965,7.191299796104431,-0.32536783218383786,-0.33748626708984375,-0.3368895947933197,-0.3371879458427429,-0.14642444252967834,0.0834980309009552,0.1924056112766266,10.45787851557765,10.457879066467285,0.21228279173374176,0.19690971076488495,8.38013326251248,0.5447832345962524,17,0.0721745491027832,0.0,0.21822212636470795,0.0,False,False,False,False,False,False,0.22448872029781342,-0.05532655119895935,0.04564988985657692,2.8938864033989375e-06,-0.004841027781367302,0.35956498980522156,-0.5422797203063965,0.0
normal,97,False,-2.7711293697357178,0.012969426810741425,8.4753819580356,-1.5182607173919678,0.19966161251068115,-0.9248130321502686,0.2880922853946686,0.3596729338169098,-0.542381763458252,0.3596729338169098,-0.542381763458252,7.193458676338196,-0.32542905807495115,-0.33735188841819763,-0.33638298511505127,-0.33686745166778564,-0.15245747566223145,0.0815645232796669,0.19241397082805634,10.646502727244016,10.646502494812012,0.2176889181137085,0.19966046512126923,8.4753819580356,0.5447832345962524,17,0.07320785522460938,0.0,0.22636164724826813,0.0,False,False,False,False,False,False,0.22684912383556366,-0.04835836589336395,0.05317329242825508,9.429520275716641e-08,-5.264801438897848e-05,0.3596729338169098,-0.542381763458252,0.0
normal,98,False,-2.7635748386383057,0.01365535706281662,8.567446931631848,-1.5110076665878296,0.20236048102378845,-0.9177029132843018,0.2917446196079254,0.3596416413784027,-0.5423455238342285,0.3596416413784027,-0.5423455238342285,7.192832827568054,-0.3254073143005371,-0.33736452460289,-0.33673346042633057,-0.3370490074157715,-0.15854120254516602,0.0795590728521347,0.19234026968479156,10.834258651112142,10.834259033203125,0.21797245740890503,0.20235931873321533,8.567447785405495,0.6965218186378479,18,0.07425987720489502,0.0,0.23432955145835876,0.0,False,False,False,False,False,False,0.22925204038619995,-0.03879421204328537,0.04374542832374573,8.847117896948475e-06,-0.0015233047306537628,0.3596416413784027,-0.5423455238342285,0.0
normal,99,False,-2.7560207843780518,0.014318786561489105,8.666274646280055,-1.5037809610366821,0.20518413186073303,-0.9106312990188599,0.2955915033817291,0.35977765917778015,-0.5424385070800781,0.35977765917778015,-0.5424385070800781,7.195553183555603,-0.32546310424804686,-0.3366171717643738,-0.33799582719802856,-0.33730649948120117,-0.16454985737800598,0.07772542536258698,0.19248420000076294,11.026593363045116,11.026593208312988,0.21804620325565338,0.20518295466899872,8.6662755000537,0.6965218186378479,18,0.07538306713104248,0.0,0.2423296421766281,0.0,False,False,False,False,False,False,0.22558216750621796,-0.051590241491794586,0.053327787667512894,1.8749741457213531e-06,0.000564154121093452,0.35977765917778015,-0.5424385070800781,0.0
normal,100,False,-2.7486090660095215,0.014962941408157349,8.751903020357211,-1.496655821800232,0.20769952237606049,-0.903641939163208,0.2989932596683502,0.35969898104667664,-0.5424234867095947,0.35969898104667664,-0.5424234867095947,7.193979620933533,-0.3254540920257568,-0.3371819853782654,-0.3377430737018585,-0.33746254444122314,-0.16981390118598938,0.07605142146348953,0.1925106942653656,11.192081162671709,11.192081451416016,0.21813318133354187,0.20769833028316498,8.751903020357211,0.6965218186378479,18,0.07634222507476807,0.0,0.25013601779937744,0.0,False,False,False,False,False,False,0.22600463032722473,-0.04310483857989311,0.04919761046767235,0.0,0.0011943159624934196,0.35969898104667664,-0.5424234867095947,0.0
normal,101,False,-2.7415058612823486,0.01567211002111435,8.832089441213162,-1.489823579788208,0.21016064286231995,-0.8969380855560303,0.30228421092033386,0.3598783612251282,-0.5425596237182617,0.3598783612251282,-0.5425596237182617,7.1975672245025635,-0.32553577423095703,-0.3371192514896393,-0.3381231725215912,-0.33762121200561523,-0.1757856011390686,0.07386115938425064,0.19211158156394958,11.366492604448924,11.36649227142334,0.21850937604904175,0.21015943586826324,8.832089441213162,0.6965218186378479,18,0.07746744155883789,0.0,0.25778675079345703,0.0,False,False,False,False,False,False,0.2232985496520996,-0.05597955733537674,0.05232099071145058,2.0416329959971335e-07,-0.0007648253813385963,0.3598783612251282,-0.5425596237182617,0.0
normal,102,False,-2.733520746231079,0.016489915549755096,8.919929089034111,-1.4821382761001587,0.2128971517086029,-0.8893946409225464,0.305929571390152,0.3597416579723358,-0.5425273180007935,0.3597416579723358,-0.5425273180007935,7.194833159446716,-0.32551639080047606,-0.33601996302604675,-0.34000545740127563,-0.3380126953125,-0.18092799186706543,0.07240211963653564,0.19239726662635803,11.536484913833139,11.536484718322754,0.21918848156929016,0.212895929813385,8.919929089034111,0.6965218186378479,18,0.0782773494720459,0.0,0.26594820618629456,0.0,False,False,False,False,False,False,0.22282949090003967,-0.04935537278652191,0.052741292864084244,8.112117484415649e-07,0.00030237215105444193,0.3597416579723358,-0.5425273180007935,0.0
normal,103,False,-2.726186513900757,0.017169609665870667,9.014063609948874,-1.4751282930374146,0.21563254296779633,-0.8825383186340332,0.3096386790275574,0.3597259223461151,-0.5423879623413086,0.3597259223461151,-0.5423879623413086,7.194518446922302,-0.32543277740478516,-0.3358779847621918,-0.3400557041168213,-0.3379668593406677,-0.1870783120393753,0.07035938650369644,0.19230017066001892,11.726174635010025,11.726174354553223,0.2203042209148407,0.21563130617141724,9.014063609948874,0.6965218186378479,18,0.07936656475067139,0.0,0.27370771765708923,0.0,False,False,False,False,False,False,0.22350530326366425,-0.0490511953830719,0.052229996770620346,1.8103189347584703e-07,3.5621073038782924e-05,0.3597259223461151,-0.5423879623413086,0.0
normal,104,False,-2.719046115875244,0.01784505695104599,9.109319989434809,-1.4683196544647217,0.2183876633644104,-0.8758867979049683,0.31337887048721313,0.35975709557533264,-0.5424007177352905,0.35975709557533264,-0.5424007177352905,7.195141911506653,-0.3254404306411743,-0.33568575978279114,-0.340686559677124,-0.3381861448287964,-0.1939573436975479,0.06779250502586365,0.19177579879760742,11.925452234234317,11.92545223236084,0.22172406315803528,0.21838641166687012,9.109319989434809,0.6965218186378479,18,0.08054614067077637,0.0,0.28140196204185486,0.0,False,False,False,False,False,False,0.22383269667625427,-0.05011110007762909,0.061260953545570374,5.479520041262731e-06,0.0020759294275194407,0.35975709557533264,-0.5424007177352905,0.0
normal,105,False,-2.7113535404205322,0.01861996203660965,9.205197916135218,-1.4609644412994385,0.22125521302223206,-0.8686913251876831,0.3172376751899719,0.3597314655780792,-0.5424034595489502,0.3597314655780792,-0.5424034595489502,7.1946293115615845,-0.3254420757293701,-0.33466455340385437,-0.3411164879798889,-0.33789050579071045,-0.20020133256912231,0.06566953659057617,0.191604882478714,12.116034148871538,12.116034507751465,0.2234114110469818,0.22125394642353058,9.205197916135218,0.6965218186378479,18,0.08144378662109375,0.0,0.2893635928630829,0.0,False,False,False,False,False,False,0.22248266637325287,-0.046180885285139084,0.043337613344192505,4.057276328239823e-06,-0.0005059632239863276,0.3597314655780792,-0.5424034595489502,0.0
normal,106,False,-2.7039647102355957,0.019438937306404114,9.284969402999089,-1.4538589715957642,0.22381487488746643,-0.861720085144043,0.3206218481063843,0.35963699221611023,-0.5423115491867065,0.35963699221611023,-0.5423115491867065,7.192739844322205,-0.3253869295120239,-0.33402466773986816,-0.3408399820327759,-0.337432324886322,-0.20541761815547943,0.06398545950651169,0.19159388542175293,12.279495089861928,12.279495239257812,0.22508297860622406,0.22381359338760376,9.284969402999089,0.6965218186378479,18,0.08239519596099854,0.0,0.2970990538597107,0.0,False,False,False,False,False,False,0.21990583837032318,-0.04586664214730263,0.053415630012750626,0.0,0.0007802319596521556,0.35963699221611023,-0.5423115491867065,0.0
normal,107,False,-2.6964797973632812,0.020198523998260498,9.380073810775993,-1.446714997291565,0.22664925456047058,-0.8547376394271851,0.3244389593601227,0.359510213136673,-0.5421785116195679,0.359510213136673,-0.5421785116195679,7.1902042627334595,-0.3253071069717407,-0.33415836095809937,-0.34053924679756165,-0.3373488187789917,-0.21185046434402466,0.06183907389640808,0.19147783517837524,12.477993193747194,12.47799301147461,0.22726476192474365,0.22664795815944672,9.380074664549639,0.6965218186378479,18,0.08346641063690186,0.0,0.3049105703830719,0.0,False,False,False,False,False,False,0.21878845989704132,-0.052900828421115875,0.04461966082453728,9.561822662362829e-05,-0.001117154024541378,0.359510213136673,-0.5421785116195679,0.0
normal,108,False,-2.6892457008361816,0.020941488444805145,9.467078467970907,-1.439795732498169,0.22928977012634277,-0.8479676246643066,0.3279782831668854,0.35945454239845276,-0.5422264337539673,0.35945454239845276,-0.5422264337539673,7.189090847969055,-0.32533586025238037,-0.3346904516220093,-0.34008511900901794,-0.3373878002166748,-0.21771225333213806,0.05995804816484451,0.19148239493370056,12.662474041908299,12.662474632263184,0.22949892282485962,0.22928845882415771,9.467078467970907,0.6965218186378479,18,0.08454859256744385,0.0,0.3124766945838928,0.0,False,False,False,False,False,False,0.22346732020378113,-0.04182935506105423,0.049814630299806595,0.0001302484015468508,-0.0012504963669925928,0.35945454239845276,-0.5422264337539673,0.0
normal,109,False,-2.6819701194763184,0.021723493933677673,9.557323196153346,-1.4328498840332031,0.2320394515991211,-0.8411779403686523,0.33166003227233887,0.3595457673072815,-0.5422077178955078,0.3595457673072815,-0.5422077178955078,7.19091534614563,-0.32532463073730467,-0.33501607179641724,-0.33976051211357117,-0.337388277053833,-0.2240113765001297,0.05782613158226013,0.1913244128227234,12.855740220889334,12.855740547180176,0.23205694556236267,0.23203812539577484,9.557323196153346,0.6965218186378479,18,0.08565020561218262,0.0,0.3201058506965637,0.0,False,False,False,False,False,False,0.21294757723808289,-0.07729852944612503,0.07409700751304626,7.282349088200135e-06,0.005370992701500654,0.3595457673072815,-0.5422077178955078,0.0
normal,110,False,-2.674649715423584,0.022506698966026306,9.65181971709412,-1.4258780479431152,0.23488250374794006,-0.8343712091445923,0.3354787826538086,0.3593575656414032,-0.5420500040054321,0.3593575656414032,-0.5420500040054321,7.187151312828064,-0.3252300024032593,-0.3359551727771759,-0.34025681018829346,-0.3381059765815735,-0.23040510714054108,0.05561783164739609,0.1910986304283142,13.050001899941897,13.050002098083496,0.23491866886615753,0.23488116264343262,9.651820570867766,0.6965218186378479,18,0.08672022819519043,0.0,0.3277975916862488,0.0,False,False,False,False,False,False,0.22462697327136993,-0.03685929253697395,0.04177206754684448,1.0493753507034853e-05,-0.0019606505520641804,0.3593575656414032,-0.5420500040054321,0.0
normal,111,False,-2.6673319339752197,0.0233059823513031,9.741291780126701,-1.4188934564590454,0.23763158917427063,-0.8275443315505981,0.33915141224861145,0.3595573604106903,-0.5422650575637817,0.3595573604106903,-0.5422650575637817,7.191147208213806,-0.32535903453826903,-0.33614233136177063,-0.3396184742450714,-0.337880402803421,-0.23593905568122864,0.05381723493337631,0.19106638431549072,13.223406742590182,13.223406791687012,0.23789100348949432,0.237630233168602,9.741291780126701,0.6965218186378479,18,0.0876694917678833,0.0,0.33544424176216125,0.0,False,False,False,False,False,False,0.2243650108575821,-0.04143695533275604,0.0470966212451458,0.0,-0.006217393092811108,0.3595573604106903,-0.5422650575637817,0.0
normal,112,False,-2.659914255142212,0.024116002023220062,9.83876882486654,-1.4118421077728271,0.24056529998779297,-0.8206666707992554,0.34309104084968567,0.3596373498439789,-0.5423057079315186,0.3596373498439789,-0.5423057079315186,7.192746996879578,-0.32538342475891113,-0.33628684282302856,-0.3409680426120758,-0.3386274576187134,-0.24184806644916534,0.051902152597904205,0.19104312360286713,13.409051284231127,13.409051895141602,0.24124960601329803,0.24056392908096313,9.83876882486654,0.6965218186378479,18,0.08875632286071777,0.0,0.34328946471214294,0.0,False,False,False,False,False,False,0.22118966281414032,-0.046284712851047516,0.04806771129369736,4.188048023934243e-06,-0.0007028321269899607,0.3596373498439789,-0.5423057079315186,0.0
normal,113,False,-2.6523876190185547,0.025022044777870178,9.923527203598166,-1.404637098312378,0.2433173656463623,-0.8136138916015625,0.3467175364494324,0.3596796691417694,-0.542424201965332,0.3596796691417694,-0.542424201965332,7.193593382835388,-0.3254545211791992,-0.3371970057487488,-0.3375917375087738,-0.3373943567276001,-0.24736765027046204,0.0501062348484993,0.1910109519958496,13.58226488158265,13.58226490020752,0.2446356862783432,0.24331597983837128,9.923527203598166,0.6965218186378479,18,0.08973169326782227,0.0,0.35112255811691284,0.0,False,False,False,False,False,False,0.2228538691997528,-0.05105506628751755,0.058451343327760696,7.876272866269574e-05,-0.010415853932499886,0.3596796691417694,-0.542424201965332,0.0
normal,114,False,-2.6450963020324707,0.025901280343532562,10.006051256697551,-1.3976614475250244,0.24599352478981018,-0.8067878484725952,0.3502448499202728,0.3596077263355255,-0.5424262285232544,0.3596077263355255,-0.5424262285232544,7.19215452671051,-0.32545573711395265,-0.33594995737075806,-0.3375470042228699,-0.33674848079681396,-0.2526604235172272,0.04845142364501953,0.19107936322689056,13.7516117380903,13.751611709594727,0.24811005592346191,0.24599212408065796,10.006051256697551,0.6965218186378479,18,0.09077489376068115,0.0,0.3587587773799896,0.0,False,False,False,False,False,False,0.22314754128456116,-0.048697635531425476,0.050735365599393845,7.939596713413266e-08,0.00016089249402284622,0.3596077263355255,-0.5424262285232544,0.0
normal,115,False,-2.6377451419830322,0.02677886188030243,10.094362187571232,-1.3906511068344116,0.24879352748394012,-0.7999387979507446,0.3539554476737976,0.35966384410858154,-0.5424662828445435,0.35966384410858154,-0.5424662828445435,7.193276882171631,-0.32547976970672604,-0.3356451988220215,-0.337545245885849,-0.33659523725509644,-0.25906023383140564,0.046190328896045685,0.19077864289283752,13.944420294396945,13.94442081451416,0.2518860101699829,0.24879209697246552,10.094362187571232,0.6965218186378479,18,0.09183752536773682,0.0,0.36642125248908997,0.0,False,False,False,False,False,False,0.22376158833503723,-0.04641066491603851,0.05200865492224693,0.0,-0.006626279093325138,0.35966384410858154,-0.5424662828445435,0.0
normal,116,False,-2.6303749084472656,0.027653373777866364,10.183461151520403,-1.3836276531219482,0.25160709023475647,-0.7930796146392822,0.35768747329711914,0.3597143590450287,-0.5425004959106445,0.3597143590450287,-0.5425004959106445,7.194287180900574,-0.3255002975463867,-0.33649346232414246,-0.33716869354248047,-0.33683109283447266,-0.2654804587364197,0.04387874901294708,0.190413236618042,14.13598746382194,14.135987281799316,0.25584474205970764,0.25160565972328186,10.183461151520403,0.6965218186378479,18,0.09278750419616699,0.0,0.37402528524398804,0.0,False,False,False,False,False,False,0.22277887165546417,-0.04851929470896721,0.04514714330434799,0.0,0.016959387809038162,0.3597143590450287,-0.5425004959106445,0.0
normal,117,False,-2.6228928565979004,0.028547808527946472,10.278561290429074,-1.376518964767456,0.2545706033706665,-0.7861478328704834,0.36163103580474854,0.3596939742565155,-0.5423738956451416,0.3596939742565155,-0.5423738956451416,7.19387948513031,-0.3254243373870849,-0.3368671238422394,-0.3367166519165039,-0.33679187297821045,-0.2717813551425934,0.041812747716903687,0.1903531551361084,14.333606180851564,14.333606719970703,0.2601276934146881,0.2545691430568695,10.278562144202722,0.6965218186378479,18,0.09398949146270752,0.0,0.38189423084259033,0.0,False,False,False,False,False,False,0.2231510877609253,-0.05239751562476158,0.0525951124727726,0.0,-0.0010738999117165804,0.3596939742565155,-0.5423738956451416,0.0
normal,118,False,-2.6151795387268066,0.029505252838134766,10.376131396496353,-1.369192361831665,0.2576501667499542,-0.7790044546127319,0.36571580171585083,0.3597203195095062,-0.5424977540969849,0.3597203195095062,-0.5424977540969849,7.1944063901901245,-0.32549865245819093,-0.3368677496910095,-0.33656686544418335,-0.33671730756759644,-0.2786499261856079,0.03944931924343109,0.19012370705604553,14.544034063895902,14.544034004211426,0.26472851634025574,0.2576487064361572,10.376131396496353,0.6965218186378479,18,0.09508383274078369,0.0,0.38984909653663635,0.0,False,False,False,False,False,False,0.22619909048080444,-0.04078636318445206,0.0441448800265789,0.00019332137890160084,-0.005672514904290438,0.3597203195095062,-0.5424977540969849,0.0
normal,119,False,-2.6076114177703857,0.030734233558177948,10.475835082905615,-1.362023115158081,0.2610470652580261,-0.7720241546630859,0.37013953924179077,0.3599000871181488,-0.5426218509674072,0.3599000871181488,-0.5426218509674072,7.198001742362976,-0.3255731105804443,-0.33626389503479004,-0.3352528214454651,-0.33575835824012756,-0.2851997911930084,0.03747859597206116,0.19032198190689087,14.75811780569349,14.75811767578125,0.269752562046051,0.26104557514190674,10.475835082905615,0.6965218186378479,18,0.09632682800292969,0.0,0.3977164924144745,0.0,False,False,False,False,False,False,0.21927069127559662,-0.05610964447259903,0.06725675612688065,0.00026794589939527214,-0.016383055597543716,0.3599000871181488,-0.5426218509674072,0.0
normal,120,False,-2.600506067276001,0.03153848648071289,10.559912150267532,-1.3552570343017578,0.2636788487434387,-0.7654187679290771,0.37363699078559875,0.3596765697002411,-0.5424138307571411,0.3596765697002411,-0.5424138307571411,7.193531394004822,-0.32544829845428463,-0.3371943235397339,-0.3345658481121063,-0.3358801007270813,-0.29146143794059753,0.035213902592659,0.18995049595832825,14.94515741347241,14.945158004760742,0.27406761050224304,0.26367732882499695,10.559912150267532,0.6965218186378479,18,0.0974656343460083,0.0,0.40518081188201904,0.0,False,False,False,False,False,False,0.22725771367549896,-0.046845510601997375,0.050107553601264954,0.0,-0.005511492490768433,0.3596765697002411,-0.5424138307571411,0.0
normal,121,False,-2.5930213928222656,0.03246265649795532,10.655897652447369,-1.3481630086898804,0.2666887938976288,-0.7585097551345825,0.3776349127292633,0.359844833612442,-0.5426167249679565,0.359844833612442,-0.5426167249679565,7.19689667224884,-0.3255700349807739,-0.33662179112434387,-0.3350706994533539,-0.3358462452888489,-0.2980474829673767,0.03297753632068634,0.1897744983434677,15.148891711130135,15.14889144897461,0.27896276116371155,0.266687273979187,10.655897652447369,0.6965218186378479,18,0.09861135482788086,0.0,0.41295430064201355,0.0,False,False,False,False,False,False,0.22667406499385834,-0.036155689507722855,0.05421647056937218,5.46248838872998e-06,-0.0004392887931317091,0.359844833612442,-0.5426167249679565,0.0
normal,122,False,-2.5855016708374023,0.03350205719470978,10.744556922968718,-1.3410072326660156,0.26965421438217163,-0.7515263557434082,0.3815126419067383,0.3597063422203064,-0.5425043106079102,0.3597063422203064,-0.5425043106079102,7.194126844406128,-0.3255025863647461,-0.3374941647052765,-0.3334992229938507,-0.3354966938495636,-0.30425146222114563,0.030879750847816467,0.189621701836586,15.341393762697775,15.34139347076416,0.2830381989479065,0.26965266466140747,10.744556922968718,0.8482604622840881,19,0.09968888759613037,0.0,0.42073285579681396,0.0,False,False,False,False,False,False,0.22783470153808594,-0.040773212909698486,0.03836881369352341,3.7132274428586243e-06,0.004819635301828384,0.3597063422203064,-0.5425043106079102,0.0
normal,123,False,-2.578178644180298,0.034517474472522736,10.822832598404357,-1.334007978439331,0.2723695933818817,-0.7446805238723755,0.3850332498550415,0.3597618043422699,-0.5425989627838135,0.3597618043422699,-0.5425989627838135,7.195236086845398,-0.3255593776702881,-0.33710724115371704,-0.33480894565582275,-0.3359580934047699,-0.3101840615272522,0.028773188591003418,0.1893274039030075,15.520930407673438,15.520930290222168,0.28359732031822205,0.27236804366111755,10.822833452178003,0.8482604622840881,19,0.10072159767150879,0.0,0.4283166229724884,0.0,False,False,False,False,False,False,0.22068823873996735,-0.05933856964111328,0.04845166951417923,0.0,-0.0215555839240551,0.3597618043422699,-0.5425989627838135,0.0
normal,124,False,-2.570812463760376,0.03544578701257706,10.923808407546533,-1.3270630836486816,0.2754901945590973,-0.737934947013855,0.38919228315353394,0.35966429114341736,-0.5425578355789185,0.35966429114341736,-0.5425578355789185,7.193285822868347,-0.3255347013473511,-0.33621516823768616,-0.33558493852615356,-0.33590006828308105,-0.31635618209838867,0.026962697505950928,0.18958288431167603,15.725784856355045,15.725785255432129,0.28475940227508545,0.27548861503601074,10.923807553772887,0.8482604622840881,19,0.1019430160522461,0.0,0.4359298646450043,0.0,False,False,False,False,False,False,0.22771456837654114,-0.04373089596629143,0.051551833748817444,7.490344614780042e-06,-0.0003888665232807398,0.35966429114341736,-0.5425578355789185,0.0
normal,125,False,-2.562981128692627,0.036365412175655365,10.99178928035567,-1.3195172548294067,0.277885377407074,-0.7305245399475098,0.39228639006614685,0.35989150404930115,-0.5425485372543335,0.35989150404930115,-0.5425485372543335,7.197830080986023,-0.32552912235260006,-0.3344354033470154,-0.3352006673812866,-0.334818035364151,-0.32141274213790894,0.025196343660354614,0.18937507271766663,15.880454490109983,15.880455017089844,0.2852766215801239,0.2778837978839874,10.99178928035567,0.8482604622840881,19,0.10252797603607178,0.0,0.44364383816719055,0.0,False,False,False,False,False,False,0.2282291054725647,-0.036021627485752106,0.05218056961894035,0.0,-0.001101441914215684,0.35989150404930115,-0.5425485372543335,0.0
normal,126,False,-2.5554890632629395,0.03736231476068497,11.086185056006185,-1.312424898147583,0.2809305489063263,-0.7236214876174927,0.3963017761707306,0.3598453998565674,-0.5424658060073853,0.3598453998565674,-0.5424658060073853,7.196907997131348,-0.32547948360443113,-0.3341684937477112,-0.3358401954174042,-0.3350043296813965,-0.3269538879394531,0.023678988218307495,0.18976366519927979,16.069770258429813,16.06977081298828,0.2867395579814911,0.28092893958091736,11.086185056006185,0.8482604622840881,19,0.10373413562774658,0.0,0.45139744877815247,0.0,False,False,False,False,False,False,0.2249440997838974,-0.04732596501708031,0.05505654960870743,0.0,-0.0005626463098451495,0.3598453998565674,-0.5424658060073853,0.0
normal,127,False,-2.547970771789551,0.03841264545917511,11.177678855033092,-1.3052971363067627,0.2839655876159668,-0.7166786193847656,0.40027689933776855,0.35982516407966614,-0.5423394441604614,0.35982516407966614,-0.5423394441604614,7.196503281593323,-0.32540366649627683,-0.3348979949951172,-0.3351098299026489,-0.33500391244888306,-0.33285483717918396,0.021880388259887695,0.18990816175937653,16.262968989292794,16.262969970703125,0.2883855998516083,0.2839639484882355,11.177678001259444,0.8482604622840881,19,0.1047888994216919,0.0,0.45904314517974854,0.0,False,False,False,False,False,False,0.2258702963590622,-0.05046996474266052,0.047916755080223083,1.5655774404876865e-05,-0.012633096426725388,0.35982516407966614,-0.5423394441604614,0.0
normal,128,False,-2.54028058052063,0.03947854042053223,11.270658220204474,-1.2980070114135742,0.28704777359962463,-0.7095781564712524,0.4043141305446625,0.35979869961738586,-0.542386531829834,0.35979869961738586,-0.542386531829834,7.195973992347717,-0.32543191909790037,-0.3339049816131592,-0.335340291261673,-0.3346226215362549,-0.33797815442085266,0.020632833242416382,0.19049644470214844,16.445669719401465,16.445669174194336,0.29025164246559143,0.2870461344718933,11.270657366430829,0.8482604622840881,19,0.10574078559875488,0.0,0.46672946214675903,0.0,False,False,False,False,False,False,0.22241221368312836,-0.05136551707983017,0.05006967484951019,0.00017144701268989593,-0.004678249359130859,0.35979869961738586,-0.542386531829834,0.0
normal,129,False,-2.5332202911376953,0.04064241796731949,11.362580613601798,-1.2913455963134766,0.29020437598228455,-0.7031055688858032,0.4084146320819855,0.3597157895565033,-0.5422528982162476,0.3597157895565033,-0.5422528982162476,7.194315791130066,-0.3253517389297485,-0.3349405825138092,-0.33530667424201965,-0.33512362837791443,-0.342656672000885,0.019664868712425232,0.19128605723381042,16.62074625084911,16.620746612548828,0.2924714982509613,0.29020270705223083,11.362580613601798,0.8482604622840881,19,0.10674750804901123,0.0,0.47386619448661804,0.0,False,False,False,False,False,False,0.215753972530365,-0.06390054523944855,0.06262678653001785,1.4893258537540532e-07,-0.010710977017879486,0.3597157895565033,-0.5422528982162476,0.0
normal,130,False,-2.5258078575134277,0.04173918813467026,11.454403115482512,-1.284334659576416,0.2932910621166229,-0.6962847709655762,0.4124438762664795,0.35946112871170044,-0.5421031713485718,0.35946112871170044,-0.5421031713485718,7.189222574234009,-0.3252619028091431,-0.33559414744377136,-0.3350812494754791,-0.33533769845962524,-0.3470299541950226,0.018845200538635254,0.19214966893196106,16.788567413850906,16.7885684967041,0.29475441575050354,0.2932893931865692,11.454403115482512,0.8482604622840881,19,0.10764825344085693,0.0,0.48126596212387085,0.0,False,False,False,False,False,False,0.2262115627527237,-0.05245881527662277,0.029680389910936356,0.0,-0.02342930994927883,0.35946112871170044,-0.5421031713485718,0.0
normal,131,False,-2.518411874771118,0.042762480676174164,11.55229424044078,-1.2773702144622803,0.29643505811691284,-0.68952476978302,0.41659241914749146,0.35989752411842346,-0.5425918102264404,0.35989752411842346,-0.5425918102264404,7.197950482368469,-0.32555508613586426,-0.3345746099948883,-0.3362356722354889,-0.3354051411151886,-0.3535359501838684,0.016736134886741638,0.19212332367897034,16.996416900483563,16.996417999267578,0.29727792739868164,0.29643335938453674,11.552293386667134,0.8482604622840881,19,0.10878002643585205,0.0,0.48879948258399963,0.0,False,False,False,False,False,False,0.22502614557743073,-0.05019340664148331,0.051358211785554886,0.0,9.342911653220654e-05,0.35989752411842346,-0.5425918102264404,0.0
normal,132,False,-2.510960340499878,0.04381395876407623,11.641790209135458,-1.2703163623809814,0.2994247376918793,-0.682659387588501,0.42050015926361084,0.3596414029598236,-0.5423003435134888,0.3596414029598236,-0.5423003435134888,7.192828059196472,-0.32538020610809326,-0.3350662887096405,-0.33629491925239563,-0.33568060398101807,-0.3592875301837921,0.01496937870979309,0.1922440230846405,17.184983055541984,17.18498420715332,0.29981622099876404,0.2994230389595032,11.641790209135458,0.8482604622840881,19,0.10979926586151123,0.0,0.4963287115097046,0.0,False,False,False,False,False,False,0.22702430188655853,-0.03767576441168785,0.042958203703165054,4.682287908508442e-06,-0.008332404308021069,0.3596414029598236,-0.5423003435134888,0.0
normal,133,False,-2.5035414695739746,0.04487606883049011,11.738153079266937,-1.263329267501831,0.3025730848312378,-0.6758767366409302,0.4246366620063782,0.35974356532096863,-0.5423634052276611,0.35974356532096863,-0.5423634052276611,7.194871306419373,-0.32541804313659667,-0.33580219745635986,-0.33689069747924805,-0.33634644746780396,-0.3641292452812195,0.01397976279258728,0.19307902455329895,17.36745668186075,17.367456436157227,0.30268770456314087,0.3025713562965393,11.738153079266937,0.8482604622840881,19,0.11079549789428711,0.0,0.503700315952301,0.0,False,False,False,False,False,False,0.22069358825683594,-0.0683845654129982,0.07891472429037094,1.5308916772482917e-05,0.0017685163766145706,0.35974356532096863,-0.5423634052276611,0.0
