Su2050/forklift_sim/outputs/exp83_single_point_steer_diag/exp83_force_steering_guidance_v3_seed42_point_yneg0p1_yawpos4_zero_steer_steps.csv
mode,step,done,root_x,root_y,root_yaw_deg,fork_center_x,fork_center_y,tip_x,tip_y,raw_drive,raw_steer,applied_drive,applied_steer,drive_target_rad_s,steer_target_rad,left_steer_joint_pos_rad,right_steer_joint_pos_rad,mean_steer_joint_pos_rad,root_y_signed_m,center_y_signed_m,tip_y_signed_m,yaw_err_signed_deg,yaw_err_abs_deg,d_traj_m,d_traj_signed_m,yaw_traj_signed_deg,traj_s_norm,traj_closest_idx,dist_front_m,insert_depth_m,pallet_disp_xy_m,hold_counter,inserted,push_free,hold_entry,clean_insert_ready,dirty_insert,success,policy_vx_r,policy_vy_r,policy_yaw_rate,policy_lift_pos,policy_lift_vel,policy_prev_drive,policy_prev_steer,policy_prev_lift,policy_y_err_obs,policy_yaw_err_obs,policy_d_traj_signed_obs,policy_yaw_traj_err_obs,steer_target_cmd,steer_target_abs,steer_guidance_gate,steer_enforce_gate,steer_penalty_gate,steer_match,steer_wrong_sign,steer_shortfall
zero_steer,0,False,-3.5,-0.10000000149011612,3.9999995421277097,-2.2363834381103516,-0.011639337986707687,-1.6378450393676758,0.030214540660381317,nan,nan,nan,nan,nan,nan,0.0,0.0,0.0,-0.10000000149011612,-0.011639337986707687,0.030214540660381317,3.999999115240887,3.9999990463256836,0.0,0.0,-0.6593821402439468,0.0,0,0.5578449964523315,0.0,0.0,0.0,False,True,False,False,False,False,0.0,0.0,0.0,0.0,0.0,0.0,0.0,0.0,-0.125,0.26666659116744995,0.0,-0.04395880922675133,0.10246312618255615,0.10246312618255615,0.05522434413433075,0.0,0.0,0.8975368738174438,False,0.10246312618255615
zero_steer,1,False,-3.499774694442749,-0.09998531639575958,3.999873610514888,-2.2361578941345215,-0.011627435684204102,-1.6376194953918457,0.030225127935409546,0.32800954580307007,0.22096145153045654,0.32800954580307007,0.0,6.560190916061401,0.0,0.00012050935038132593,-0.00012049944780301303,4.951289156451821e-09,-0.09998542070388794,-0.011627532541751862,0.030225032940506935,3.999873610514888,3.999873638153076,0.00022585780243389308,-6.457843483076431e-06,-0.659508071856769,0.0,0,0.5576192140579224,0.0,1.9974811493739253e-07,0.0,False,True,False,False,False,False,-0.0010058163898065686,6.731337634846568e-06,-0.00011453995830379426,0.0,2.5588618882466108e-05,0.32800954580307007,0.0,0.0,-0.12498177587985992,0.2666582465171814,-1.845098267949652e-05,-0.04396720603108406,0.10246022790670395,0.10246022790670395,0.05522129312157631,0.0,0.0,0.8814987540245056,False,0.0
zero_steer,2,False,-3.499147415161133,-0.09994436055421829,3.999522282659455,-2.235530376434326,-0.011594224721193314,-1.6369915008544922,0.03025466948747635,0.34465038776397705,0.2404564768075943,0.34465038776397705,0.0,6.893007755279541,0.0,0.00021996666328050196,-0.00021876534447073936,6.006594048812985e-07,-0.099944569170475,-0.011594424024224281,0.03025447204709053,3.999522282659455,3.9995224475860596,0.0008542537107132375,-2.4329561711056158e-05,-0.6598594530730544,0.0,0,0.5569912195205688,0.0,3.5460470826365054e-07,0.0,False,True,False,False,False,False,-0.002024866873398423,1.3387892977334559e-05,-0.00022760189312975854,0.0,1.4294768334366381e-05,0.34465038776397705,0.0,0.0,-0.12493070960044861,0.26663482189178467,-6.9513036578428e-05,-0.04399063065648079,0.10245224088430405,0.10245224088430405,0.05521288514137268,0.0,0.0,0.8619957566261292,False,0.0
zero_steer,3,False,-3.4987025260925293,-0.09991511702537537,3.9993664689690145,-2.2350850105285645,-0.011568419635295868,-1.63654625415802,0.030278846621513367,0.34540295600891113,0.24118681252002716,0.34540295600891113,0.0,6.908059120178223,0.0,5.535095260711387e-05,-0.0002744195226114243,-0.00010953428864013404,-0.09991542994976044,-0.011568722315132618,0.03027854487299919,3.9993668958558373,3.9993669986724854,0.0013003628700971603,-3.4786782634910196e-05,-0.6600152667634953,0.0,0,0.5565458536148071,0.0,5.111630230203446e-07,0.0,False,True,False,False,False,False,0.0337359793484211,-8.142087608575821e-07,1.5905519830994308e-05,2.4180218716196578e-08,9.557192970532924e-05,0.34540295600891113,0.0,0.0,-0.12489429116249084,0.26662445068359375,-9.93908106465824e-05,-0.0440010167658329,0.10245346277952194,0.10245346277952194,0.05521417409181595,0.0,0.0,0.8612666130065918,False,0.0
zero_steer,4,False,-3.496894359588623,-0.09978876262903214,3.999382690668293,-2.233276844024658,-0.011441700160503387,-1.6347380876541138,0.030405737459659576,0.3455420732498169,0.2412666380405426,0.3455420732498169,0.0,6.910841464996338,0.0,1.3438273072097218e-07,-0.00024630341795273125,-0.00012308452278375626,-0.09978917241096497,-0.01144210621714592,0.030405333265662193,3.999382690668293,3.999382734298706,0.003112874459475279,-5.5365191656164825e-05,-0.6599990450642165,0.0,0,0.5547374486923218,0.0,6.682280400127638e-07,0.0,False,True,False,False,False,False,0.07046893239021301,-0.0001746099442243576,-2.3977438104338944e-05,1.7065620028233752e-08,0.00019390229135751724,0.3455420732498169,0.0,0.0,-0.12473646551370621,0.2666255235671997,-0.0001581862597959116,-0.04399993643164635,0.10251367837190628,0.10251367837190628,0.05527755618095398,0.0,0.0,0.8612470626831055,False,0.0
zero_steer,5,False,-3.49387264251709,-0.09957768023014069,3.9993677496294837,-2.230255126953125,-0.0112309530377388,-1.6317163705825806,0.03061632812023163,0.34561723470687866,0.24125610291957855,0.34561723470687866,0.0,6.912344694137573,0.0,-1.9012099073734134e-05,-0.00022255783551372588,-0.00012078497093170881,-0.09957819432020187,-0.011231462471187115,0.030615821480751038,3.999368176516307,3.999368190765381,0.005307852756232023,4.193041240796447e-05,-2.092651714041901,0.009893262758851051,1,0.5517157316207886,0.0,8.255106536125822e-07,0.0,False,True,False,False,False,False,0.10693590342998505,-0.00048162462189793587,0.00012102082109777257,2.5329889297154295e-08,0.0002717789320740849,0.34561723470687866,0.0,0.0,-0.12447274476289749,0.2666245400905609,0.00011980118142673746,-0.1395101100206375,0.07880978286266327,0.07880978286266327,0.030326087027788162,0.0,0.0,0.8375536799430847,False,0.0
zero_steer,6,False,-3.4896774291992188,-0.09928388893604279,3.999412572745912,-2.226059913635254,-0.010936170816421509,-1.6275211572647095,0.030911579728126526,0.35018032789230347,0.24717934429645538,0.35018032789230347,0.0,7.003606557846069,0.0,-3.812204522546381e-05,-0.00019954799790866673,-0.00011883502156706527,-0.09928528964519501,-0.010937290266156197,0.03091059811413288,3.999425806237429,3.9994258880615234,0.00111036014277488,-0.00011015604104613885,-2.092606890925473,0.009893262758851051,1,0.547520637512207,0.0,7.592452107019199e-07,0.0,False,True,False,False,False,False,0.14067894220352173,6.961449980735779e-05,-0.00027137776487506926,0.0,0.00010242755524814129,0.35018032789230347,0.0,0.0,-0.12410661578178406,0.2666283845901489,-0.0003147315583191812,-0.13950712978839874,0.07889081537723541,0.07889081537723541,0.030411384999752045,0.0,0.0,0.83171147108078,False,0.0
zero_steer,7,False,-3.484496831893921,-0.0989217758178711,3.9994347708607143,-2.220879554748535,-0.010573573410511017,-1.6223406791687012,0.03127440810203552,0.35058778524398804,0.2476648986339569,0.35058778524398804,0.0,7.011755704879761,0.0,-6.249170110095292e-05,-0.00015839425032027066,-0.00011044297571061179,-0.09892286360263824,-0.01057449821382761,0.03127356246113777,3.999442881710354,3.9994428157806396,0.004095660522580147,-0.0002993556554429233,-2.092584906254082,0.009893262758851051,1,0.5423401594161987,0.0,7.546396432189795e-07,0.0,False,True,False,False,False,False,0.16805095970630646,-0.0005367547273635864,0.0002909401373472065,1.712787955909789e-08,-0.000808822805993259,0.35058778524398804,0.0,0.0,-0.12365357577800751,0.26662951707839966,-0.0008553019142709672,-0.13950565457344055,0.07898765057325363,0.07898765057325363,0.03051331639289856,0.0,0.0,0.8313227891921997,False,0.0
zero_steer,8,False,-3.478520631790161,-0.0985046923160553,3.999437332181653,-2.2149033546447754,-0.010156430304050446,-1.6163644790649414,0.03169158101081848,0.35073989629745483,0.24778588116168976,0.35073989629745483,0.0,7.014797925949097,0.0,-9.969295206246898e-05,-0.00012417758989613503,-0.0001119352673413232,-0.09850584715604782,-0.010157397016882896,0.031690701842308044,3.9994462968049387,3.999446392059326,0.0005647219368256629,-0.0005243911873549223,-3.58342459710134,0.018403952941298485,2,0.536363959312439,0.0,8.129646857923944e-07,0.0,False,True,False,False,False,False,0.1900874674320221,-0.00026104412972927094,-7.319325959542766e-05,2.564306100794056e-07,-0.0002188140497310087,0.35073989629745483,0.0,0.0,-0.12313231080770493,0.26662975549697876,-0.001498260535299778,-0.2388949692249298,0.0542464554309845,0.0542464554309845,0.004469952546060085,0.0,0.0,0.8064605593681335,False,0.0
zero_steer,9,False,-3.4719038009643555,-0.09804191440343857,3.999473617561619,-2.2082865238189697,-0.009692862629890442,-1.6097477674484253,0.03215552121400833,0.35522300004959106,0.2537153959274292,0.35522300004959106,0.0,7.104460000991821,0.0,-0.0001251844223588705,-7.249795453390107e-05,-9.884119208436459e-05,-0.09804339706897736,-0.009694053791463375,0.03215446695685387,3.9994868510531356,3.9994869232177734,0.001953722909092903,-0.0008956986130215228,-4.987557811199636,0.025786833837628365,3,0.5297473669052124,0.0,7.708781026849465e-07,0.0,False,True,False,False,False,False,0.20784375071525574,-0.0006477450951933861,0.00041536512435413897,9.50196721305474e-08,-0.0007708549383096397,0.35522300004959106,0.0,0.0,-0.1225542426109314,0.26663246750831604,-0.0025591389276087284,-0.3325038552284241,0.030893906950950623,0.030893906950950623,0.0,0.0,0.0,0.7771785259246826,False,0.0
zero_steer,10,False,-3.464770555496216,-0.09754391014575958,3.999491119921367,-2.20115327835083,-0.00919446349143982,-1.6026145219802856,0.03265410661697388,0.35953131318092346,0.25932973623275757,0.35953131318092346,0.0,7.190626263618469,0.0,-0.0001415879960404709,-6.4899715653155e-05,-0.00010324385948479176,-0.09754520654678345,-0.009195526130497456,0.03265315294265747,3.999501365205122,3.9995014667510986,0.0026275338605046272,-0.0014761734055355191,-6.087100019921683,0.03229581564664841,4,0.5226140022277832,0.0,7.981366820786207e-07,0.0,False,True,False,False,False,False,0.2220539152622223,-0.00019051413983106613,-0.00014062169066164643,1.2847870323184907e-07,-0.0001803815393941477,0.35953131318092346,0.0,0.0,-0.12193150818347931,0.26663342118263245,-0.00421763863414526,-0.40580666065216064,0.012517362833023071,0.012517362833023071,0.0,0.0,0.0,0.7531876564025879,False,0.0
zero_steer,11,False,-3.457223653793335,-0.09701564908027649,3.999552164737074,-2.1936066150665283,-0.008664857596158981,-1.5950677394866943,0.03318434953689575,0.3627607226371765,0.26353919506073,0.3627607226371765,0.0,7.25521445274353,0.0,-0.00018574924615677446,5.8345171964901965e-06,-8.995736425276846e-05,-0.09701717644929886,-0.008666055276989937,0.03318330645561218,3.9995671057758835,3.9995672702789307,0.0027054185047745705,-0.002262330148369074,-6.631048174571859,0.03818148374557495,5,0.5150672197341919,0.0,7.562838959529472e-07,0.0,False,True,False,False,False,False,0.23359589278697968,-0.00013907626271247864,9.89668260444887e-05,1.6802799507331656e-07,-0.0003128935059066862,0.3627607226371765,0.0,0.0,-0.12127146869897842,0.26663780212402344,-0.006463800556957722,-0.4420698881149292,0.0033021271228790283,0.0033021271228790283,0.0,0.0,0.0,0.7397629022598267,False,0.0
zero_steer,12,False,-3.44934344291687,-0.09646521508693695,3.9995782048332846,-2.1857264041900635,-0.008113846182823181,-1.587187647819519,0.03373563289642334,0.364370197057724,0.2656862735748291,0.364370197057724,0.0,7.28740394115448,0.0,-0.00020949242752976716,4.816354703507386e-05,-8.066443842835724e-05,-0.09646672755479813,-0.008115044794976711,0.033734582364559174,3.999592292098448,3.9995923042297363,0.003174863988533616,-0.0031743538565933704,-6.42652669761229,0.043690603226423264,6,0.5071872472763062,0.0,7.33513445538847e-07,0.0,False,True,False,False,False,False,0.24285845458507538,-0.0001457110047340393,0.00017864971596281976,1.905033713001103e-07,-0.0003666319535113871,0.364370197057724,0.0,0.0,-0.12058340758085251,0.26663947105407715,-0.00906958244740963,-0.4284351170063019,0.006500348448753357,0.006500348448753357,0.0,0.0,0.0,0.7408140897750854,False,0.0
zero_steer,13,False,-3.441195249557495,-0.09589552879333496,3.9996076600240804,-2.1775782108306885,-0.0075435154139995575,-1.579039454460144,0.034306272864341736,0.3639809787273407,0.26508790254592896,0.3639809787273407,0.0,7.279619574546814,0.0,-0.00023833161685615778,7.088377606123686e-05,-8.372392039746046e-05,-0.09589685499668121,-0.007544606924057007,0.03430528938770294,3.9996187590814816,3.9996187686920166,0.004505474586039782,-0.004054991994053125,-5.449376783061817,0.04906890541315079,7,0.49903905391693115,0.0,7.533549251093064e-07,0.0,False,True,False,False,False,False,0.25023016333580017,-0.00011853314936161041,-3.903760443790816e-05,2.3113510394523473e-07,-0.0002808223362080753,0.3639809787273407,0.0,0.0,-0.11987106502056122,0.2666412591934204,-0.011585691943764687,-0.36329177021980286,0.02260463684797287,0.02260463684797287,0.0,0.0,0.0,0.7575167417526245,False,0.0
zero_steer,14,False,-3.432830333709717,-0.09531106799840927,3.999630711912529,-2.16921329498291,-0.006958547979593277,-1.5706746578216553,0.03489147871732712,0.36129096150398254,0.26158463954925537,0.36129096150398254,0.0,7.225819230079651,0.0,-0.00029729324160143733,0.0001606023288331926,-6.834545638412237e-05,-0.0953126847743988,-0.006959815043956041,0.03489037603139877,3.9996460798381617,3.9996461868286133,0.005452072713524103,-0.004826885182410479,-1.9672861531472559,0.06041956692934036,9,0.4906742572784424,0.0,7.56575559535122e-07,0.0,False,True,False,False,False,False,0.25627508759498596,-0.0002174079418182373,3.128810931229964e-05,1.9858983080212056e-07,-0.00018327447469346225,0.36129096150398254,0.0,0.0,-0.1191408559679985,0.26664307713508606,-0.013791101053357124,-0.13115240633487701,0.08052816987037659,0.08052816987037659,0.03213491663336754,0.0,0.0,0.8189435005187988,False,0.0
zero_steer,15,False,-3.4242959022521973,-0.09471423923969269,3.9996682779529644,-2.1606791019439697,-0.006360888481140137,-1.5621403455734253,0.0354895293712616,0.35114797949790955,0.24808087944984436,0.35114797949790955,0.0,7.022959589958191,0.0,-0.0003519372548907995,0.00022294455266091973,-6.44963511149399e-05,-0.09471601992845535,-0.006362251006066799,0.03548836335539818,3.999687060973182,3.9996871948242188,0.005329251289367676,-0.005166787188500166,-0.025892820256695214,0.06689568608999252,10,0.4821399450302124,0.0,7.59264366934076e-07,0.0,False,True,False,False,False,False,0.26115718483924866,-0.000356944277882576,0.0001893030566861853,1.1561809998283934e-07,-9.037263953359798e-05,0.35114797949790955,0.0,0.0,-0.11839502304792404,0.26664578914642334,-0.014762249775230885,-0.0017261879984289408,0.11302784085273743,0.11302784085273743,0.06634510308504105,0.0,0.0,0.8649469614028931,False,0.0
zero_steer,16,False,-3.415620803833008,-0.09410800784826279,3.9996584595560325,-2.152003765106201,-0.005754869431257248,-1.5534651279449463,0.03609544783830643,0.34463727474212646,0.23956605792045593,0.34463727474212646,0.0,6.892745494842529,0.0,-0.00048393337056040764,0.00025333097437396646,-0.00011530119809322059,-0.0941094234585762,-0.005756031721830368,0.03609440103173256,3.999669985500257,3.9996700286865234,0.0052908058278262615,-0.005203739274293184,1.7675861494114808,0.07424842566251755,11,0.47346484661102295,0.0,7.655748959223274e-07,0.0,False,True,False,False,False,False,0.2649567425251007,-0.0008627939969301224,0.0004887119284830987,2.0679689782809874e-07,-1.9199746020603925e-05,0.34463727474212646,0.0,0.0,-0.1176367774605751,0.2666446566581726,-0.014867827296257019,0.11783907562494278,0.14323852956295013,0.14323852956295013,0.09814582765102386,0.0,0.0,0.903672456741333,False,0.0
zero_steer,17,False,-3.4068377017974854,-0.09349361807107925,3.999668704839787,-2.143220901489258,-0.005140259861946106,-1.5446821451187134,0.036710165441036224,0.3384420871734619,0.23153212666511536,0.3384420871734619,0.0,6.768841743469238,0.0,-0.0007265261956490576,0.00040633921162225306,-0.00016009349201340228,-0.09349516034126282,-0.0051414924673736095,0.03670908138155937,3.9996827921049505,3.999682903289795,0.005313210655003786,-0.004983607679605484,3.3241962930977302,0.08273706585168839,12,0.4646817445755005,0.0,8.078521318566345e-07,0.0,False,True,False,False,False,False,0.26806697249412537,-0.001057291403412819,0.0004453772271517664,3.6946505588275613e-07,-0.00016398110892623663,0.3384420871734619,0.0,0.0,-0.11686895042657852,0.26664552092552185,-0.014238879084587097,0.2216130793094635,0.16965389251708984,0.16965389251708984,0.12595146894454956,0.0,0.0,0.9381217956542969,False,0.0
zero_steer,18,False,-3.3979671001434326,-0.09287342429161072,3.999623454836536,-2.134350061416626,-0.004521064460277557,-1.535811424255371,0.03732888400554657,0.3329237699508667,0.224428191781044,0.3329237699508667,0.0,6.658475399017334,0.0,-0.0011450313031673431,0.0005279250326566398,-0.00030855313525535166,-0.09287486970424652,-0.004522223025560379,0.03732785955071449,3.9996358345544065,3.999635934829712,0.006273919250816107,0.0,3.999623454836536,0.09262263029813766,13,0.45581114292144775,0.0,7.415670211230463e-07,0.0,False,True,False,False,False,False,0.27064284682273865,-0.0006597638130187988,0.0003213679592590779,1.4267268966250413e-07,0.00013064363156445324,0.3329237699508667,0.0,0.0,-0.11609359085559845,0.26664239168167114,0.0,0.2666415572166443,0.18410572409629822,0.18410572409629822,0.1411639302968979,0.0,0.0,0.959677517414093,False,0.0
zero_steer,19,False,-3.3890297412872314,-0.09224674850702286,3.999521001998986,-2.125412702560425,-0.003896646201610565,-1.5268738269805908,0.0379522368311882,0.3303335905075073,0.22129665315151215,0.3303335905075073,0.0,6.6066718101501465,0.0,-0.0017244810005649924,0.0005407743738032877,-0.0005918532842770219,-0.09224837273359299,-0.003897914430126548,0.037951141595840454,3.9995372236982645,3.999537229537964,0.006018986459821463,-0.0,3.999521001998986,0.09262263029813766,13,0.44687342643737793,0.0,7.647258826182224e-07,0.0,False,True,False,False,False,False,0.27201908826828003,-0.0008270107209682465,0.0005591175868175924,4.6957435984040785e-07,-0.0003017562266904861,0.3303335905075073,0.0,0.0,-0.11531046777963638,0.26663580536842346,-0.0,0.2666347324848175,0.18445220589637756,0.18445220589637756,0.1415286511182785,0.0,0.0,0.9631555676460266,False,0.0
zero_steer,20,False,-3.3800408840179443,-0.09161802381277084,3.9995261246408633,-2.1164238452911377,-0.003267809748649597,-1.5178849697113037,0.03858112543821335,0.33015602827072144,0.2211824655532837,0.33015602827072144,0.0,6.603120565414429,0.0,-0.0021922749001532793,0.0006409710622392595,-0.0007756518898531795,-0.09161940217018127,-0.0032689454965293407,0.03858010843396187,3.9995372236982645,3.999537229537964,0.013964013196527958,-0.0,3.9995261246408633,0.09262263029813766,13,0.4378845691680908,0.0,8.024952649066108e-07,0.0,False,True,False,False,False,False,0.27336081862449646,-0.0011343136429786682,0.0005957407993264496,3.122335954230948e-07,-3.773513890337199e-05,0.33015602827072144,0.0,0.0,-0.11452425271272659,0.26663580536842346,-0.0,0.26663506031036377,0.18480609357357025,0.18480609357357025,0.1419011652469635,0.0,0.0,0.9636236429214478,False,0.0
zero_steer,21,False,-3.3710198402404785,-0.09098675847053528,3.999391655291579,-2.1074023246765137,-0.002639506012201309,-1.5088635683059692,0.039208024740219116,0.3301658630371094,0.22116652131080627,0.3301658630371094,0.0,6.6033172607421875,0.0,-0.002916327677667141,0.0007613825146108866,-0.0010774725815281272,-0.09098825603723526,-0.0026406964752823114,0.03920698165893555,3.9994057425567417,3.999405860900879,0.022751420736312866,-0.0,3.999391655291579,0.09262263029813766,13,0.4288632869720459,0.0,7.127727599254285e-07,0.0,False,True,False,False,False,False,0.2743625342845917,0.00017852149903774261,-0.00047111313324421644,4.668570454668952e-07,-0.0003687162243295461,0.3301658630371094,0.0,0.0,-0.11373531818389893,0.2666270434856415,-0.0,0.26662611961364746,0.1851533055305481,0.1851533055305481,0.142266646027565,0.0,0.0,0.9639867544174194,False,0.0
zero_steer,22,False,-3.3619723320007324,-0.09035147726535797,3.9991871765033014,-2.0983545780181885,-0.0020087361335754395,-1.499815583229065,0.03983666002750397,0.3302682042121887,0.22119861841201782,0.3302682042121887,0.0,6.605364084243774,0.0,-0.003733051707968116,0.000726780213881284,-0.0015031357761472464,-0.09035319834947586,-0.002010056981816888,0.039835527539253235,3.9992051057498728,3.9992051124572754,0.031709227710962296,-0.0,3.9991876033901246,0.09262263029813766,13,0.41981518268585205,0.0,7.715464676039119e-07,0.0,False,True,False,False,False,False,0.27468669414520264,-0.0014524739235639572,0.0010411953553557396,3.0218683377825073e-07,-4.9221591325476766e-05,0.3302682042121887,0.0,0.0,-0.11294149607419968,0.2666136622428894,-0.0,0.2666124999523163,0.18549862504005432,0.18549862504005432,0.14263014495372772,0.0,0.0,0.9643000364303589,False,0.0
zero_steer,23,False,-3.3529114723205566,-0.08971728384494781,3.9990164217740514,-2.0892934799194336,-0.0013783015310764313,-1.4907543659210205,0.04046531021595001,0.3302302360534668,0.2211558073759079,0.3302302360534668,0.0,6.604604721069336,0.0,-0.0045081148855388165,0.0008197676506824791,-0.0018441736465319991,-0.08971890062093735,-0.0013795654522255063,0.040464214980602264,3.99903264347333,3.999032735824585,0.040729962289333344,-0.0,3.9990164217740514,0.09262263029813766,13,0.4107539653778076,0.0,7.824814929335844e-07,0.0,False,True,False,False,False,False,0.27503395080566406,-0.001660659909248352,0.0008248542435467243,4.57649974805463e-07,0.0002097027318086475,0.3302302360534668,0.0,0.0,-0.11214862763881683,0.26660218834877014,-0.0,0.2666010856628418,0.1858452558517456,0.1858452558517456,0.14299501478672028,0.0,0.0,0.9646894335746765,False,0.0
zero_steer,24,False,-3.343838930130005,-0.08908241987228394,3.9987730962848693,-2.0802206993103027,-0.0007488057017326355,-1.481681227684021,0.04109226167201996,0.3302118480205536,0.22121085226535797,0.3302118480205536,0.0,6.604236960411072,0.0,-0.005314804147928953,0.0009489991352893412,-0.0021829025354236364,-0.08908388763666153,-0.0007499922066926956,0.041091207414865494,3.99878547600274,3.9987854957580566,0.04978504776954651,-0.0,3.9987726693980465,0.09262263029813766,13,0.4016808271408081,0.0,7.882820227678167e-07,0.0,False,True,False,False,False,False,0.2754533290863037,-0.0010421667248010635,0.0002724012010730803,3.982530074608803e-07,0.00018215799354948103,0.3302118480205536,0.0,0.0,-0.11135485768318176,0.26658570766448975,-0.0,0.2665848433971405,0.18618789315223694,0.18618789315223694,0.14335568249225616,0.0,0.0,0.9649770259857178,False,0.0
zero_steer,25,False,-3.3347620964050293,-0.08844669163227081,3.9984448203178857,-2.07114315032959,-0.0001203194260597229,-1.472603678703308,0.041717320680618286,0.33030036091804504,0.2212447226047516,0.33030036091804504,0.0,6.606007218360901,0.0,-0.006050614174455404,0.0009924682090058923,-0.002529073040932417,-0.08844835311174393,-0.00012159984180470929,0.04171621799468994,3.998462322677634,3.998462438583374,0.058857087045907974,-0.0,3.9984448203178857,0.09262263029813766,13,0.3926032781600952,0.0,7.599880973430118e-07,0.0,False,True,False,False,False,False,0.27533894777297974,-0.001765003427863121,0.000713420333340764,6.745724476786563e-07,-0.00030189298558980227,0.33030036091804504,0.0,0.0,-0.11056043952703476,0.26656416058540344,-0.0,0.2665629982948303,0.18652622401714325,0.18652622401714325,0.14371182024478912,0.0,0.0,0.9652814865112305,False,0.0
zero_steer,26,False,-3.32568359375,-0.08781158924102783,3.998143438220759,-2.0620644092559814,0.0005081407725811005,-1.463524580001831,0.04234263300895691,0.3302811086177826,0.2212386280298233,0.3302811086177826,0.0,6.605622172355652,0.0,-0.006720425561070442,0.0011433466570451856,-0.0027885395102202892,-0.08781325817108154,0.000506864336784929,0.04234154149889946,3.9981613674673304,3.9981613159179688,0.06793760508298874,0.0,3.9981438651075822,0.09262263029813766,13,0.3835242986679077,0.0,6.949910016373906e-07,0.0,False,True,False,False,False,False,0.27533257007598877,-0.0012395232915878296,0.0004914756282232702,5.461449745780556e-07,-7.900517084635794e-05,0.3302811086177826,0.0,0.0,-0.10976657271385193,0.2665441036224365,0.0,0.266542911529541,0.1868656873703003,0.1868656873703003,0.1440691500902176,0.0,0.0,0.9656270742416382,False,0.0
zero_steer,27,False,-3.3166065216064453,-0.08717712759971619,3.9977741811187553,-2.0529866218566895,0.0011344514787197113,-1.45444655418396,0.042965084314346313,0.3302961587905884,0.2212177813053131,0.3302961587905884,0.0,6.605923175811768,0.0,-0.0073157744482159615,0.0012990597169846296,-0.003008357249200344,-0.08717858791351318,0.0011332896538078785,0.042964063584804535,3.9977878414970953,3.9977879524230957,0.07702184468507767,0.0,3.9977741811187553,0.09262263029813766,13,0.37444615364074707,0.0,7.537290116488293e-07,0.0,False,True,False,False,False,False,0.27538469433784485,-0.00047643110156059265,-0.00011601645383052528,4.1516742044223065e-07,-4.8704096116125584e-05,0.3302961587905884,0.0,0.0,-0.10897323489189148,0.2665191888809204,0.0,0.2665182650089264,0.187200665473938,0.187200665473938,0.1444217562675476,0.0,0.0,0.9659829139709473,False,0.0
zero_steer,28,False,-3.307532548904419,-0.0865398496389389,3.997369492410432,-2.043912172317505,0.0017627999186515808,-1.4453717470169067,0.04358920454978943,0.33029913902282715,0.2212674468755722,0.33029913902282715,0.0,6.605982780456543,0.0,-0.007814997807145119,0.0013607860310003161,-0.0032271058298647404,-0.0865415558218956,0.0017614891985431314,0.04358808323740959,3.9973874216570033,3.997387409210205,0.08610598742961884,0.0,3.9973690655236087,0.09262263029813766,13,0.36537134647369385,0.0,7.474945959984325e-07,0.0,False,True,False,False,False,False,0.2751729190349579,-0.001455150544643402,0.0007113783503882587,5.447631679089682e-07,-2.023004344664514e-05,0.33029913902282715,0.0,0.0,-0.10817694664001465,0.26649248600006104,0.0,0.26649126410484314,0.18753527104854584,0.18753527104854584,0.14477397501468658,0.0,0.0,0.9662678241729736,False,0.0
zero_steer,29,False,-3.298460006713867,-0.08590468764305115,3.9969741952122173,-2.034838914871216,0.00238925963640213,-1.4362982511520386,0.04421153664588928,0.3302944600582123,0.22142456471920013,0.3302944600582123,0.0,6.605889201164246,0.0,-0.008246328681707382,0.0015528929652646184,-0.003346717916429043,-0.08590641617774963,0.002387946005910635,0.04421042278409004,3.996993405119258,3.9969935417175293,0.07987449318170547,0.0023892458993941545,3.9969746220990405,0.24385200440883636,15,0.35629796981811523,0.0,6.905956979608163e-07,0.0,False,True,False,False,False,False,0.27516037225723267,-0.0007768813520669937,0.00030310035799629986,3.8085011055954965e-07,-0.00026690849335864186,0.3302944600582123,0.0,0.0,-0.10738302022218704,0.2664662301540375,0.006826417054980993,0.2664649784564972,0.18923455476760864,0.18923455476760864,0.14656269550323486,0.0,0.0,0.9678099751472473,False,0.0
zero_steer,30,False,-3.2893917560577393,-0.08526836335659027,3.9965285253688743,-2.0257699489593506,0.00301574170589447,-1.4272290468215942,0.044833362102508545,0.33038419485092163,0.22145171463489532,0.33038419485092163,0.0,6.607683897018433,0.0,-0.008631406351923943,0.001700347289443016,-0.0034655295312404633,-0.08526989817619324,0.003014547983184457,0.04483233019709587,3.9965438932945068,3.9965438842773438,0.07083401083946228,0.00301572447642684,3.9965285253688743,0.24385200440883636,15,0.34722864627838135,0.0,7.257353331624472e-07,0.0,False,True,False,False,False,False,0.27509745955467224,-0.0004564095288515091,-0.0002080976846627891,4.688960189014324e-07,-0.00045973481610417366,0.33038419485092163,0.0,0.0,-0.10658737272024155,0.26643624901771545,0.008616356179118156,0.2664352357387543,0.18992407619953156,0.18992407619953156,0.147288516163826,0.018475651741027832,0.0027212512213736773,0.9684723615646362,False,0.0
zero_steer,31,False,-3.280327796936035,-0.08463311940431595,3.995962473441409,-2.01670503616333,0.0036384984850883484,-1.418163776397705,0.045450203120708466,0.3303978145122528,0.22165842354297638,0.3303978145122528,0.0,6.607956290245056,0.0,-0.00891722273081541,0.001784855150617659,-0.0035661838483065367,-0.08463466167449951,0.003637282643467188,0.0454491451382637,3.9959769875933957,3.9959769248962402,0.06181205436587334,0.003638477763161063,3.995962473441409,0.24385200440883636,15,0.33816349506378174,0.0,7.374757160505396e-07,0.0,False,True,False,False,False,False,0.27484065294265747,-0.001113608479499817,0.0005486240843310952,3.9011922581266845e-07,-7.665739394724369e-05,0.3303978145122528,0.0,0.0,-0.10579332709312439,0.26639845967292786,0.010395650751888752,0.26639750599861145,0.19060379266738892,0.19060379266738892,0.14800399541854858,0.0789099931716919,0.011678994633257389,0.9689453840255737,False,0.0
zero_steer,32,False,-3.2712674140930176,-0.08399756997823715,3.9955496738834464,-2.0076441764831543,0.004264958202838898,-1.409102439880371,0.04607235640287399,0.3303351402282715,0.22159667313098907,0.3303351402282715,0.0,6.60670280456543,0.0,-0.00920958910137415,0.0019528717966750264,-0.0036283587105572224,-0.08399894088506699,0.004263842944055796,0.046071361750364304,3.995561626714494,3.9955615997314453,0.052816495299339294,0.004264933988451958,3.9955496738834464,0.24385200440883636,15,0.32910215854644775,0.0,7.523262297581823e-07,0.0,False,True,False,False,False,False,0.2749019265174866,-0.0008972082287073135,0.0003666097472887486,3.6641301903728163e-07,-5.0526869017630816e-05,0.3303351402282715,0.0,0.0,-0.10499867796897888,0.2663707733154297,0.012185526080429554,0.2663699686527252,0.1912948489189148,0.1912948489189148,0.14873142540454865,0.13931889832019806,0.02072109840810299,0.9696981906890869,False,0.0
zero_steer,33,False,-3.2622077465057373,-0.08336356282234192,3.994983621955982,-1.9985835552215576,0.0048864781856536865,-1.4000414609909058,0.046687960624694824,0.33038678765296936,0.2215506136417389,0.33038678765296936,0.0,6.607735753059387,0.0,-0.009432800114154816,0.0020811259746551514,-0.003675837069749832,-0.08336489647626877,0.004885394126176834,0.04668699577450752,3.994995147900206,3.9949951171875,0.04385646805167198,0.004886450245976448,3.994983621955982,0.24385200440883636,15,0.3200411796569824,0.0,7.356927085311327e-07,0.0,False,True,False,False,False,False,0.27474161982536316,5.624443292617798e-05,-0.00042026868322864175,3.1196432814795116e-07,-7.685241871513426e-05,0.33038678765296936,0.0,0.0,-0.10420612245798111,0.2663330137729645,0.013961287215352058,0.2663322389125824,0.19197320938110352,0.19197320938110352,0.14944548904895782,0.1997254192829132,0.029848063364624977,0.970422625541687,False,0.0
zero_steer,34,False,-3.2531511783599854,-0.08272811770439148,3.994255779922552,-1.9895257949829102,0.005505863577127457,-1.3909832239151,0.047299742698669434,0.3304668664932251,0.22155077755451202,0.3304668664932251,0.0,6.609337329864502,0.0,-0.009562178514897823,0.0021363424602895975,-0.0037129181437194347,-0.08272974193096161,0.0055046058259904385,0.04729865863919258,3.994272855395477,3.9942729473114014,0.03496189042925835,0.00550583191215992,3.994255779922552,0.24385200440883636,15,0.3109828233718872,0.0,7.705343136876763e-07,0.0,False,True,False,False,False,False,0.27444562315940857,-0.0005321018397808075,0.00024519802536815405,4.1795408378675347e-07,-0.00017298682359978557,0.3304668664932251,0.0,0.0,-0.10341218113899231,0.26628485321998596,0.015730949118733406,0.26628372073173523,0.19264164566993713,0.19264164566993713,0.15014910697937012,0.260114461183548,0.0390559546649456,0.9710908532142639,False,0.0
zero_steer,35,False,-3.2441015243530273,-0.08209335803985596,3.993586848270714,-1.9804751873016357,0.00612587109208107,-1.3819321393966675,0.04791276156902313,0.3303663730621338,0.2215191125869751,0.3303663730621338,0.0,6.607327461242676,0.0,-0.00962264183908701,0.0022775002289563417,-0.0036725709214806557,-0.0820949450135231,0.006124642677605152,0.04791170358657837,3.993603496856816,3.993603467941284,0.02620120532810688,0.006125836167484522,3.9935872751575374,0.24385200440883636,15,0.30193185806274414,0.0,7.009445539551962e-07,0.0,False,True,False,False,False,False,0.2743314504623413,-0.0007078796625137329,0.00023758489987812936,0.0,-0.0014625557232648134,0.3303663730621338,0.0,0.0,-0.10261867940425873,0.2662402391433716,0.01750238984823227,0.26623913645744324,0.19331347942352295,0.19331347942352295,0.15085630118846893,0.3204542398452759,0.048342540860176086,0.9717943668365479,False,0.0
zero_steer,36,False,-3.2350544929504395,-0.08145897835493088,3.9929802420950526,-1.9714272022247314,0.0067468732595443726,-1.372883677482605,0.04852742701768875,0.3303653597831726,0.22142888605594635,0.3303653597831726,0.0,6.607307195663452,0.0,-0.009747110307216644,0.0023966263979673386,-0.003675241954624653,-0.08146048337221146,0.006745705846697092,0.048526421189308167,3.992995610020685,3.9929957389831543,0.017758602276444435,0.006746834609657526,3.9929802420950526,0.24385200440883636,15,0.2928835153579712,0.0,6.66355958856002e-07,0.0,False,True,False,False,False,False,0.2743959128856659,0.00021037831902503967,-0.0004658993857447058,2.573394510818616e-07,-0.00011265108332736418,0.3303653597831726,0.0,0.0,-0.10182560235261917,0.2661997079849243,0.01927667111158371,0.26619869470596313,0.1939893364906311,0.1939893364906311,0.1515677273273468,0.3807765245437622,0.05771343410015106,0.972560465335846,False,0.0
zero_steer,37,False,-3.2260069847106934,-0.08082428574562073,3.9921738528861677,-1.9623785018920898,0.007363777607679367,-1.3638343811035156,0.04913590848445892,0.3304797410964966,0.22153012454509735,0.3304797410964966,0.0,6.609594821929932,0.0,-0.009853942319750786,0.0024753455072641373,-0.0036892984062433243,-0.0808258056640625,0.007362577598541975,0.049134861677885056,3.9921887939249774,3.9921889305114746,0.010424256324768066,0.007363735698163509,3.992174279772991,0.24385200440883636,15,0.2838340997695923,0.0,7.609775707351218e-07,0.0,False,True,False,False,False,False,0.2742011547088623,-0.0007968582212924957,0.0004076709155924618,0.0,-0.00015098675794433802,0.3304797410964966,0.0,0.0,-0.10103225708007812,0.2661459147930145,0.021039245650172234,0.2661449611186981,0.19465118646621704,0.19465118646621704,0.15226441621780396,0.4411059617996216,0.06716474145650864,0.9731210470199585,False,0.0
zero_steer,38,False,-3.21696138381958,-0.08019006252288818,3.9914771735908263,-1.9533319473266602,0.007982645183801651,-1.3547872304916382,0.04974749684333801,0.33046653866767883,0.22159025073051453,0.33046653866767883,0.0,6.609330773353577,0.0,-0.00985727459192276,0.0025913678109645844,-0.003632953390479088,-0.08019160479307175,0.007981453090906143,0.04974646866321564,3.9914933952901053,3.9914934635162354,0.0081550944596529,0.007982599548995495,3.9914776004776495,0.24385200440883636,15,0.2747868299484253,0.0,7.330697826546384e-07,0.0,False,True,False,False,False,False,0.2742678225040436,-0.0002908967435359955,-4.27007362304721e-05,4.163210292063013e-07,-0.00018784892745316029,0.33046653866767883,0.0,0.0,-0.10023950785398483,0.2660995423793793,0.022807428613305092,0.2660984992980957,0.1953204721212387,0.1953204721212387,0.15296892821788788,0.5014210939407349,0.07670184969902039,0.973730206489563,False,0.0
zero_steer,39,False,-3.207914352416992,-0.07955610752105713,3.990722864574363,-1.9442837238311768,0.00859995186328888,-1.345738410949707,0.050356924533843994,0.33056238293647766,0.2217007279396057,0.33056238293647766,0.0,6.611247658729553,0.0,-0.009953112341463566,0.002715699141845107,-0.0036187064833939075,-0.07955782115459442,0.00859866477549076,0.05035583674907684,3.9907420744814037,3.9907422065734863,0.013740495778620243,0.008599902503192425,3.9907224376875403,0.24385200440883636,15,0.26573801040649414,0.0,7.258878440552508e-07,0.0,False,True,False,False,False,False,0.2744121253490448,0.00011266395449638367,-0.000392299349186942,3.6370985867506533e-07,-0.0001592828775756061,0.33056238293647766,0.0,0.0,-0.09944728016853333,0.26604947447776794,0.024571150541305542,0.2660481631755829,0.19598528742790222,0.19598528742790222,0.15366873145103455,0.5617465376853943,0.08632288128137589,0.9742845296859741,False,0.0
zero_steer,40,False,-3.198866605758667,-0.07892034947872162,3.989877628664574,-1.935234546661377,0.009217076003551483,-1.336688756942749,0.05096521973609924,0.33051180839538574,0.22171755135059357,0.33051180839538574,0.0,6.610236167907715,0.0,-0.010031950660049915,0.0027819392271339893,-0.003625005716457963,-0.07892197370529175,0.009215840138494968,0.05096416920423508,3.9898951310243223,3.9898951053619385,0.021809035912156105,0.00921702291816473,3.989877628664574,0.24385200440883636,15,0.25668835639953613,0.0,7.337990268752037e-07,0.0,False,True,False,False,False,False,0.2743913233280182,-0.0003646761178970337,0.00018343885312788188,3.351019017827639e-07,-0.00012278970098122954,0.33051180839538574,0.0,0.0,-0.09865246713161469,0.26599299907684326,0.026334350928664207,0.26599183678627014,0.196645587682724,0.196645587682724,0.15436378121376038,0.6220775842666626,0.09602624922990799,0.9749280214309692,False,0.0
zero_steer,41,False,-3.1898162364959717,-0.07828500866889954,3.989085326720853,-1.9261829853057861,0.009834934026002884,-1.3276365995407104,0.05157479643821716,0.33046475052833557,0.22176049649715424,0.33046475052833557,0.0,6.609295010566711,0.0,-0.010067103430628777,0.0029094640631228685,-0.003578819800168276,-0.07828640937805176,0.00983381737023592,0.05157381668686867,3.9890981333255464,3.989098072052002,0.03044923022389412,0.009834878146648407,3.989085326720853,0.24385200440883636,15,0.24763619899749756,0.0,7.547067752966541e-07,0.0,False,True,False,False,False,False,0.27445560693740845,-8.475035429000854e-05,-0.00010095007746713236,3.1112102760744165e-07,-6.000162829877809e-05,0.33046475052833557,0.0,0.0,-0.0978580117225647,0.265939861536026,0.028099652379751205,0.26593902707099915,0.19730913639068604,0.19730913639068604,0.1550622582435608,0.6824252605438232,0.10581839829683304,0.9755486249923706,False,0.0
zero_steer,42,False,-3.1807639598846436,-0.07765062153339386,3.988214050714853,-1.9171292781829834,0.010450109839439392,-1.31858229637146,0.05218087136745453,0.330512136220932,0.22179380059242249,0.330512136220932,0.0,6.61024272441864,0.0,-0.010082408785820007,0.003038424765691161,-0.0035219918936491013,-0.07765212655067444,0.010448938235640526,0.05217985808849335,3.988228991753662,3.9882290363311768,0.03928624093532562,0.010450050234794617,3.988214050714853,0.24385200440883636,15,0.23858189582824707,0.0,7.700921287323581e-07,0.0,False,True,False,False,False,False,0.27452561259269714,9.734742343425751e-05,-0.00040275216451846063,2.753336900696013e-07,-0.00017868855502456427,0.330512136220932,0.0,0.0,-0.09706515818834305,0.2658819258213043,0.02985728718340397,0.2658809423446655,0.1979660838842392,0.1979660838842392,0.15575377643108368,0.7427873015403748,0.11569193005561829,0.9761722683906555,False,0.0
zero_steer,43,False,-3.1717114448547363,-0.0770145133137703,3.9872962440451323,-1.9080753326416016,0.011065986007452011,-1.3095276355743408,0.052787162363529205,0.33055275678634644,0.22182171046733856,0.33055275678634644,0.0,6.611055135726929,0.0,-0.01007511280477047,0.0031068790704011917,-0.003484116867184639,-0.07701613008975983,0.01106475293636322,0.05278610810637474,3.9873137464048805,3.987313747406006,0.04821198806166649,0.011065922677516937,3.9872962440451323,0.24385200440883636,15,0.22952723503112793,0.0,7.656466323169298e-07,0.0,False,True,False,False,False,False,0.27449479699134827,-0.00037739984691143036,0.00023281814355868846,2.097415716661999e-07,-3.0124501790851355e-05,0.33055275678634644,0.0,0.0,-0.09627015888690948,0.2658209204673767,0.031616922467947006,0.2658197581768036,0.19862166047096252,0.19862166047096252,0.15644386410713196,0.8031517267227173,0.1256481558084488,0.9767999649047852,False,0.0
zero_steer,44,False,-3.1626572608947754,-0.07637997716665268,3.9863788642622353,-1.8990199565887451,0.01168029010295868,-1.300471544265747,0.05339188128709793,0.33047056198120117,0.22177185118198395,0.33047056198120117,0.0,6.609411239624023,0.0,-0.010104886256158352,0.003238443983718753,-0.0034332210198044777,-0.07638154178857803,0.011679081246256828,0.05339084193110466,3.986395512848337,3.9863955974578857,0.05718577280640602,0.011680223047733307,3.986379291149058,0.24385200440883636,15,0.22047126293182373,0.0,7.250193334584765e-07,0.0,False,True,False,False,False,False,0.2745257019996643,5.22565096616745e-05,-0.0002904799475800246,3.0516437732330814e-07,-0.00015923343016766012,0.33047056198120117,0.0,0.0,-0.09547692537307739,0.2657597064971924,0.03337206691503525,0.26575860381126404,0.199275404214859,0.199275404214859,0.15713201463222504,0.863524854183197,0.13568739593029022,0.9775035381317139,False,0.0
zero_steer,45,False,-3.1536037921905518,-0.0757453590631485,3.985379949096121,-1.8899648189544678,0.012292876839637756,-1.2914156913757324,0.05399402976036072,0.3305453360080719,0.22183485329151154,0.3305453360080719,0.0,6.610906720161438,0.0,-0.010119318962097168,0.00336759933270514,-0.0033758599311113358,-0.0757468119263649,0.012291714549064636,0.05399300530552864,3.9853931825876376,3.9853932857513428,0.06618694216012955,0.012292806059122086,3.9853795222092976,0.24385200440883636,15,0.21141541004180908,0.0,7.740862884020316e-07,0.0,False,True,False,False,False,False,0.2745649516582489,0.0002787914127111435,-0.0005180558073334396,3.455134560681472e-07,-9.298970689997077e-05,0.3305453360080719,0.0,0.0,-0.09468351304531097,0.26569288969039917,0.035122305154800415,0.26569196581840515,0.1999233365058899,0.1999233365058899,0.15781404078006744,0.9238972067832947,0.14580395817756653,0.9780884981155396,False,0.0
zero_steer,46,False,-3.1445562839508057,-0.07510979473590851,3.9842247933527424,-1.880915641784668,0.01290295273065567,-1.2823656797409058,0.05459204316139221,0.33057403564453125,0.22181446850299835,0.33057403564453125,0.0,6.611480712890625,0.0,-0.00991909857839346,0.003446988295763731,-0.003236055141314864,-0.0751112774014473,0.0129017923027277,0.05459103360772133,3.9842393075047284,3.984239339828491,0.07519975304603577,0.012902879156172276,3.9842247933527424,0.24385200440883636,15,0.20236527919769287,0.0,7.716857339801209e-07,0.0,False,True,False,False,False,False,0.2738804221153259,-0.0005992371588945389,0.0006576133891940117,1.069910098294713e-07,-0.001113696489483118,0.33057403564453125,0.0,0.0,-0.09388909488916397,0.26561594009399414,0.036865368485450745,0.26561498641967773,0.2005612552165985,0.2005612552165985,0.158485546708107,0.9842314124107361,0.1559864580631256,0.978746771812439,False,0.0
zero_steer,47,False,-3.135525703430176,-0.07447649538516998,3.9831503192189346,-1.8718833923339844,0.013512566685676575,-1.2733325958251953,0.05519042909145355,0.33051130175590515,0.22177748382091522,0.33051130175590515,0.0,6.610226035118103,0.0,-0.00965031236410141,0.0035809685941785574,-0.0030346717685461044,-0.07447794079780579,0.013511428609490395,0.05518943816423416,3.9831639795972746,3.983164072036743,0.08420799672603607,0.013512489385902882,3.9831498923321114,0.24385200440883636,15,0.19333231449127197,0.0,7.482138357772783e-07,0.0,False,True,False,False,False,False,0.273393839597702,-0.00027520954608917236,0.0004834133433178067,0.0,-0.0018292621243745089,0.33051130175590515,0.0,0.0,-0.09309742599725723,0.26554426550865173,0.03860711306333542,0.2655433118343353,0.20120233297348022,0.20120233297348022,0.15916036069393158,1.0,0.15916036069393158,0.9794248342514038,False,0.0
zero_steer,48,False,-3.1265108585357666,-0.07384411245584488,3.982099750747222,-1.8628668785095215,0.014121770858764648,-1.2643153667449951,0.05578865855932236,0.33050546050071716,0.221793994307518,0.33050546050071716,0.0,6.610109210014343,0.0,-0.009458919987082481,0.0037010256201028824,-0.0028789471834897995,-0.07384567707777023,0.014120582491159439,0.055787649005651474,3.982116826220147,3.982116937637329,0.08406157791614532,0.014121689833700657,3.982099750747222,0.3950815796852112,16,0.18431496620178223,0.0,7.466488227692025e-07,0.0,False,True,False,False,False,False,0.2731947898864746,-0.0009711179882287979,-2.1696390831493773e-05,0.0,4.068203270435333e-05,0.33050546050071716,0.0,0.0,-0.09230709820985794,0.26547443866729736,0.040347687900066376,0.26547330617904663,0.2018442004919052,0.2018442004919052,0.15983600914478302,1.0,0.15983600914478302,0.9800502061843872,False,0.0
zero_steer,49,False,-3.1175084114074707,-0.07321233302354813,3.980857936978749,-1.8538625240325928,0.014726169407367706,-1.25531005859375,0.05638008564710617,0.33059632778167725,0.22189705073833466,0.33059632778167725,0.0,6.611926555633545,0.0,-0.009349681437015533,0.0038084890693426132,-0.00277059618383646,-0.07321368157863617,0.01472508069127798,0.05637912079691887,3.9808698898097967,3.980870008468628,0.07531624287366867,0.014726085588335991,3.980857936978749,0.3950815796852112,16,0.1753096580505371,0.0,7.919955464785744e-07,0.0,False,True,False,False,False,False,0.27276408672332764,-0.001340007409453392,0.0007166620343923569,0.0,0.0010831309482455254,0.33059632778167725,0.0,0.0,-0.09151710569858551,0.2653913199901581,0.0420745313167572,0.2653905153274536,0.20247149467468262,0.20247149467468262,0.160496324300766,1.0,0.160496324300766,0.9805744290351868,False,0.0
zero_steer,50,False,-3.1085143089294434,-0.07258106768131256,3.97975998406967,-1.8448667526245117,0.01533321663737297,-1.2463135719299316,0.05697566270828247,0.3306482434272766,0.22190313041210175,0.3306482434272766,0.0,6.612964868545532,0.0,-0.009394299238920212,0.003933904226869345,-0.0027301975060254335,-0.07258233428001404,0.015332181006669998,0.056974735110998154,3.9797702293534245,3.9797701835632324,0.06665438413619995,0.015333129093050957,3.97975998406967,0.3950815796852112,16,0.1663132905960083,0.0,7.617086339450907e-07,0.0,False,True,False,False,False,False,0.2726592421531677,-0.0002732202410697937,-0.00016832893015816808,3.124380043573183e-07,-0.00018446671310812235,0.3306482434272766,0.0,0.0,-0.09072791785001755,0.26531800627708435,0.043808940798044205,0.26531732082366943,0.20310857892036438,0.20310857892036438,0.1611669361591339,1.0,0.1611669361591339,0.9812054634094238,False,0.0
zero_steer,51,False,-3.099520683288574,-0.07194940745830536,3.9784972528468634,-1.8358711004257202,0.015937015414237976,-1.2373169660568237,0.05756627023220062,0.3307647705078125,0.22204886376857758,0.3307647705078125,0.0,6.61529541015625,0.0,-0.00930846855044365,0.004117810167372227,-0.0025953291915357113,-0.07195079326629639,0.01593589596450329,0.05756527557969093,3.978509205677911,3.9785091876983643,0.058099668473005295,0.015936924144625664,3.9784968259600406,0.3950815796852112,16,0.15731656551361084,0.0,8.164506652974524e-07,0.0,False,True,False,False,False,False,0.2725207507610321,7.48559832572937e-05,-0.00022456834267359227,1.1105465880234533e-08,0.0006820712005719543,0.3307647705078125,0.0,0.0,-0.08993849158287048,0.26523393392562866,0.04553407058119774,0.2652331292629242,0.20373430848121643,0.20373430848121643,0.16182559728622437,1.0,0.16182559728622437,0.9816854596138,False,0.0
zero_steer,52,False,-3.090534210205078,-0.07131819427013397,3.9772016513386768,-1.8268827199935913,0.016539666801691055,-1.2283276319503784,0.05815538763999939,0.3307749629020691,0.22201399505138397,0.3307749629020691,0.0,6.615499258041382,0.0,-0.00923928339034319,0.004252510145306587,-0.002493386622518301,-0.07131944596767426,0.016538629308342934,0.05815444886684418,3.9772114697356087,3.9772114753723145,0.04971471428871155,0.016539571806788445,3.9772016513386768,0.3950815796852112,16,0.14832735061645508,0.0,7.683726721552375e-07,0.0,False,True,False,False,False,False,0.2724756598472595,-0.0016038082540035248,0.0009918113937601447,0.0,-0.000246614683419466,0.3307749629020691,0.0,0.0,-0.08914931118488312,0.2651474177837372,0.047255922108888626,0.26514676213264465,0.20435717701911926,0.20435717701911926,0.16248124837875366,1.0,0.16248124837875366,0.9823431968688965,False,0.0
zero_steer,53,False,-3.081554889678955,-0.0706879198551178,3.975916295114245,-1.817901372909546,0.017141588032245636,-1.2193454504013062,0.058743879199028015,0.3307318389415741,0.22200319170951843,0.3307318389415741,0.0,6.614636778831482,0.0,-0.00926591083407402,0.004379508085548878,-0.0024432013742625713,-0.07068920880556107,0.017140548676252365,0.058742959052324295,3.9759273941716464,3.9759273529052734,0.041597478091716766,0.017141489312052727,3.975916295114245,0.3950815796852112,16,0.13934504985809326,0.0,7.573940479232988e-07,0.0,False,True,False,False,False,False,0.2723076343536377,-0.00022129155695438385,-0.0002723775978665799,1.3826493727719935e-07,4.847417585551739e-06,0.3307318389415741,0.0,0.0,-0.08836150914430618,0.2650618255138397,0.048975683748722076,0.26506108045578003,0.2049797922372818,0.2049797922372818,0.16313663125038147,1.0,0.16313663125038147,0.9829766154289246,False,0.0
zero_steer,54,False,-3.072570323944092,-0.07005752623081207,3.9745400119964875,-1.8089147806167603,0.01774163916707039,-1.2103577852249146,0.059329554438591,0.33089756965637207,0.2221611887216568,0.33089756965637207,0.0,6.617951393127441,0.0,-0.009264422580599785,0.0045717875473201275,-0.0023463175166398287,-0.07005900144577026,0.01774047501385212,0.05932853743433952,3.9745540992616504,3.9745540618896484,0.0339239127933979,0.01774153672158718,3.9745400119964875,0.3950815796852112,16,0.1303575038909912,0.0,7.644820243513095e-07,0.0,False,True,False,False,False,False,0.2724798619747162,0.00015926919877529144,-0.0006347825983539224,4.675789000430086e-07,-0.0002984760794788599,0.33089756965637207,0.0,0.0,-0.08757375180721283,0.2649702727794647,0.05069010704755783,0.2649693191051483,0.2055959701538086,0.2055959701538086,0.16378523409366608,1.0,0.16378523409366608,0.983434796333313,False,0.0
zero_steer,55,False,-3.063586711883545,-0.06942717730998993,3.973109514252193,-1.799928903579712,0.01834043860435486,-1.2013709545135498,0.05991341173648834,0.330863356590271,0.22218337655067444,0.330863356590271,0.0,6.61726713180542,0.0,-0.009321761317551136,0.0046879202127456665,-0.0023169205524027348,-0.06942851096391678,0.0183393657207489,0.059912461787462234,3.9731214670832404,3.973121404647827,0.027083832770586014,0.0183403342962265,3.973109514252193,0.3950815796852112,16,0.12137067317962646,0.0,7.521111911046319e-07,0.0,False,True,False,False,False,False,0.2725522518157959,-0.0006755143404006958,0.00017204633331857622,4.997033329345868e-07,-0.00027862319257110357,0.330863356590271,0.0,0.0,-0.08678563684225082,0.26487475633621216,0.05240095779299736,0.2648739516735077,0.20620819926261902,0.20620819926261902,0.1644296944141388,1.0,0.1644296944141388,0.9840248227119446,False,0.0
zero_steer,56,False,-3.0546038150787354,-0.0687955915927887,3.9716593797140347,-1.7909438610076904,0.018940027803182602,-1.1923848390579224,0.06049785017967224,0.33084553480148315,0.22225363552570343,0.33084553480148315,0.0,6.616910696029663,0.0,-0.009222006425261497,0.004847316537052393,-0.0021873449441045523,-0.06879692524671555,0.01893894374370575,0.06049688905477524,3.971670905658259,3.9716708660125732,0.02187449112534523,0.018939919769763947,3.9716598066008575,0.3950815796852112,16,0.11238443851470947,0.0,7.945485549498699e-07,0.0,False,True,False,False,False,False,0.27234962582588196,-0.00016755983233451843,-0.00030301284277811646,1.5781543538651022e-07,-0.00013960758224129677,0.33084553480148315,0.0,0.0,-0.08599615842103958,0.2647780478000641,0.05411405861377716,0.2647773325443268,0.20682042837142944,0.20682042837142944,0.16507413983345032,1.0,0.16507413983345032,0.9845668077468872,False,0.0
zero_steer,57,False,-3.0456161499023438,-0.06816509366035461,3.970205403194468,-1.781954050064087,0.01953846588730812,-1.1833938360214233,0.06108109652996063,0.33086133003234863,0.22224994003772736,0.33086133003234863,0.0,6.617226600646973,0.0,-0.009317813441157341,0.0049788192845880985,-0.0021694970782846212,-0.06816662102937698,0.01953730173408985,0.06108010187745094,3.9702220517805697,3.970221996307373,0.019635938107967377,0.019538354128599167,3.970205403194468,0.3950815796852112,16,0.1033935546875,0.0,6.829032486166398e-07,0.0,False,True,False,False,False,False,0.272763192653656,0.0002265237271785736,-0.0006909425719641149,2.5549718429829227e-07,-0.00040594051824882627,0.33086133003234863,0.0,0.0,-0.08520827442407608,0.26468145847320557,0.05582387000322342,0.2646803557872772,0.20743122696876526,0.20743122696876526,0.16571709513664246,1.0,0.16571709513664246,0.9851812720298767,False,0.0
zero_steer,58,False,-3.0366196632385254,-0.06753331422805786,3.968634032798542,-1.772955060005188,0.02013559266924858,-1.1743937730789185,0.06166180968284607,0.33094218373298645,0.2222212702035904,0.33094218373298645,0.0,6.618843674659729,0.0,-0.009306770749390125,0.005075367633253336,-0.0021157015580683947,-0.06753501296043396,0.020134324207901955,0.06166074424982071,3.968654096479229,3.968654155731201,0.02133243717253208,0.02013547718524933,3.968634032798542,0.3950815796852112,16,0.09439349174499512,0.0,7.175139558057708e-07,0.0,False,True,False,False,False,False,0.27254173159599304,-0.0003152173012495041,4.839057874050923e-05,1.6926961166063847e-07,0.00014133135846350342,0.33094218373298645,0.0,0.0,-0.08441876620054245,0.2645769417285919,0.057529937475919724,0.2645756006240845,0.20803506672382355,0.20803506672382355,0.16635270416736603,1.0,0.16635270416736603,0.9858137965202332,False,0.0
zero_steer,59,False,-3.0276308059692383,-0.0669032484292984,3.9670921175934115,-1.7639639377593994,0.02073165401816368,-1.1654014587402344,0.06224176287651062,0.3310049772262573,0.222248837351799,0.3310049772262573,0.0,6.6200995445251465,0.0,-0.009218468330800533,0.00521040940657258,-0.0020040294621139765,-0.06690476834774017,0.020730486139655113,0.062240760773420334,3.9671079124058672,3.9671080112457275,0.026209842413663864,0.02073153480887413,3.9670921175934115,0.3950815796852112,16,0.08540105819702148,0.0,7.566303565909038e-07,0.0,False,True,False,False,False,False,0.27230551838874817,-1.5651807188987732e-05,-0.00045222739572636783,2.0150520185779897e-07,-0.0002830162411555648,0.3310049772262573,0.0,0.0,-0.08363096415996552,0.2644738554954529,0.059232957661151886,0.2644728124141693,0.20863893628120422,0.20863893628120422,0.16698835790157318,1.0,0.16698835790157318,0.9863901138305664,False,0.0
zero_steer,60,False,-3.018648624420166,-0.06627262383699417,3.9654076221893573,-1.754979133605957,0.021325115114450455,-1.1564154624938965,0.06281762570142746,0.33102551102638245,0.22226019203662872,0.33102551102638245,0.0,6.620510220527649,0.0,-0.009158184751868248,0.005362193565815687,-0.0018979955930262804,-0.06627411395311356,0.02132396213710308,0.06281663477420807,3.9654229901149898,3.965423107147217,0.03287556767463684,0.021324992179870605,3.9654076221893573,0.3950815796852112,16,0.07641518115997314,0.0,7.439920750584861e-07,0.0,False,True,False,False,False,False,0.27209314703941345,0.0005370248109102249,-0.0005391915910877287,0.0,-0.0002834634797181934,0.33102551102638245,0.0,0.0,-0.0828426405787468,0.26436153054237366,0.060928549617528915,0.2643605172634125,0.20923325419425964,0.20923325419425964,0.16761396825313568,1.0,0.16761396825313568,0.9869730472564697,False,0.0
zero_steer,61,False,-3.0096733570098877,-0.06564246118068695,3.9637423366923437,-1.7460012435913086,0.021918557584285736,-1.1474363803863525,0.06339366734027863,0.33108097314834595,0.22239980101585388,0.33108097314834595,0.0,6.621619462966919,0.0,-0.009213397279381752,0.0054619587026536465,-0.0018757192883640528,-0.06564373522996902,0.021917512640357018,0.06339273601770401,3.9637525819760984,3.9637527465820312,0.04045165702700615,0.021918432787060738,3.9637423366923437,0.3950815796852112,16,0.0674360990524292,0.0,7.549955967078859e-07,0.0,False,True,False,False,False,False,0.27210360765457153,-0.00026182644069194794,-0.00013092102017253637,3.2574047281741514e-07,-0.00022176047787070274,0.33108097314834595,0.0,0.0,-0.08205466717481613,0.26425015926361084,0.06262409687042236,0.2642494738101959,0.20982834696769714,0.20982834696769714,0.16824036836624146,1.0,0.16824036836624146,0.9874285459518433,False,0.0
zero_steer,62,False,-3.000694751739502,-0.06501184403896332,3.9620783318557993,-1.7370202541351318,0.02251247689127922,-1.1384541988372803,0.06397020816802979,0.3309590816497803,0.22227907180786133,0.3309590816497803,0.0,6.6191816329956055,0.0,-0.009293423034250736,0.005606934893876314,-0.001843244070187211,-0.0650133565068245,0.022511331364512444,0.06396923214197159,3.962094980441901,3.962095022201538,0.04851873591542244,0.022512348368763924,3.962078758742622,0.3950815796852112,16,0.058453917503356934,0.0,7.055292030599958e-07,0.0,False,True,False,False,False,False,0.27224963903427124,-2.0077452063560486e-05,-0.0004071675066370517,3.547708047335618e-07,-0.0003151649725623429,0.3309590816497803,0.0,0.0,-0.08126669377088547,0.26413965225219727,0.06432099640369415,0.2641385793685913,0.2104243040084839,0.2104243040084839,0.16886769235134125,1.0,0.16886769235134125,0.9881452322006226,False,0.0
zero_steer,63,False,-2.9917125701904297,-0.06438212096691132,3.960363527487303,-1.7280353307724,0.02310437336564064,-1.1294680833816528,0.0645441859960556,0.3311537206172943,0.22248615324497223,0.3311537206172943,0.0,6.623074412345886,0.0,-0.00940142571926117,0.005733724683523178,-0.0018338505178689957,-0.06438376009464264,0.023103142157197,0.06454315036535263,3.96038231050752,3.9603824615478516,0.05686946213245392,0.023104241117835045,3.960363527487303,0.3950815796852112,16,0.04946768283843994,0.0,7.338363730013953e-07,0.0,False,True,False,False,False,False,0.2723735570907593,0.00034815073013305664,-0.0008128358167596161,2.961993175176758e-07,-0.00016444327775388956,0.3311537206172943,0.0,0.0,-0.080479696393013,0.26402547955513,0.06601212173700333,0.2640242278575897,0.2110154628753662,0.2110154628753662,0.16948996484279633,1.0,0.16948996484279633,0.9885293245315552,False,0.0
zero_steer,64,False,-2.9827280044555664,-0.06375172734260559,3.958564626414651,-1.7190479040145874,0.023695088922977448,-1.1204793453216553,0.06511610746383667,0.3311552405357361,0.2225676327943802,0.3311552405357361,0.0,6.623104810714722,0.0,-0.009416911751031876,0.005835829768329859,-0.0017905409913510084,-0.06375310570001602,0.023694008588790894,0.06511517614126205,3.958578286792991,3.95857834815979,0.06539580971002579,0.023694952949881554,3.9585641995278276,0.3950815796852112,16,0.040479063987731934,0.0,7.302118660845736e-07,0.0,False,True,False,False,False,False,0.27230578660964966,-7.723458111286163e-05,-0.00021197546448092908,2.642997856128204e-07,0.00014374559395946562,0.3311552405357361,0.0,0.0,-0.07969138026237488,0.26390522718429565,0.0676998645067215,0.26390427350997925,0.21160127222537994,0.21160127222537994,0.17010660469532013,1.0,0.17010660469532013,0.9890336394309998,False,0.0
zero_steer,65,False,-2.9737439155578613,-0.06312116980552673,3.9567947536459713,-1.7100613117218018,0.02428661659359932,-1.1114914417266846,0.06568914651870728,0.3311675190925598,0.22260235249996185,0.3311675190925598,0.0,6.623350381851196,0.0,-0.009462221525609493,0.005977236200124025,-0.001742492662742734,-0.06312266737222672,0.02428547665476799,0.06568817794322968,3.95681097534525,3.95681095123291,0.07403550297021866,0.024286476895213127,3.9567947536459713,0.3950815796852112,16,0.03149116039276123,0.0,6.877654641357367e-07,0.0,False,True,False,False,False,False,0.27238279581069946,3.594718873500824e-05,-0.0005022574332542717,4.2629267227312084e-07,-0.0003634483437053859,0.3311675190925598,0.0,0.0,-0.07890333235263824,0.2637873888015747,0.0693899393081665,0.26378631591796875,0.2121894657611847,0.2121894657611847,0.1707257628440857,1.0,0.1707257628440857,0.989587128162384,False,0.0
zero_steer,66,False,-2.964754819869995,-0.062491998076438904,3.954930965776204,-1.7010692358016968,0.02487468346953392,-1.1024980545043945,0.06625774502754211,0.3311447501182556,0.22256620228290558,0.3311447501182556,0.0,6.622895002365112,0.0,-0.009456849656999111,0.006111444439738989,-0.0016727026086300611,-0.062493663281202316,0.02487345039844513,0.06625671684741974,3.954951029456891,3.954951047897339,0.08275754004716873,0.02487454190850258,3.954931392663027,0.3950815796852112,16,0.02249765396118164,0.0,7.600139042551746e-07,0.0,False,True,False,False,False,False,0.2725480794906616,0.00036495551466941833,-0.0009660692303441465,1.4516295721023198e-07,-4.702078877016902e-05,0.3311447501182556,0.0,0.0,-0.07811708003282547,0.2636634111404419,0.0710701197385788,0.26366209983825684,0.21276938915252686,0.21276938915252686,0.17133620381355286,1.0,0.17133620381355286,0.9902032017707825,False,0.0
zero_steer,67,False,-2.9557645320892334,-0.06186147406697273,3.953000156675206,-1.6920760869979858,0.025462619960308075,-1.093503475189209,0.0668255090713501,0.3312520980834961,0.2225920706987381,0.3312520980834961,0.0,6.625041961669922,0.0,-0.009468676522374153,0.0062132407911121845,-0.0016277178656309843,-0.061862967908382416,0.025461489334702492,0.0668245479464531,3.9530159514876617,3.9530160427093506,0.09072258323431015,0.025462474673986435,3.9529997297883828,0.5463109612464905,17,0.013503074645996094,0.0,7.538061481682234e-07,0.0,False,True,False,False,False,False,0.27248916029930115,-0.00015505030751228333,-0.0002857053477782756,4.2400569100209395e-07,8.658959995955229e-05,0.3312520980834961,0.0,0.0,-0.07732871174812317,0.26353439688682556,0.07274992763996124,0.2635333240032196,0.21334588527679443,0.21334588527679443,0.1719430536031723,1.0,0.1719430536031723,0.9907538294792175,False,0.0
zero_steer,68,False,-2.946775436401367,-0.061230551451444626,3.9511841801296286,-1.6830841302871704,0.026053495705127716,-1.0845102071762085,0.06739741563796997,0.3312493562698364,0.2225121110677719,0.3312493562698364,0.0,6.6249871253967285,0.0,-0.009460153989493847,0.006354524288326502,-0.0015528148505836725,-0.061231911182403564,0.026052402332425117,0.06739644706249237,3.951196132960676,3.9511961936950684,0.08231593668460846,0.026053346693515778,3.951184607016452,0.5463109612464905,17,0.004509925842285156,0.0,7.850784982110781e-07,0.0,False,True,False,False,False,False,0.2724561393260956,9.861588478088379e-05,-0.0005116406246088445,3.444940261942975e-07,-0.0002638944424688816,0.3312493562698364,0.0,0.0,-0.07653988897800446,0.26341307163238525,0.07443813234567642,0.2634122967720032,0.21393105387687683,0.21393105387687683,0.1725590080022812,1.0,0.1725590080022812,0.9914189577102661,False,0.0
zero_steer,69,False,-2.9377856254577637,-0.06060197204351425,3.949229892253359,-1.6740913391113281,0.02663896232843399,-1.0755161046981812,0.06796246021986008,0.3313148319721222,0.22262084484100342,0.3313148319721222,0.0,6.626296639442444,0.0,-0.009488329291343689,0.006488901562988758,-0.0014997138641774654,-0.06060347333550453,0.02663782611489296,0.06796149909496307,3.9492461139526376,3.9492461681365967,0.07404893636703491,0.026638809591531754,3.949229465366536,0.5463109612464905,17,0.0,0.004484295845031738,7.413534035549674e-07,0.0,False,True,False,False,False,False,0.2725486159324646,0.00039977580308914185,-0.0010395455174148083,2.7187553541807574e-07,0.0002376928459852934,0.3313148319721222,0.0,0.0,-0.07575434446334839,0.2632830739021301,0.07611088454723358,0.2632819712162018,0.21450382471084595,0.21450382471084595,0.17316192388534546,1.0,0.17316192388534546,0.9918829798698425,False,0.0
zero_steer,70,False,-2.928795337677002,-0.059971291571855545,3.9471962034279877,-1.6650980710983276,0.02722480148077011,-1.0665212869644165,0.06852705776691437,0.33134737610816956,0.22264324128627777,0.33134737610816956,0.0,6.626947522163391,0.0,-0.009531048126518726,0.006588987074792385,-0.0014710305258631706,-0.05997274070978165,0.027223698794841766,0.06852611899375916,3.9472119982404434,3.947211980819702,0.06597700715065002,0.027224645018577576,3.9471962034279877,0.5463109612464905,17,0.0,0.013479113578796387,7.246202358146547e-07,0.0,False,True,False,False,False,False,0.27259790897369385,-7.431209087371826e-05,-0.0003436161205172539,4.1288996044386295e-07,-0.00020158570259809494,0.33134737610816956,0.0,0.0,-0.07496592402458191,0.2631474733352661,0.0777847021818161,0.26314640045166016,0.21507324278354645,0.21507324278354645,0.17376132309436798,1.0,0.17376132309436798,0.9924299716949463,False,0.0
zero_steer,71,False,-2.9198007583618164,-0.05934087559580803,3.9452419155517178,-1.6561005115509033,0.02781210094690323,-1.0575222969055176,0.06909394264221191,0.33137184381484985,0.22267873585224152,0.33137184381484985,0.0,6.627436876296997,0.0,-0.0095148254185915,0.006731819361448288,-0.0013915030285716057,-0.059342507272958755,0.027810901403427124,0.06909295171499252,3.9452615523455816,3.9452617168426514,0.05817880481481552,0.027811942622065544,3.945242342438541,0.5463109612464905,17,0.0,0.022478103637695312,7.153517458391434e-07,0.0,False,True,False,False,False,False,0.2726830542087555,5.3495168685913086e-05,-0.0007531878654845059,3.67143655921609e-07,0.00026013271417468786,0.33137184381484985,0.0,0.0,-0.07417813688516617,0.2630174458026886,0.0794626921415329,0.2630161643028259,0.21564805507659912,0.21564805507659912,0.17436638474464417,1.0,0.17436638474464417,0.9929693341255188,False,0.0
zero_steer,72,False,-2.910808563232422,-0.05871144309639931,3.9431638304967414,-1.647105097770691,0.02839570865035057,-1.0485254526138306,0.06965583562850952,0.3314102590084076,0.22271038591861725,0.3314102590084076,0.0,6.628205180168152,0.0,-0.009534681215882301,0.006872954778373241,-0.00133086321875453,-0.05871286615729332,0.028394607827067375,0.06965488940477371,3.9431783446487274,3.943178415298462,0.0507853701710701,0.028395546600222588,3.9431638304967414,0.5463109612464905,17,0.0,0.031474947929382324,7.532171935054066e-07,0.0,False,True,False,False,False,False,0.2726473808288574,0.0005361828953027725,-0.0008883115951903164,4.61595760725686e-07,5.468455492518842e-05,0.3314102590084076,0.0,0.0,-0.07339107990264893,0.26287856698036194,0.08113013207912445,0.26287758350372314,0.21621273458003998,0.21621273458003998,0.17496077716350555,1.0,0.17496077716350555,0.9935023784637451,False,0.0
zero_steer,73,False,-2.9018163681030273,-0.05808199569582939,3.9410140284554798,-1.6381096839904785,0.028977736830711365,-1.0395283699035645,0.07021540403366089,0.3314136266708374,0.22277408838272095,0.3314136266708374,0.0,6.628272533416748,0.0,-0.0095182741060853,0.0069760349579155445,-0.001271119574084878,-0.05808357521891594,0.028976570814847946,0.07021443545818329,3.941032811475697,3.941032886505127,0.04399953410029411,0.028977571055293083,3.9410140284554798,0.5463109612464905,17,0.0,0.04047214984893799,7.603967446812021e-07,0.0,False,True,False,False,False,False,0.2724885046482086,1.0123476386070251e-05,-0.00039687284152023494,3.1795536870049546e-07,-0.00018084654584527016,0.3314136266708374,0.0,0.0,-0.0726044699549675,0.262735515832901,0.08279306441545486,0.2627342641353607,0.21677246689796448,0.21677246689796448,0.1755499690771103,1.0,0.1755499690771103,0.9939984083175659,False,0.0
zero_steer,74,False,-2.892827272415161,-0.057452742010354996,3.9388992311337145,-1.6291173696517944,0.029560349881649017,-1.0305346250534058,0.07077592611312866,0.33127129077911377,0.2226482480764389,0.33127129077911377,0.0,6.625425815582275,0.0,-0.009515287354588509,0.007121676579117775,-0.0011968053877353668,-0.05745425075292587,0.029559219256043434,0.07077497988939285,3.9389163066066395,3.9389164447784424,0.03815050423145294,0.029560180380940437,3.9388992311337145,0.5463109612464905,17,0.0,0.04946577548980713,7.229364200611599e-07,0.0,False,True,False,False,False,False,0.27265483140945435,0.00019750557839870453,-0.0005693780840374529,3.849626182272914e-07,-0.00044732604874297976,0.33127129077911377,0.0,0.0,-0.07181781530380249,0.26259443163871765,0.08445765823125839,0.26259326934814453,0.21733438968658447,0.21733438968658447,0.17614147067070007,1.0,0.17614147067070007,0.9946861267089844,False,0.0
zero_steer,75,False,-2.883836507797241,-0.05682309716939926,3.936732353619528,-1.620123267173767,0.030142206698656082,-1.0215389728546143,0.07133514434099197,0.3312665522098541,0.2226618379354477,0.3312665522098541,0.0,6.6253310441970825,0.0,-0.009342852979898453,0.007277503143996,-0.0010326749179512262,-0.05682451277971268,0.03014112263917923,0.07133421301841736,3.9367472946583373,3.9367473125457764,0.033723361790180206,0.030142033472657204,3.9367327805063512,0.5463109612464905,17,0.0,0.05846130847930908,7.255133027683769e-07,0.0,False,True,False,False,False,False,0.2723008394241333,0.0006178300827741623,-0.0010699129197746515,4.400053228437173e-07,-0.00036782061215490103,0.3312665522098541,0.0,0.0,-0.0710306391119957,0.26244983077049255,0.08612009882926941,0.26244884729385376,0.21789303421974182,0.21789303421974182,0.17672951519489288,1.0,0.17672951519489288,0.9952312111854553,False,0.0
zero_steer,76,False,-2.8748557567596436,-0.05619403347373009,3.9343477638255475,-1.6111388206481934,0.030718661844730377,-1.0125528573989868,0.07188668847084045,0.3312276601791382,0.22271031141281128,0.3312276601791382,0.0,6.624553203582764,0.0,-0.009281442500650883,0.007400218863040209,-0.000940611818805337,-0.05619535967707634,0.030717605724930763,0.07188575714826584,3.934360570430241,3.9343605041503906,0.0313260443508625,0.03071848675608635,3.9343477638255475,0.5463109612464905,17,0.0,0.06744754314422607,7.851684813431348e-07,0.0,False,True,False,False,False,False,0.27207884192466736,-0.0006869379431009293,0.0003675247135106474,9.268046596844215e-08,0.0004284598398953676,0.3312276601791382,0.0,0.0,-0.070244200527668,0.26229071617126465,0.0877671092748642,0.2622898519039154,0.2184353470802307,0.2184353470802307,0.1773003786802292,1.0,0.1773003786802292,0.9957250356674194,False,0.0
zero_steer,77,False,-2.8658859729766846,-0.05556609109044075,3.9322231481068504,-1.602165937423706,0.03129975497722626,-1.0035784244537354,0.0724455863237381,0.3313300609588623,0.22277407348155975,0.3313300609588623,0.0,6.626601219177246,0.0,-0.009128695353865623,0.007518433034420013,-0.000805131159722805,-0.055567339062690735,0.03129876032471657,0.07244471460580826,3.9322346740510747,3.932234764099121,0.03142780065536499,0.03129957616329193,3.9322235749936736,0.5463109612464905,17,0.0,0.07642197608947754,7.473151413250889e-07,0.0,False,True,False,False,False,False,0.2717769742012024,0.00024393945932388306,-0.0007197068189270794,3.0512634907609026e-07,-0.00022091798018664122,0.3313300609588623,0.0,0.0,-0.06945917010307312,0.26214897632598877,0.08942735940217972,0.2621482312679291,0.2189951241016388,0.2189951241016388,0.1778896152973175,1.0,0.1778896152973175,0.9962210655212402,False,0.0
zero_steer,78,False,-2.8569185733795166,-0.05493979901075363,3.9299397304899504,-1.5931950807571411,0.03187568113207817,-0.9946058988571167,0.07299765199422836,0.3313743472099304,0.2227982133626938,0.3313743472099304,0.0,6.627486944198608,0.0,-0.009222117252647877,0.007657710928469896,-0.0007822031620889902,-0.05494100600481033,0.031874701380729675,0.07299678027629852,3.9299499757737055,3.929949998855591,0.033991407603025436,0.031875498592853546,3.9299397304899504,0.5463109612464905,17,0.0,0.08539438247680664,7.441513503181341e-07,0.0,False,True,False,False,False,False,0.27184203267097473,0.0006507355719804764,-0.00112152099609375,3.4643809954104654e-07,-0.00022426198120228946,0.3313743472099304,0.0,0.0,-0.06867625564336777,0.26199665665626526,0.09107285737991333,0.26199597120285034,0.21954157948493958,0.21954157948493958,0.1784648299217224,1.0,0.1784648299217224,0.996743381023407,False,0.0
zero_steer,79,False,-2.847975254058838,-0.05431381240487099,3.92752653927882,-1.5842480659484863,0.03244844451546669,-0.9856572151184082,0.07354520261287689,0.33139312267303467,0.2229020893573761,0.33139312267303467,0.0,6.627862453460693,0.0,-0.009209743700921535,0.007764951325953007,-0.0007223961874842644,-0.055386982858181,0.031713951379060745,0.07297112792730331,3.9428820851934785,3.9428820610046387,0.038516815751791,0.03244825825095177,3.9275261123919973,0.5463109612464905,17,0.0,0.09412258863449097,0.0003691693127620965,0.0,False,True,False,False,False,False,0.27073195576667786,0.00011978484690189362,-0.00031904494971968234,2.0528297284272412e-07,0.00014666610513813794,0.33139312267303467,0.0,0.0,-0.0692337304353714,0.2628588080406189,0.09270931035280228,0.2618350684642792,0.2201261818408966,0.2201261818408966,0.17908020317554474,1.0,0.17908020317554474,0.9972240924835205,False,0.0
zero_steer,80,False,-2.8390588760375977,-0.05369064211845398,3.9251551829763565,-1.5753281116485596,0.0330193005502224,-0.9767354726791382,0.07409128546714783,0.3313709795475006,0.2229018658399582,0.3313709795475006,0.0,6.627419590950012,0.0,-0.009305424056947231,0.007915282621979713,-0.0006950707174837589,-0.05596663057804108,0.031464509665966034,0.07287810742855072,3.9578542867409694,3.9578542709350586,0.044392526149749756,0.033019110560417175,3.9251551829763565,0.5463109612464905,17,0.0,0.10279726982116699,0.000781529932282865,0.0,False,True,False,False,False,False,0.270047664642334,0.00036706775426864624,-0.0005342119839042425,2.9314517746570345e-07,9.418121771886945e-05,0.3313709795475006,0.0,0.0,-0.06995828449726105,0.2638569474220276,0.09434031695127487,0.26167699694633484,0.22072172164916992,0.22072172164916992,0.17970708012580872,1.0,0.17970708012580872,0.9978198409080505,False,0.0
zero_steer,81,False,-2.830162286758423,-0.0530690923333168,3.9227338809155867,-1.5664277076721191,0.03358745202422142,-0.967833399772644,0.0746341422200203,0.3312944769859314,0.22276820242404938,0.3312944769859314,0.0,6.625889539718628,0.0,-0.009415962733328342,0.008041005581617355,-0.0006874785758554935,-0.05654851347208023,0.03121323324739933,0.07278342545032501,3.9728431368745625,3.9728431701660156,0.051146265119314194,0.0335872583091259,3.9227338809155867,0.5463109612464905,17,0.0,0.1114506721496582,0.0011968194739893079,0.0,False,True,False,False,False,False,0.26948487758636475,0.0007410962134599686,-0.001091141952201724,3.143806281968864e-07,8.742325007915497e-05,0.3312944769859314,0.0,0.0,-0.07068563997745514,0.264856219291687,0.09596359729766846,0.2615155875682831,0.22131437063217163,0.22131437063217163,0.18033093214035034,1.0,0.18033093214035034,0.9985461831092834,False,0.0
zero_steer,82,False,-2.821286678314209,-0.052447542548179626,3.920325385459511,-1.5575486421585083,0.03415587544441223,-0.9589525461196899,0.075177401304245,0.33128565549850464,0.2227543443441391,0.33128565549850464,0.0,6.625713109970093,0.0,-0.009383744560182095,0.008149832487106323,-0.0006169560365378857,-0.057125456631183624,0.03096672147512436,0.07269342988729477,3.9878260105926318,3.987826108932495,0.0584658607840538,0.03415568172931671,3.920325385459511,0.5463109612464905,17,0.0,0.12008160352706909,0.0016139273066073656,0.0,False,True,False,False,False,False,0.2687976658344269,0.00010908395051956177,-0.0005496618105098605,2.8034475008098525e-07,-4.042242653667927e-05,0.33128565549850464,0.0,0.0,-0.07140681892633438,0.265855073928833,0.09758766740560532,0.2613550126552582,0.22190985083580017,0.22190985083580017,0.18095774948596954,1.0,0.18095774948596954,0.9991555213928223,False,0.0
zero_steer,83,False,-2.8124260902404785,-0.05182953551411629,3.917816998486824,-1.5486842393875122,0.03471856564283371,-0.9500863552093506,0.07571388781070709,0.33132731914520264,0.2227395921945572,0.33132731914520264,0.0,6.626546382904053,0.0,-0.0095117362216115,0.008304635994136333,-0.0006035501137375832,-0.05770673602819443,0.030716538429260254,0.07260007411241531,4.002838339501497,4.002838611602783,0.0661577358841896,0.03471836820244789,3.917816998486824,0.5463109612464905,17,0.0,0.12869656085968018,0.002031259471550584,0.0,False,True,False,False,False,False,0.26850536465644836,0.00044704973697662354,-0.0006172173889353871,2.1967593966110144e-07,0.00017905837739817798,0.33132731914520264,0.0,0.0,-0.07213342189788818,0.2668558955192566,0.09919533878564835,0.2611877918243408,0.22249920666217804,0.22249920666217804,0.1815781146287918,1.0,0.1815781146287918,0.9997596144676208,False,0.0
zero_steer,84,False,-2.8035755157470703,-0.051211923360824585,3.9153111728350756,-1.5398298501968384,0.03528089076280594,-0.9412301778793335,0.07625003159046173,0.3314266800880432,0.22285635769367218,0.3314266800880432,0.0,6.628533601760864,0.0,-0.00963417999446392,0.008434375748038292,-0.0005999021232128143,-0.05829058960080147,0.030465690419077873,0.07250696420669556,4.017939033982748,4.01793909072876,0.07410729676485062,0.03528068959712982,3.9153111728350756,0.5463109612464905,17,0.0,0.13730007410049438,0.0024520684964954853,0.0,False,True,False,False,False,False,0.2682639956474304,0.0008580274879932404,-0.0009110338869504631,3.737832514616457e-07,5.056257577962242e-05,0.3314266800880432,0.0,0.0,-0.07286323606967926,0.26786258816719055,0.1008019745349884,0.2610207498073578,0.22309067845344543,0.22309067845344543,0.18220072984695435,1.0,0.18220072984695435,0.9997656941413879,False,0.0002343207597732544
zero_steer,85,False,-2.7947335243225098,-0.05059496685862541,3.91267600047592,-1.5309839248657227,0.035839736461639404,-0.932382345199585,0.07678134739398956,0.3313451409339905,0.22280289232730865,0.3313451409339905,0.0,6.62690281867981,0.0,-0.009659908711910248,0.008543353527784348,-0.0005582775920629501,-0.058867938816547394,0.0302176084369421,0.07241484522819519,4.032868546847927,4.032868385314941,0.08223666250705719,0.03583953157067299,3.91267600047592,0.5463109612464905,17,0.0,0.14589637517929077,0.0028724318835884333,0.0,False,True,False,False,False,False,0.26791372895240784,0.00019394047558307648,-0.0005255098803900182,3.983442979915708e-07,0.0001331722887698561,0.3313451409339905,0.0,0.0,-0.07358492165803909,0.2688578963279724,0.10239866375923157,0.2608450651168823,0.2236744612455368,0.2236744612455368,0.18281523883342743,1.0,0.18281523883342743,0.9991284608840942,False,0.0008715689182281494
zero_steer,86,False,-2.7858996391296387,-0.04997828230261803,3.9101394389729065,-1.522146224975586,0.03640047460794449,-0.923542857170105,0.07731558382511139,0.33134597539901733,0.2228136658668518,0.33134597539901733,0.0,6.626919507980347,0.0,-0.009724372997879982,0.008681444451212883,-0.0005214642733335495,-0.05945252999663353,0.0299681406468153,0.07232411950826645,4.048064437090736,4.048064708709717,0.0904972180724144,0.036400265991687775,3.9101398658597297,0.5463109612464905,17,0.0,0.15448153018951416,0.003297606483101845,0.0,False,True,False,False,False,False,0.2677582800388336,0.00046385079622268677,-0.0007588089210912585,2.0805242684218683e-07,0.00023672363022342324,0.33134597539901733,0.0,0.0,-0.07431565970182419,0.26987096667289734,0.1040007621049881,0.26067599654197693,0.22426816821098328,0.22426816821098328,0.1834401935338974,1.0,0.1834401935338974,0.9985455274581909,False,0.0014545023441314697
zero_steer,87,False,-2.7770724296569824,-0.04936324059963226,3.9074756651966016,-1.513314962387085,0.03695676103234291,-0.9147096872329712,0.07784403860569,0.3312776982784271,0.22269566357135773,0.3312776982784271,0.0,6.6255539655685425,0.0,-0.00981687381863594,0.008817093446850777,-0.0004998901858925819,-0.0600375235080719,0.029717259109020233,0.07223149389028549,4.0632155042171165,4.063215732574463,0.09114369750022888,0.0369565486907959,3.9074756651966016,0.6975403428077698,18,0.0,0.16305965185165405,0.003723145928233862,0.0,False,True,False,False,False,False,0.2675773501396179,0.0008095484226942062,-0.001336537068709731,1.333396113523122e-07,0.0003394859086256474,0.3312776982784271,0.0,0.0,-0.07504690438508987,0.2708810269832611,0.10559014230966568,0.26049837470054626,0.22485503554344177,0.22485503554344177,0.18405793607234955,1.0,0.18405793607234955,0.9978406429290771,False,0.0021593719720840454
zero_steer,88,False,-2.7682485580444336,-0.048747360706329346,3.9047696296248073,-1.5044869184494019,0.03751295059919357,-0.9058797359466553,0.07837195694446564,0.3312189280986786,0.2226845771074295,0.3312189280986786,0.0,6.624378561973572,0.0,-0.00983144249767065,0.008931677788496017,-0.0004498823545873165,-0.0606207512319088,0.029468845576047897,0.07214166969060898,4.078398160968408,4.07839822769165,0.0833997130393982,0.03751273453235626,3.9047696296248073,0.6975403428077698,18,0.0,0.17163372039794922,0.004149777814745903,0.0,False,True,False,False,False,False,0.26743364334106445,0.000344056636095047,-0.0004403964849188924,2.9040714366601605e-07,0.0001299891882808879,0.3312189280986786,0.0,0.0,-0.07577593624591827,0.2718932032585144,0.10717924684286118,0.26031798124313354,0.225443497300148,0.225443497300148,0.1846773773431778,1.0,0.1846773773431778,0.9972410798072815,False,0.002758920192718506
zero_steer,89,False,-2.759430408477783,-0.04813259467482567,3.902023466691639,-1.4956648349761963,0.03806714341044426,-0.8970556259155273,0.07889746129512787,0.33114051818847656,0.22259311378002167,0.33114051818847656,0.0,6.622810363769531,0.0,-0.009750054217875004,0.009072963148355484,-0.0003385455347597599,-0.061207979917526245,0.029218465089797974,0.07205085456371307,4.093673452160319,4.0936737060546875,0.07590105384588242,0.03806692734360695,3.902023466691639,0.6975403428077698,18,0.0,0.18020027875900269,0.00457880599424243,0.0,False,True,False,False,False,False,0.26709291338920593,-0.00018786266446113586,0.00010213257337454706,1.1244951636513179e-08,-0.00023275066632777452,0.33114051818847656,0.0,0.0,-0.0765099748969078,0.27291154861450195,0.10876265168190002,0.26013490557670593,0.2260318398475647,0.2260318398475647,0.1852966845035553,1.0,0.1852966845035553,0.9965612888336182,False,0.00343872606754303
zero_steer,90,False,-2.7506258487701416,-0.04751940071582794,3.899305478288797,-1.4868559837341309,0.03862038999795914,-0.8882449865341187,0.07942230999469757,0.3312218189239502,0.22257889807224274,0.3312218189239502,0.0,6.624436378479004,0.0,-0.009583954699337482,0.009227205999195576,-0.00017837435007095337,-0.06180525943636894,0.028963496908545494,0.0719580203294754,4.109196764596466,4.109196662902832,0.06873230636119843,0.03862017020583153,3.8993059051756203,0.6975403428077698,18,0.0,0.1887497901916504,0.005012297071516514,0.0,False,True,False,False,False,False,0.26667359471321106,0.0008534900844097137,-0.0014375807950273156,2.761793211902841e-07,0.00020087574375793338,0.3312218189239502,0.0,0.0,-0.07725657522678375,0.2739464342594147,0.11034334450960159,0.25995373725891113,0.22662495076656342,0.22662495076656342,0.18592101335525513,1.0,0.18592101335525513,0.9959539175033569,False,0.004046052694320679
zero_steer,91,False,-2.7418320178985596,-0.046906884759664536,3.896462412046779,-1.478057861328125,0.03917019069194794,-0.8794448375701904,0.07994240522384644,0.33131784200668335,0.2226909101009369,0.33131784200668335,0.0,6.626356840133667,0.0,-0.009517339058220387,0.009334878996014595,-9.123003110289574e-05,-0.062393855303525925,0.028713254258036613,0.07186805456876755,4.124540784566899,4.12454080581665,0.06199883669614792,0.03916996717453003,3.896462412046779,0.6975403428077698,18,0.0,0.19728893041610718,0.005444607697427273,0.0,False,True,False,False,False,False,0.26632460951805115,0.0003994777798652649,-0.0007117833010852337,4.997182259103283e-07,5.194608820602298e-05,0.33131784200668335,0.0,0.0,-0.07799232006072998,0.2749693691730499,0.11191419512033463,0.259764164686203,0.22721129655838013,0.22721129655838013,0.1865382194519043,1.0,0.1865382194519043,0.9954795837402344,False,0.004520386457443237
zero_steer,92,False,-2.733045816421509,-0.04629633203148842,3.893631725522632,-1.4692676067352295,0.03971831128001213,-0.870652437210083,0.08046095073223114,0.33132797479629517,0.22266747057437897,0.33132797479629517,0.0,6.626559495925903,0.0,-0.009616878814995289,0.009487207978963852,-6.483541801571846e-05,-0.06298638880252838,0.028460795059800148,0.07177666574716568,4.139962497939142,4.139962673187256,0.055852342396974564,0.039718084037303925,3.893631298635809,0.6975403428077698,18,0.0,0.20581978559494019,0.005880718119442463,0.0,False,True,False,False,False,False,0.2663560211658478,0.000735575333237648,-0.0008591027581132948,2.774404777028394e-07,0.00011787575931521133,0.33132797479629517,0.0,0.0,-0.07873298227787018,0.27599748969078064,0.11348024010658264,0.25957542657852173,0.2277979701757431,0.2277979701757431,0.18715576827526093,1.0,0.18715576827526093,0.9948694705963135,False,0.005130499601364136
zero_steer,93,False,-2.724268674850464,-0.04568445309996605,3.890720357388914,-1.4604860544204712,0.04026597738265991,-0.8618688583374023,0.08097819983959198,0.3313024044036865,0.22258000075817108,0.3313024044036865,0.0,6.6260480880737305,0.0,-0.009418012574315071,0.009622410871088505,0.00010219914838671684,-0.06357955932617188,0.02820909395813942,0.07168671488761902,4.155448671221676,4.155448913574219,0.0505048967897892,0.04026574641466141,3.890720357388914,0.6975403428077698,18,0.0,0.21433943510055542,0.006318447180092335,0.0,False,True,False,False,False,False,0.265672892332077,0.00016066059470176697,-0.000916925841011107,4.511875033585966e-07,-0.00019200248061679304,0.3313024044036865,0.0,0.0,-0.07947444915771484,0.2770299017429352,0.11504499614238739,0.25938135385513306,0.22838540375232697,0.22838540375232697,0.18777412176132202,1.0,0.18777412176132202,0.9941946268081665,False,0.005805402994155884
zero_steer,94,False,-2.715505361557007,-0.04507419839501381,3.8876886071710746,-1.4517182111740112,0.04080935940146446,-0.8530988693237305,0.08148990571498871,0.3313543200492859,0.22258780896663666,0.3313543200492859,0.0,6.627086400985718,0.0,-0.009314755909144878,0.009761662222445011,0.00022345315665006638,-0.06416601687669754,0.02796095237135887,0.0715988278388977,4.170791837418464,4.170792102813721,0.04622858017683029,0.04080912470817566,3.8876886071710746,0.6975403428077698,18,0.0,0.22284507751464844,0.006754899863153696,0.0,False,True,False,False,False,False,0.26542171835899353,0.0001748315989971161,-0.0003001012373715639,3.176351697220525e-07,-0.0010928281117230654,0.3313543200492859,0.0,0.0,-0.08020751923322678,0.27805277705192566,0.1165975034236908,0.2591792345046997,0.22896608710289001,0.22896608710289001,0.18838536739349365,1.0,0.18838536739349365,0.9936217069625854,False,0.006378278136253357
zero_steer,95,False,-2.706747055053711,-0.04446512833237648,3.884904024423825,-1.442955732345581,0.04135701060295105,-0.8443343639373779,0.0820084661245346,0.3313353657722473,0.2225799709558487,0.3313353657722473,0.0,6.626707315444946,0.0,-0.009442654438316822,0.009874647483229637,0.00021599652245640755,-0.06477700918912888,0.027702584862709045,0.07150748372077942,4.186784725360049,4.186784744262695,0.043338797986507416,0.04135677218437195,3.884904024423825,0.6975403428077698,18,0.0,0.2313411831855774,0.007201372180134058,0.0,False,True,False,False,False,False,0.26573628187179565,0.000664805993437767,-0.0009386125020682812,1.7986562284022511e-07,-6.877465057186782e-05,0.3313353657722473,0.0,0.0,-0.08097126334905624,0.27911898493766785,0.11816220730543137,0.25899359583854675,0.22956708073616028,0.22956708073616028,0.18901799619197845,1.0,0.18901799619197845,0.9930129051208496,False,0.0069871097803115845
zero_steer,96,False,-2.6979799270629883,-0.043856021016836166,3.8818859345843255,-1.4341840744018555,0.04189954698085785,-0.8355605602264404,0.08251947164535522,0.33133602142333984,0.2225870043039322,0.33133602142333984,0.0,6.626720428466797,0.0,-0.009491894394159317,0.01000276580452919,0.0002554357051849365,-0.06537798047065735,0.027447834610939026,0.07141673564910889,4.202487330261908,4.202487468719482,0.04210793226957321,0.04189930856227875,3.8818863614711487,0.6975403428077698,18,0.0,0.23984616994857788,0.007646724581718445,0.0,False,True,False,False,False,False,0.2656935751438141,0.0007781703025102615,-0.001019038143567741,3.0357202263076033e-07,-0.0013679227558895946,0.33133602142333984,0.0,0.0,-0.08172247558832169,0.28016582131385803,0.11971231549978256,0.2587924301624298,0.23015457391738892,0.23015457391738892,0.18963640928268433,1.0,0.18963640928268433,0.9924324154853821,False,0.007567569613456726
zero_steer,97,False,-2.6892154216766357,-0.04324745386838913,3.8788546112533093,-1.4254150390625,0.04244124889373779,-0.826789379119873,0.08302950114011765,0.33130592107772827,0.22255145013332367,0.33130592107772827,0.0,6.626118421554565,0.0,-0.00956969428807497,0.010125595144927502,0.0002779504284262657,-0.06597871333360672,0.027194298803806305,0.07132765650749207,4.218233904506549,4.218234062194824,0.042688194662332535,0.04244100674986839,3.8788546112533093,0.6975403428077698,18,0.0,0.24834847450256348,0.008093781769275665,0.0,False,True,False,False,False,False,0.2656457722187042,0.0007187873125076294,-0.0007519943756051362,2.835844270521193e-07,-2.0652805687859654e-05,0.33130592107772827,0.0,0.0,-0.08247338980436325,0.2812155783176422,0.12126002460718155,0.25859031081199646,0.2307433784008026,0.2307433784008026,0.19025619328022003,1.0,0.19025619328022003,0.9918080568313599,False,0.008191928267478943
zero_steer,98,False,-2.680457830429077,-0.04263889789581299,3.8758424978293338,-1.4166529178619385,0.04298336058855057,-0.8180252313613892,0.08354014158248901,0.331298291683197,0.22246603667736053,0.331298291683197,0.0,6.62596583366394,0.0,-0.009414143860340118,0.010290071368217468,0.0004379637539386749,-0.06658719480037689,0.026938412338495255,0.07123878598213196,4.234226792448134,4.234226703643799,0.04500795155763626,0.04298311471939087,3.8758424978293338,0.6975403428077698,18,0.0,0.25683873891830444,0.008545669727027416,0.0,False,True,False,False,False,False,0.26526588201522827,0.0008771754801273346,-0.0011679136659950018,3.142852733617474e-07,3.269669832661748e-05,0.331298291683197,0.0,0.0,-0.08323399722576141,0.2822817862033844,0.12280890345573425,0.25838950276374817,0.23133879899978638,0.23133879899978638,0.19088295102119446,1.0,0.19088295102119446,0.9911272525787354,False,0.008872762322425842
zero_steer,99,False,-2.6717090606689453,-0.042031627148389816,3.8727501296826103,-1.4078996181488037,0.0435224249958992,-0.8092696666717529,0.08404690027236938,0.3312636613845825,0.2224568873643875,0.3312636613845825,0.0,6.62527322769165,0.0,-0.009476719424128532,0.01042569987475872,0.000474490225315094,-0.06719441711902618,0.02668282762169838,0.07114976644515991,4.250175284160114,4.250175476074219,0.04881220683455467,0.043522175401449203,3.8727505565694336,0.6975403428077698,18,0.0,0.26532191038131714,0.008997820317745209,0.0,False,True,False,False,False,False,0.265192449092865,0.0014838390052318573,-0.0019947364926338196,4.028030886615852e-08,-0.00016728481568861753,0.3312636613845825,0.0,0.0,-0.08399301767349243,0.2833450138568878,0.12434907257556915,0.2581833600997925,0.23193000257015228,0.23193000257015228,0.1915052831172943,1.0,0.1915052831172943,0.9905269145965576,False,0.00947311520576477
zero_steer,100,False,-2.662956714630127,-0.041423581540584564,3.8694656624654806,-1.3991422653198242,0.04405801370739937,-0.800510048866272,0.08454816788434982,0.33121323585510254,0.22237364947795868,0.33121323585510254,0.0,6.624264717102051,0.0,-0.00958504993468523,0.01055795419961214,0.0004864521324634552,-0.06779751181602478,0.026428230106830597,0.07106023281812668,4.265982903220462,4.2659831047058105,0.053789522498846054,0.04405776038765907,3.8694656624654806,0.6975403428077698,18,0.0,0.2738072872161865,0.009450932964682579,0.0,False,True,False,False,False,False,0.26526424288749695,0.0002997536212205887,-0.0003715927596203983,2.2458938531144668e-07,-0.0013081817887723446,0.33121323585510254,0.0,0.0,-0.08474688977003098,0.2843988537788391,0.12587931752204895,0.2579643726348877,0.23251232504844666,0.23251232504844666,0.19211824238300323,1.0,0.19211824238300323,0.9898613095283508,False,0.010138675570487976
zero_steer,101,False,-2.654207944869995,-0.04081752896308899,3.866420251869301,-1.3903889656066895,0.044596895575523376,-0.7917544841766357,0.08505523204803467,0.3312016427516937,0.22235628962516785,0.3312016427516937,0.0,6.6240328550338745,0.0,-0.009532244876027107,0.010620891116559505,0.0005443231202661991,-0.0684206485748291,0.02616698294878006,0.07097040861845016,4.282397982230118,4.282398223876953,0.05964832380414009,0.04459663853049278,3.866420251869301,0.6975403428077698,18,0.0,0.282284140586853,0.009911691769957542,0.0,False,True,False,False,False,False,0.2648394703865051,0.00020316243171691895,-0.0008160845027305186,3.464801352492941e-07,9.518313891021535e-05,0.3312016427516937,0.0,0.0,-0.08552581071853638,0.2854931950569153,0.12741896510124207,0.2577613592147827,0.23311498761177063,0.23311498761177063,0.1927526295185089,1.0,0.1927526295185089,0.9892413020133972,False,0.010758697986602783
zero_steer,102,False,-2.645473003387451,-0.04021308198571205,3.863169081824375,-1.3816490173339844,0.04512963443994522,-0.7830123901367188,0.08555400371551514,0.33112776279449463,0.22238826751708984,0.33112776279449463,0.0,6.622555255889893,0.0,-0.00936899334192276,0.010758263990283012,0.0006946353241801262,-0.06903126090765,0.025910858064889908,0.07088218629360199,4.298476674423151,4.298476696014404,0.0661400631070137,0.04512937739491463,3.863169081824375,0.6975403428077698,18,0.0,0.2907502055168152,0.01036913599818945,0.0,False,True,False,False,False,False,0.2646043300628662,0.0013118628412485123,-0.0015215376624837518,2.323699561657122e-07,7.84460426075384e-05,0.33112776279449463,0.0,0.0,-0.08628907799720764,0.2865650951862335,0.12894107401371002,0.257544606924057,0.23370352387428284,0.23370352387428284,0.19337214529514313,1.0,0.19337214529514313,0.9886847734451294,False,0.011315256357192993
zero_steer,103,False,-2.636749267578125,-0.03960812836885452,3.8598649778133813,-1.3729205131530762,0.04566170275211334,-0.7742815017700195,0.08605154603719711,0.33116114139556885,0.2223924845457077,0.33116114139556885,0.0,6.623222827911377,0.0,-0.009235710836946964,0.010873447172343731,0.0008188681676983833,-0.0696486309170723,0.025652257725596428,0.0707935243844986,4.314750453894353,4.314750671386719,0.07309628278017044,0.04566144198179245,3.8598649778133813,0.6975403428077698,18,0.0,0.29920005798339844,0.010830298066139221,0.0,False,True,False,False,False,False,0.26430583000183105,0.0006491877138614655,-0.001156644313596189,3.8631563370472577e-07,0.0001797465665731579,0.33116114139556885,0.0,0.0,-0.08706078678369522,0.2876500189304352,0.13046126067638397,0.25732433795928955,0.23429521918296814,0.23429521918296814,0.19399498403072357,1.0,0.19399498403072357,0.9880972504615784,False,0.011902734637260437
zero_steer,104,False,-2.62802791595459,-0.039005257189273834,3.8565916096536528,-1.364194393157959,0.04619237780570984,-0.7655529975891113,0.08654802292585373,0.3311655521392822,0.22234399616718292,0.3311655521392822,0.0,6.6233110427856445,0.0,-0.0092922979965806,0.011027731001377106,0.0008677165023982525,-0.07026781141757965,0.025393255054950714,0.0707051232457161,4.331088266389024,4.331088542938232,0.0803997665643692,0.04619211331009865,3.856592036540476,0.6975403428077698,18,0.0,0.30764687061309814,0.011295122094452381,0.0,False,True,False,False,False,False,0.2642793655395508,0.0011730846017599106,-0.001095570856705308,3.549211271547392e-07,-2.6389432605355978e-05,0.3311655521392822,0.0,0.0,-0.08783476054668427,0.2887392044067383,0.13197746872901917,0.25710612535476685,0.23488837480545044,0.23488837480545044,0.19461935758590698,1.0,0.19461935758590698,0.9874556064605713,False,0.012544378638267517
zero_steer,105,False,-2.6193079948425293,-0.03840189054608345,3.853208958467204,-1.3554692268371582,0.04672113433480263,-0.7568255662918091,0.08704143762588501,0.3311413526535034,0.22240100800991058,0.3311413526535034,0.0,6.622827053070068,0.0,-0.009308481588959694,0.011046774685382843,0.0008691465482115746,-0.07088155299425125,0.025137009099125862,0.07061821222305298,4.347304843025927,4.347304821014404,0.0879642516374588,0.04672086611390114,3.853209385354027,0.6975403428077698,18,0.0,0.3160930871963501,0.011760829947888851,0.0,False,True,False,False,False,False,0.26411616802215576,0.0011130236089229584,-0.0014388705603778362,0.0,-0.0009031530353240669,0.3311413526535034,0.0,0.0,-0.08860193938016891,0.2898203134536743,0.13348819315433502,0.25688061118125916,0.23547649383544922,0.23547649383544922,0.19523842632770538,1.0,0.19523842632770538,0.9869245290756226,False,0.013075485825538635
zero_steer,106,False,-2.6105949878692627,-0.03780050948262215,3.8504794441201375,-1.3467521667480469,0.04726229980587959,-0.7481065988540649,0.08755408227443695,0.3312620520591736,0.2224700003862381,0.3312620520591736,0.0,6.625241041183472,0.0,-0.009546169079840183,0.011151423677802086,0.0008026272989809513,-0.07154612243175507,0.024864468723535538,0.07053136080503464,4.365088948077347,4.365088939666748,0.09572846442461014,0.047262027859687805,3.8504794441201375,0.6975403428077698,18,0.0,0.32451707124710083,0.012244127690792084,0.0,False,True,False,False,False,False,0.2639124095439911,-0.0007113683968782425,-0.0007566835265606642,0.0,-0.0003306353755760938,0.3312620520591736,0.0,0.0,-0.08943265676498413,0.291005939245224,0.13503436744213104,0.2566986382007599,0.23612046241760254,0.23612046241760254,0.1959162801504135,1.0,0.1959162801504135,0.9863495230674744,False,0.013650462031364441
zero_steer,107,False,-2.6018829345703125,-0.03719864785671234,3.8469525051874722,-1.3380351066589355,0.04778635501861572,-0.7393869161605835,0.088041290640831,0.33121615648269653,0.2224225550889969,0.33121615648269653,0.0,6.624323129653931,0.0,-0.009503684006631374,0.011320737190544605,0.0009085265919566154,-0.0721617043018341,0.024607505649328232,0.07044427841901779,4.381357604906671,4.381357669830322,0.09580368548631668,0.047786083072423935,3.8469525051874722,0.8487697243690491,19,0.0,0.332952618598938,0.012713868170976639,0.0,False,True,False,False,False,False,0.26411640644073486,0.00031580589711666107,-0.000876182341016829,0.0,-0.0003860710421577096,0.33121615648269653,0.0,0.0,-0.09020213037729263,0.292090505361557,0.13653166592121124,0.25646349787712097,0.23670464754104614,0.23670464754104614,0.19653122127056122,1.0,0.19653122127056122,0.9857178926467896,False,0.014282092452049255
zero_steer,108,False,-2.593165397644043,-0.03659495711326599,3.8437939695831647,-1.329312801361084,0.04832036793231964,-0.73066246509552,0.08854229748249054,0.33106258511543274,0.22234976291656494,0.33106258511543274,0.0,6.621251702308655,0.0,-0.00954238697886467,0.011450987309217453,0.0009543001651763916,-0.07281024754047394,0.02434026449918747,0.07035764306783676,4.398655912753375,4.398655891418457,0.08864103257656097,0.048320092260837555,3.8437935426963414,0.8487697243690491,19,0.0,0.3413814306259155,0.0131983058527112,0.0,False,True,False,False,False,False,0.2642451822757721,0.00144948810338974,-0.001867612823843956,9.822922208968521e-08,-0.00034608005080372095,0.33106258511543274,0.0,0.0,-0.09101280570030212,0.29324373602867126,0.1380574107170105,0.2562529146671295,0.2373257875442505,0.2373257875442505,0.19718505442142487,1.0,0.19718505442142487,0.9850239753723145,False,0.014976024627685547
zero_steer,109,False,-2.5844459533691406,-0.03599416837096214,3.840273007066023,-1.3205881118774414,0.04884349927306175,-0.7219352722167969,0.08902864158153534,0.3310147821903229,0.22216682136058807,0.3310147821903229,0.0,6.6202956438064575,0.0,-0.009480738081037998,0.011581437662243843,0.0010503497906029224,-0.07344159483909607,0.02407677099108696,0.07026839256286621,4.415344199329832,4.41534423828125,0.08177696913480759,0.04884321987628937,3.840273433952846,0.8487697243690491,19,0.0,0.3499128818511963,0.013626828789710999,0.0,False,True,False,False,False,False,0.26435723900794983,0.0013657137751579285,-0.0018120730528607965,2.0807935641187214e-07,-0.0001518221979495138,0.3310147821903229,0.0,0.0,-0.09180199354887009,0.2943562865257263,0.1395520567893982,0.2560182213783264,0.23791848123073578,0.23791848123073578,0.19780893623828888,1.0,0.19780893623828888,0.9842483401298523,False,0.015751659870147705
