Su2050/forklift_sim/outputs/exp83_single_point_steer_diag/exp83_force_steering_guidance_v3_seed42_point_y0_yawpos4_normal_steps.csv
mode,step,done,root_x,root_y,root_yaw_deg,fork_center_x,fork_center_y,tip_x,tip_y,raw_drive,raw_steer,applied_drive,applied_steer,drive_target_rad_s,steer_target_rad,left_steer_joint_pos_rad,right_steer_joint_pos_rad,mean_steer_joint_pos_rad,root_y_signed_m,center_y_signed_m,tip_y_signed_m,yaw_err_signed_deg,yaw_err_abs_deg,d_traj_m,d_traj_signed_m,yaw_traj_signed_deg,traj_s_norm,traj_closest_idx,dist_front_m,insert_depth_m,pallet_disp_xy_m,hold_counter,inserted,push_free,hold_entry,clean_insert_ready,dirty_insert,success,policy_vx_r,policy_vy_r,policy_yaw_rate,policy_lift_pos,policy_lift_vel,policy_prev_drive,policy_prev_steer,policy_prev_lift,policy_y_err_obs,policy_yaw_err_obs,policy_d_traj_signed_obs,policy_yaw_traj_err_obs,steer_target_cmd,steer_target_abs,steer_guidance_gate,steer_enforce_gate,steer_penalty_gate,steer_match,steer_wrong_sign,steer_shortfall
normal,0,False,-3.5,0.0,3.9999995421277097,-2.2363834381103516,0.08836066722869873,-1.6378450393676758,0.13021454215049744,nan,nan,nan,nan,nan,nan,0.0,0.0,0.0,0.0,0.08836066722869873,0.13021454215049744,3.999999115240887,3.9999990463256836,0.0,0.0,6.173086552043443,0.0,0,0.5578449964523315,0.0,0.0,0.0,False,True,False,False,False,False,0.0,0.0,0.0,0.0,0.0,0.0,0.0,0.0,0.0,0.26666659116744995,0.0,0.41153910756111145,0.2725875973701477,0.2725875973701477,0.23430274426937103,0.0,0.0,0.7274124026298523,False,0.2725875973701477
normal,1,False,-3.4997663497924805,-0.00011661648750305176,3.9872462982868266,-2.2361302375793457,0.08796277642250061,-1.637582540512085,0.12968343496322632,0.3050156831741333,0.19141358137130737,0.3050156831741333,0.19141358137130737,6.100313663482666,0.11484814882278442,0.02518908865749836,0.0249480027705431,0.02506854571402073,-0.0001166144065791741,0.08796278387308121,0.1296834498643875,3.9872462982868266,3.98724627494812,0.000471622304758057,-0.00038797641173005104,6.1603324544289135,0.0,0,0.5575824975967407,0.0,6.125415552560298e-08,0.0,False,True,False,False,False,False,-0.0010017320746555924,0.0005301208002492785,-0.009069638326764107,0.0,4.598956002155319e-05,0.3050156831741333,0.19141358137130737,0.0,-0.00014576800458598882,0.26581642031669617,-0.0011085040168836713,0.4106888175010681,0.27154695987701416,0.27154695987701416,0.2332073450088501,0.0,0.0,0.9198666214942932,False,0.08013337850570679
normal,2,False,-3.499124050140381,-0.00027304142713546753,3.966614431238334,-2.2354562282562256,0.08735130727291107,-1.6368935108184814,0.12885642051696777,0.3346015214920044,0.22592110931873322,0.3346015214920044,0.22592110931873322,6.692030429840088,0.13555266559123993,0.05153125897049904,0.05108921602368355,0.05131023749709129,-0.0002730393607635051,0.08735131472349167,0.12885643541812897,3.966614431238334,3.9666144847869873,0.0013705932069569826,-0.0009734073537401855,6.139701014267244,0.0,0,0.5568934679031372,0.0,6.125415552560298e-08,0.0,False,True,False,False,False,False,-0.0020184582099318504,0.0007167718722485006,-0.012419233098626137,0.0,1.93636842595879e-05,0.3346015214920044,0.22592110931873322,0.0,-0.00034129919367842376,0.26444095373153687,-0.002781163901090622,0.4093134105205536,0.2699056565761566,0.2699056565761566,0.23147964477539062,0.0,0.0,0.9560154676437378,False,0.0439845472574234
normal,3,False,-3.4988958835601807,-0.0002938471734523773,3.9574180084077346,-2.2352142333984375,0.087127685546875,-1.636644721031189,0.12853673100471497,0.33845430612564087,0.23036189377307892,0.33845430612564087,0.23036189377307892,6.769086122512817,0.13821713626384735,0.061377253383398056,0.057373013347387314,0.059375133365392685,-0.0002938451070804149,0.0871276929974556,0.12853674590587616,3.9574180084077346,3.9574179649353027,0.0016992008313536644,-0.0011876770295202732,6.130504591436645,0.0,0,0.5566445589065552,0.0,6.125415552560298e-08,0.0,False,True,False,False,False,False,0.03146124258637428,-0.0012953102122992277,0.007548740599304438,0.0,-0.0004983997205272317,0.33845430612564087,0.23036189377307892,0.0,-0.000367306376574561,0.2638278603553772,-0.0033933629747480154,0.4087003171443939,0.2692282795906067,0.2692282795906067,0.23076662421226501,0.0,0.0,0.961133599281311,False,0.03886638581752777
normal,4,False,-3.4971110820770264,-0.00026381760835647583,3.9460760524041056,-2.233412027359009,0.08690756559371948,-1.6348344087600708,0.12819811701774597,0.33856910467147827,0.23041795194149017,0.33856910467147827,0.23041795194149017,6.771382093429565,0.1382507711648941,0.06630831211805344,0.06742445379495621,0.06686638295650482,-0.00026381551288068295,0.08690757304430008,0.12819813191890717,3.9460760524041056,3.9460761547088623,0.0033076859544962645,-0.0013392913388088346,6.119163489206661,0.0,0,0.554834246635437,0.0,6.125415552560298e-08,0.0,False,True,False,False,False,False,0.06094818189740181,-0.0027842153795063496,0.0017765711527317762,0.0,-0.0004261743160896003,0.33856910467147827,0.23041795194149017,0.0,-0.0003297693911008537,0.263071745634079,-0.0038265467155724764,0.4079442322254181,0.2684885561466217,0.2684885561466217,0.2299879640340805,0.0,0.0,0.9619293808937073,False,0.03807060420513153
normal,5,False,-3.4944024085998535,-1.7639249563217163e-05,3.9339789336103665,-2.230684995651245,0.08688691258430481,-1.63209867477417,0.12805108726024628,0.33868300914764404,0.23061002790927887,0.33868300914764404,0.23061002790927887,6.773660182952881,0.1383660167455673,0.07624588906764984,0.07027891278266907,0.07326240092515945,-1.750707633618731e-05,0.08688698709011078,0.12805114686489105,3.933976372289428,3.933976411819458,0.005885932128876448,-0.0012565305223688483,6.107066370412923,0.0,0,0.5520986318588257,0.0,3.641417123390056e-08,0.0,False,True,False,False,False,False,0.08992621302604675,-0.007618454750627279,-0.016298381611704826,2.2711680003340007e-07,0.009338166564702988,0.33868300914764404,0.23061002790927887,0.0,-2.1883844965486787e-05,0.26226508617401123,-0.003590087406337261,0.40713775157928467,0.2679596543312073,0.2679596543312073,0.22943122684955597,0.0,0.0,0.9626503586769104,False,0.037349626421928406
normal,6,False,-3.490633964538574,0.0002996288239955902,3.9242595744214386,-2.2269017696380615,0.08698982000350952,-1.6283085346221924,0.12805244326591492,0.33888065814971924,0.2309413105249405,0.33888065814971924,0.2309413105249405,6.777613162994385,0.1385647863149643,0.07793331891298294,0.07578204572200775,0.07685768604278564,0.0002999243442900479,0.08699002116918564,0.12805260717868805,3.9242553055532072,3.92425537109375,0.004812559578567743,-0.0022064042277634144,21.269530094310696,0.01185582671314478,1,0.5483087301254272,0.0,2.709583668547566e-07,0.0,False,True,False,False,False,False,0.12536035478115082,0.004801943898200989,-0.00558091327548027,1.003849661174172e-06,-2.00723297894001e-06,0.33888065814971924,0.2309413105249405,0.0,0.0003749054158106446,0.2616170048713684,-0.006304012145847082,1.0,0.4153987169265747,0.4153987169265747,0.3846302330493927,0.0,0.0,0.8155425786972046,False,0.18445740640163422
normal,7,False,-3.485931396484375,0.0006806850433349609,3.9111609791406465,-2.222179412841797,0.08708196878433228,-1.6235768795013428,0.12800775468349457,0.30765336751937866,0.19151130318641663,0.30765336751937866,0.19151130318641663,6.153067350387573,0.11490678191184997,0.07801646739244461,0.08422025293111801,0.08111836016178131,0.0006808420293964446,0.08708209544420242,0.12800787389278412,3.9111596984801773,3.9111597537994385,0.0007392542902380228,-0.0007107009878382087,21.256431499029905,0.01185582671314478,1,0.5435770750045776,0.0,2.522081388178776e-07,0.0,False,True,False,False,False,False,0.15334999561309814,0.00849178060889244,-0.00725972093641758,4.53811071565724e-06,-0.0003755277721211314,0.30765336751937866,0.19151130318641663,0.0,0.0008510525221936405,0.26074397563934326,-0.0020305742509663105,1.0,0.41591233015060425,0.41591233015060425,0.3851708769798279,0.0,0.0,0.7755990028381348,False,0.22440102696418762
normal,8,False,-3.480433225631714,0.001128368079662323,3.8959740535211234,-2.216658353805542,0.08719466626644135,-1.6180449724197388,0.12796178460121155,0.30354124307632446,0.18668204545974731,0.30354124307632446,0.18668204545974731,6.070824861526489,0.11200922727584839,0.07824572175741196,0.09057916700839996,0.08441244065761566,0.0011285690125077963,0.08719482272863388,0.1279619187116623,3.8959719190870077,3.8959720134735107,0.005538706202059984,0.0010427108500152826,21.24124457341038,0.01185582671314478,1,0.5380451679229736,0.0,2.779334522529098e-07,0.0,False,True,False,False,False,False,0.17547395825386047,0.009674716740846634,-0.00822525005787611,3.830940386251314e-06,1.638603862375021e-06,0.30354124307632446,0.18668204545974731,0.0,0.0014107113238424063,0.2597314715385437,0.0029791740234941244,1.0,0.4165220856666565,0.4165220856666565,0.3858127295970917,0.0,0.0,0.7701599597930908,False,0.22984004020690918
normal,9,False,-3.474470615386963,0.00163283571600914,3.8806022859071865,-2.2106728553771973,0.08736009895801544,-1.6120483875274658,0.12796661257743835,0.30310171842575073,0.1861530840396881,0.30310171842575073,0.1861530840396881,6.062034368515015,0.11169185042381287,0.07945611327886581,0.09323219209909439,0.0863441526889801,0.0016329374630004168,0.0873601883649826,0.12796670198440552,3.8806018590203633,3.8806018829345703,0.003050171537324786,0.002674500923603773,38.10229224718617,0.021627316251397133,2,0.5320485830307007,0.0,2.505702525468223e-07,0.0,False,True,False,False,False,False,0.19178152084350586,0.01679125800728798,-0.017690341919660568,8.776994036452379e-06,0.004072312265634537,0.30310171842575073,0.1861530840396881,0.0,0.00204117177054286,0.2587067782878876,0.007641431409865618,1.0,0.4170864522457123,0.4170864522457123,0.3864067792892456,0.0,0.0,0.7690666317939758,False,0.23093336820602417
normal,10,False,-3.467684507369995,0.0021865293383598328,3.8619328175846026,-2.2038588523864746,0.08750196546316147,-1.6052212715148926,0.12791341543197632,0.3034283518791199,0.1863906979560852,0.3034283518791199,0.1863906979560852,6.0685670375823975,0.11183441877365112,0.08137013763189316,0.09766687452793121,0.08951850235462189,0.0021866916213184595,0.08750209957361221,0.12791353464126587,3.8619315369241334,3.861931562423706,0.00778434332460165,0.006623602472245693,38.08362192508994,0.021627316251397133,2,0.5252214670181274,0.0,2.8111364258620597e-07,0.0,False,True,False,False,False,False,0.20858080685138702,0.011762898415327072,-0.012336435727775097,2.0105075293486152e-07,-0.00023580901324748993,0.3034283518791199,0.1863906979560852,0.0,0.0027333644684404135,0.25746211409568787,0.01892457902431488,1.0,0.41886278986930847,0.41886278986930847,0.3882766366004944,0.0,0.0,0.7675279378890991,False,0.23247209191322327
normal,11,False,-3.4605884552001953,0.002775125205516815,3.8388361060193814,-2.196728467941284,0.087581105530262,-1.5980746746063232,0.12775123119354248,0.3035733103752136,0.18654510378837585,0.3035733103752136,0.18654510378837585,6.0714662075042725,0.11192706227302551,0.08352691680192947,0.0990048497915268,0.09126588702201843,0.002775267232209444,0.08758122473955154,0.12775135040283203,3.8388352522457354,3.8388352394104004,0.0107170594856143,0.010184271261096,52.931193010795795,0.0304144024848938,3,0.5180748701095581,0.0,2.5452956720073416e-07,0.0,False,True,False,False,False,False,0.22006627917289734,0.014135632663965225,-0.01291090901941061,5.94564789935248e-06,3.974279388785362e-05,0.3035733103752136,0.18654510378837585,0.0,0.0034690839238464832,0.2559223473072052,0.029097918421030045,1.0,0.4202490746974945,0.4202490746974945,0.3897358775138855,0.0,0.0,0.7662960290908813,False,0.23370397090911865
normal,12,False,-3.453183174133301,0.003406200557947159,3.8128540664166533,-2.1892848014831543,0.08763903379440308,-1.5906128883361816,0.12753768265247345,0.3037702441215515,0.186798557639122,0.3037702441215515,0.186798557639122,6.07540488243103,0.1120791345834732,0.08593688905239105,0.1006678119301796,0.09330235421657562,0.003406380070373416,0.08763917535543442,0.127537801861763,3.8128523588693604,3.812852382659912,0.015919359400868416,0.015847330912947655,52.905210971193064,0.0304144024848938,3,0.5106130838394165,0.0,2.780449221972958e-07,0.0,False,True,False,False,False,False,0.22844859957695007,0.012067696079611778,-0.010695752687752247,4.883715064352145e-06,-0.0027508940547704697,0.3037702441215515,0.186798557639122,0.0,0.004257975146174431,0.2541901469230652,0.04527809098362923,1.0,0.4227381944656372,0.4227381944656372,0.3923560082912445,0.0,0.0,0.764060378074646,False,0.2359396368265152
normal,13,False,-3.4454259872436523,0.004056695848703384,3.789122574145444,-2.181492805480957,0.08776603639125824,-1.5828044414520264,0.1274167150259018,0.30377766489982605,0.18698561191558838,0.30377766489982605,0.18698561191558838,6.075553297996521,0.11219136714935303,0.08722708374261856,0.10319963097572327,0.09521335363388062,0.004056842066347599,0.08776616305112839,0.12741683423519135,3.7891212934849743,3.789121389389038,0.022162815555930138,0.020749228075146675,63.36481240198885,0.039061952382326126,4,0.5028046369552612,0.0,2.552171451952745e-07,0.0,False,True,False,False,False,False,0.2366788685321808,0.01293269358575344,-0.013073991052806377,2.3632990632904693e-05,-0.0009124017087742686,0.30377766489982605,0.18698561191558838,0.0,0.005071052350103855,0.2526080906391144,0.059283509850502014,1.0,0.42489880323410034,0.42489880323410034,0.3946303129196167,0.0,0.0,0.762086808681488,False,0.23791319131851196
normal,14,False,-3.4375410079956055,0.00469309464097023,3.7645437115303295,-2.173572063446045,0.08786021918058395,-1.5748666524887085,0.12725406885147095,0.3041163980960846,0.18733404576778412,0.3041163980960846,0.18733404576778412,6.082327961921692,0.11240042746067047,0.08758100867271423,0.10674543678760529,0.09716322273015976,0.004693262279033661,0.0878603458404541,0.1272541731595993,3.7645415770962143,3.7645416259765625,0.02789633348584175,0.02762632630765438,63.34023055116598,0.039061952382326126,4,0.49486684799194336,0.0,2.7484847464620543e-07,0.0,False,True,False,False,False,False,0.2434954196214676,0.013125227764248848,-0.010632413439452648,3.244832441851031e-06,-0.0021334390621632338,0.3041163980960846,0.18733404576778412,0.0,0.005866577848792076,0.25096943974494934,0.07893235981464386,1.0,0.4281441569328308,0.4281441569328308,0.39804649353027344,0.0,0.0,0.7591899037361145,False,0.2408101111650467
normal,15,False,-3.429248571395874,0.005316730588674545,3.7344968555977975,-2.165236234664917,0.08782099187374115,-1.5665103197097778,0.12690086662769318,0.30428293347358704,0.18746867775917053,0.30428293347358704,0.18746867775917053,6.085658669471741,0.11248120665550232,0.08959344774484634,0.10799892991781235,0.09879618883132935,0.005316812079399824,0.08782108873128891,0.12690097093582153,3.7344968555977975,3.734496831893921,0.03479933738708496,0.03479376807808876,63.31018454900709,0.039061952382326126,4,0.4865105152130127,0.0,2.65319272330089e-07,0.0,False,True,False,False,False,False,0.2485753893852234,0.015617664903402328,-0.017953991889953613,9.568947280058637e-05,-0.01096710842102766,0.30428293347358704,0.18746867775917053,0.0,0.006646015215665102,0.24896645545959473,0.0994107648730278,1.0,0.43131643533706665,0.43131643533706665,0.40138572454452515,0.0,0.0,0.7561522722244263,False,0.24384775757789612
normal,16,False,-3.421164035797119,0.0059643760323524475,3.7082040423878335,-2.157114028930664,0.08788857609033585,-1.5583701133728027,0.1266936957836151,0.3048812448978424,0.18823106586933136,0.3048812448978424,0.18823106586933136,6.097624897956848,0.11293863952159881,0.09046650677919388,0.1089216098189354,0.09969405829906464,0.005964290350675583,0.08788853883743286,0.12669368088245392,3.7082061768219488,3.7082061767578125,0.04207170382142067,0.04183110222220421,63.28389515089171,0.039061952382326126,4,0.4783703088760376,0.0,3.023760086762195e-07,0.0,False,True,False,False,False,False,0.25142502784729004,0.008171062916517258,-0.014270725660026073,0.0,0.00017645652405917645,0.3048812448978424,0.18823106586933136,0.0,0.007455362938344479,0.24721373617649078,0.11951743811368942,1.0,0.4345869719982147,0.4345869719982147,0.40482839941978455,0.0,0.0,0.7536441087722778,False,0.24635590612888336
normal,17,False,-3.4127888679504395,0.006651148200035095,3.678873929431329,-2.1486971378326416,0.08792826533317566,-1.5499334335327148,0.12642687559127808,0.304705411195755,0.18808677792549133,0.304705411195755,0.18808677792549133,6.0941082239151,0.1128520667552948,0.09161479771137238,0.10925781726837158,0.10043630748987198,0.006651129573583603,0.08792829513549805,0.12642692029476166,3.6788760638654447,3.6788761615753174,0.04915479198098183,0.04863504692912102,69.19544436810526,0.047984909266233444,5,0.4699336290359497,0.0,2.6036056510747585e-07,0.0,False,True,False,False,False,False,0.25367382168769836,0.007482342422008514,-0.014679617248475552,2.3026539565762505e-05,-0.0012092035030946136,0.304705411195755,0.18808677792549133,0.0,0.008313911966979504,0.2452584058046341,0.13895727694034576,1.0,0.4376174211502075,0.4376174211502075,0.4080183506011963,0.0,0.0,0.7504693269729614,False,0.2495306432247162
normal,18,False,-3.4037857055664062,0.007218074053525925,3.6394466624474306,-2.1396381855010986,0.08762529492378235,-1.5408482551574707,0.12571187317371368,0.30499809980392456,0.18823203444480896,0.30499809980392456,0.18823203444480896,6.099961996078491,0.11293922066688537,0.0937422662973404,0.11000630259513855,0.10187428444623947,0.007218174170702696,0.08762538433074951,0.12571196258068085,3.6394462355606074,3.639446258544922,0.0568411760032177,0.05675313621759415,69.15601368602677,0.047984909266233444,5,0.46084845066070557,0.0,2.7648056288853695e-07,0.0,False,True,False,False,False,False,0.25777000188827515,0.0044719986617565155,-0.02515784651041031,0.0004245543968863785,-0.04078822210431099,0.30499809980392456,0.18823203444480896,0.0,0.009022717364132404,0.2426297515630722,0.16215182840824127,1.0,0.4409030079841614,0.4409030079841614,0.41147685050964355,0.0,0.0,0.7473289966583252,False,0.2526709735393524
normal,19,False,-3.395658016204834,0.00769168883562088,3.601562591329132,-2.131457805633545,0.08726304769515991,-1.5326427221298218,0.12495368719100952,0.3064078092575073,0.18972258269786835,0.3064078092575073,0.18972258269786835,6.1281561851501465,0.113833549618721,0.09518375992774963,0.11114540696144104,0.10316458344459534,0.0076917908154428005,0.08726313710212708,0.12495376914739609,3.6015621644423086,3.601562261581421,0.06405623257160187,0.06404716521501541,69.11813345688988,0.047984909266233444,5,0.4526430368423462,0.0,3.0505341896969185e-07,0.0,False,True,False,False,False,False,0.26229992508888245,0.012333584949374199,-0.016518346965312958,3.1077648600330576e-05,0.0004926011897623539,0.3064078092575073,0.18972258269786835,0.0,0.009614738635718822,0.24010413885116577,0.1829919070005417,1.0,0.44373077154159546,0.44373077154159546,0.4144534468650818,0.0,0.0,0.7459918260574341,False,0.2540081739425659
normal,20,False,-3.387054920196533,0.008364725857973099,3.571013929936015,-2.122812271118164,0.08726203441619873,-1.523977279663086,0.12463340163230896,0.30585914850234985,0.1891750991344452,0.30585914850234985,0.1891750991344452,6.117182970046997,0.11350505948066711,0.09630356729030609,0.11261600255966187,0.10445978492498398,0.008364641107618809,0.08726200461387634,0.12463340163230896,3.571016277813542,3.571016311645508,0.07204519957304001,0.0719141736626625,69.08758202073241,0.047984909266233444,5,0.4439774751663208,0.0,1.9090890646111802e-07,0.0,False,True,False,False,False,False,0.2643668055534363,0.01401812769472599,-0.01617450639605522,4.391289394334308e-07,-0.00041008886182680726,0.30585914850234985,0.1891750991344452,0.0,0.010455801151692867,0.23806774616241455,0.2054690718650818,1.0,0.4473091661930084,0.4473091661930084,0.418220192193985,0.0,0.0,0.7418659329414368,False,0.25813406705856323
normal,21,False,-3.378295660018921,0.009059153497219086,3.540963872352309,-2.114011764526367,0.08729339390993118,-1.5151572227478027,0.12435068190097809,0.3061484694480896,0.18947021663188934,0.3061484694480896,0.18947021663188934,6.122969388961792,0.1136821299791336,0.09671130776405334,0.11429914087057114,0.10550522804260254,0.009058911353349686,0.08729328960180283,0.1243506371974945,3.540969848767833,3.5409698486328125,0.08000887930393219,0.07977528870105743,71.0416240101922,0.057234663516283035,6,0.4351574182510376,0.0,2.923307249602658e-07,0.0,False,True,False,False,False,False,0.26651731133461,0.0216372087597847,-0.02002611570060253,3.0485261959256604e-07,0.0002056414814433083,0.3061484694480896,0.18947021663188934,0.0,0.011323639191687107,0.23606465756893158,0.22792939841747284,1.0,0.45091745257377625,0.45091745257377625,0.4220183789730072,0.0,0.0,0.7385527491569519,False,0.2614472508430481
normal,22,False,-3.369443893432617,0.00975639745593071,3.5094961236290025,-2.1051173210144043,0.0872962474822998,-1.5062425136566162,0.12402462959289551,0.30654823780059814,0.18992622196674347,0.30654823780059814,0.18992622196674347,6.130964756011963,0.11395573318004608,0.09776138514280319,0.11524403840303421,0.1065027117729187,0.009756112471222878,0.08729611337184906,0.12402456253767014,3.509502740374761,3.50950288772583,0.08803973346948624,0.0879930928349495,71.01015732868595,0.057234663516283035,6,0.4262427091598511,0.0,2.865018586817314e-07,0.0,False,True,False,False,False,False,0.2669982612133026,0.017656177282333374,-0.01305396482348442,2.2643967895419337e-05,-0.001269979984499514,0.30654823780059814,0.18992622196674347,0.0,0.01219514012336731,0.23396684229373932,0.2514088451862335,1.0,0.45467090606689453,0.45467090606689453,0.4259693920612335,0.0,0.0,0.7352553009986877,False,0.26474469900131226
normal,23,False,-3.3607516288757324,0.01042960211634636,3.4810400614428487,-2.096386671066284,0.08734151721000671,-1.4974937438964844,0.12377245724201202,0.30660581588745117,0.18997390568256378,0.30660581588745117,0.18997390568256378,6.132116317749023,0.11398434340953827,0.10029273480176926,0.11712031811475754,0.1087065264582634,0.010429664514958858,0.08734159171581268,0.123772531747818,3.48104027488626,3.4810402393341064,0.09358634799718857,0.0,3.4810400614428487,0.12531575560569763,13,0.41749393939971924,0.0,3.083605122355948e-07,0.0,False,True,False,False,False,False,0.2619311511516571,0.011013902723789215,-0.012057345360517502,2.3359839360637125e-06,-0.0018470004433766007,0.30660581588745117,0.18997390568256378,0.0,0.013037080876529217,0.23206934332847595,0.0,0.23206932842731476,0.21157817542552948,0.21157817542552948,0.17008230090141296,0.0,0.0,0.9783957004547119,False,0.021604269742965698
normal,24,False,-3.3519535064697266,0.01113065890967846,3.44714930311148,-2.087543249130249,0.08729469776153564,-1.48862886428833,0.12337138503789902,0.3455452024936676,0.23953579366207123,0.3455452024936676,0.23953579366207123,6.910904049873352,0.14372147619724274,0.10528022795915604,0.11961515992879868,0.11244769394397736,0.011130713857710361,0.08729475736618042,0.12337144464254379,3.4471495165548918,3.4471495151519775,0.09707187861204147,0.0,3.44714930311148,0.12531575560569763,13,0.40862905979156494,0.0,2.7732281182579754e-07,0.0,False,True,False,False,False,False,0.262746125459671,0.013408739119768143,-0.018396694213151932,0.0,0.018838025629520416,0.3455452024936676,0.23953579366207123,0.0,0.013913392089307308,0.22980996966362,0.0,0.2298099547624588,0.20997026562690735,0.20997026562690735,0.16838976740837097,0.0,0.0,0.9704344868659973,False,0.0
normal,25,False,-3.343113899230957,0.011822238564491272,3.4179429873336824,-2.078665018081665,0.08734172582626343,-1.4797322750091553,0.12311311811208725,0.35025298595428467,0.24519003927707672,0.35025298595428467,0.24519003927707672,7.005059719085693,0.14711402356624603,0.11008166521787643,0.12439023703336716,0.1172359511256218,0.011822106316685677,0.08734168112277985,0.12311311811208725,3.417947042758502,3.4179470539093018,0.10131075978279114,0.0,3.4179429873336824,0.12531575560569763,13,0.39973247051239014,0.0,2.3392757952933607e-07,0.0,False,True,False,False,False,False,0.2654884159564972,0.009282045066356659,0.009120509959757328,1.6988096831482835e-05,0.004222366027534008,0.35025298595428467,0.24519003927707672,0.0,0.014777632430195808,0.2278631329536438,0.0,0.2278628647327423,0.20863381028175354,0.20863381028175354,0.166982963681221,0.0,0.0,0.9634437561035156,False,0.0
normal,26,False,-3.3343019485473633,0.01251237466931343,3.38170819345653,-2.06980562210083,0.08723218739032745,-1.4708503484725952,0.12262479960918427,0.35054004192352295,0.2456730455160141,0.35054004192352295,0.2456730455160141,7.010800838470459,0.14740382730960847,0.11233804374933243,0.12878702580928802,0.12056253850460052,0.01251242496073246,0.08723225444555283,0.12262487411499023,3.3817088337867647,3.381708860397339,0.10598505288362503,0.0,3.38170819345653,0.12531575560569763,13,0.39085066318511963,0.0,3.398309047497605e-07,0.0,False,True,False,False,False,False,0.2659118175506592,0.011104774661362171,-0.019951943308115005,0.0,-0.0009016855619847775,0.35054004192352295,0.2456730455160141,0.0,0.015640530735254288,0.22544725239276886,0.0,0.22544720768928528,0.20688119530677795,0.20688119530677795,0.1651381105184555,0.0,0.0,0.961208164691925,False,0.0
normal,27,False,-3.325839042663574,0.013136189430952072,3.347357678016655,-2.061298131942749,0.0870978832244873,-1.4623217582702637,0.12213139235973358,0.35147351026535034,0.246806338429451,0.35147351026535034,0.246806338429451,7.029470205307007,0.14808380305767058,0.11607524752616882,0.1308836191892624,0.1234794333577156,0.013136057183146477,0.08709783852100372,0.12213139235973358,3.3473617334414745,3.3473618030548096,0.11093243211507797,0.0,3.347357678016655,0.12531575560569763,13,0.38232195377349854,0.0,2.32907368058477e-07,0.0,False,True,False,False,False,False,0.2680710256099701,0.025244105607271194,-0.02033158764243126,0.0,-0.007546598091721535,0.35147351026535034,0.246806338429451,0.0,0.016420071944594383,0.22315745055675507,0.0,0.22315718233585358,0.20520266890525818,0.20520266890525818,0.1633712351322174,0.0,0.0,0.958396315574646,False,0.0
normal,28,False,-3.316661834716797,0.013888668268918991,3.3026058516879084,-2.052063465118408,0.08686265349388123,-1.4530600309371948,0.12142831087112427,0.3521586060523987,0.2475350797176361,0.3521586060523987,0.2475350797176361,7.043172121047974,0.14852104783058165,0.11915704607963562,0.13360345363616943,0.12638024985790253,0.01388871856033802,0.0868627205491066,0.12142838537693024,3.302606492018143,3.3026065826416016,0.11670150607824326,0.0,3.3026058516879084,0.12531575560569763,13,0.37306034564971924,0.0,3.392298992821452e-07,0.0,False,True,False,False,False,False,0.26683560013771057,0.0185704305768013,-0.020384175702929497,1.5765607486173394e-07,0.0006266179261729121,0.3521586060523987,0.2475350797176361,0.0,0.017360897734761238,0.22017376124858856,0.0,0.22017371654510498,0.20298190414905548,0.20298190414905548,0.16103358566761017,0.0,0.0,0.9554468393325806,False,0.0
normal,29,False,-3.307827949523926,0.014549273997545242,3.2753160443025338,-2.0431950092315674,0.08692092448472977,-1.4441750049591064,0.1212012767791748,0.35223567485809326,0.2477126270532608,0.35223567485809326,0.2477126270532608,7.044713497161865,0.14862757623195647,0.12203732132911682,0.13554729521274567,0.12879231572151184,0.014549138024449348,0.08692087978124619,0.12120126932859421,3.2753200997273537,3.275320053100586,0.12284287810325623,0.0,3.2753160443025338,0.12531575560569763,13,0.3641752004623413,0.0,2.3016173145151697e-07,0.0,False,True,False,False,False,False,0.2631693184375763,0.02944645658135414,-0.012550435028970242,0.00013064025552012026,-0.002420213306322694,0.35223567485809326,0.2477126270532608,0.0,0.018186422064900398,0.21835467219352722,0.0,0.21835440397262573,0.20174118876457214,0.20174118876457214,0.1597275733947754,0.0,0.0,0.9540285468101501,False,0.0
normal,30,False,-3.2988572120666504,0.015177091583609581,3.2308359314367068,-2.0341684818267822,0.08656696230173111,-1.4351221323013306,0.12038227170705795,0.3524368405342102,0.2479477971792221,0.3524368405342102,0.2479477971792221,7.048736810684204,0.14876867830753326,0.12473948299884796,0.13754524290561676,0.13114236295223236,0.01517703477293253,0.08656695485115051,0.12038228660821915,3.230838279314234,3.2308382987976074,0.11730925738811493,0.08656647056341171,3.2308359314367068,0.27109628915786743,15,0.35512232780456543,0.0,2.503552423149813e-07,0.0,False,True,False,False,False,False,0.2731192409992218,0.014226807281374931,-0.010095414705574512,0.0002520613488741219,-0.0012132060946896672,0.3524368405342102,0.2479477971792221,0.0,0.018971294164657593,0.215389221906662,0.24733278155326843,0.21538905799388885,0.248932883143425,0.248932883143425,0.20940305292606354,0.0,0.0,0.9990149140357971,False,0.0009850859642028809
normal,31,False,-3.289849042892456,0.015917018055915833,3.1919555064732323,-2.0251121520996094,0.08644866943359375,-1.426042914390564,0.11985746026039124,0.35347920656204224,0.24899764358997345,0.35347920656204224,0.24899764358997345,7.069584131240845,0.14939858615398408,0.12581568956375122,0.14061371982097626,0.13321471214294434,0.015916889533400536,0.08644863218069077,0.11985746771097183,3.191959561898052,3.1919596195220947,0.11130616813898087,0.08644817769527435,3.1919555064732323,0.27109628915786743,15,0.34604310989379883,0.0,2.3184614406090986e-07,0.0,False,True,False,False,False,False,0.26992177963256836,0.028289014473557472,-0.028438810259103775,0.00018997536972165108,-0.0038547744043171406,0.35347920656204224,0.24899764358997345,0.0,0.019896112382411957,0.21279729902744293,0.24699479341506958,0.21279703080654144,0.2469843626022339,0.2469843626022339,0.20735196769237518,0.02637922763824463,0.00546978460624814,0.9979867339134216,False,0.0
normal,32,False,-3.2810778617858887,0.016570065170526505,3.1506621037420395,-2.0162904262542725,0.08619019389152527,-1.417197346687317,0.11916722357273102,0.354378342628479,0.25005871057510376,0.354378342628479,0.25005871057510376,7.08756685256958,0.15003522634506225,0.1261327564716339,0.14262676239013672,0.13437975943088531,0.016569964587688446,0.08619014918804169,0.11916720867156982,3.1506648785063898,3.150664806365967,0.10576032102108002,0.08618970215320587,3.1506621037420395,0.27109628915786743,15,0.3371976613998413,0.0,3.0263763051152637e-07,0.0,False,True,False,False,False,False,0.27147340774536133,0.019371235743165016,-0.024049388244748116,0.0,0.005238226614892483,0.354378342628479,0.25005871057510376,0.0,0.020712455734610558,0.21004432439804077,0.2462562918663025,0.21004414558410645,0.24476419389247894,0.24476419389247894,0.20501494407653809,0.08534888178110123,0.017497796565294266,0.9947054982185364,False,0.0
normal,33,False,-3.272235155105591,0.01723860576748848,3.1092583507670684,-2.0073976516723633,0.08594473451375961,-1.4082809686660767,0.11848883330821991,0.3542487621307373,0.2499435395002365,0.3542487621307373,0.2499435395002365,7.084975242614746,0.1499661237001419,0.12750495970249176,0.14425696432590485,0.1358809620141983,0.017238657921552658,0.08594479411840439,0.11848889291286469,3.1092585642104797,3.1092586517333984,0.10065780580043793,0.08594424277544022,3.1092583507670684,0.27109628915786743,15,0.3282811641693115,0.0,2.765956992334395e-07,0.0,False,True,False,False,False,False,0.27172350883483887,0.026780344545841217,-0.02180783823132515,2.0341381059552077e-06,0.0002288290997967124,0.3542487621307373,0.2499435395002365,0.0,0.021548323333263397,0.2072838991880417,0.24555498361587524,0.2072838842868805,0.24255365133285522,0.24255365133285522,0.202688068151474,0.14479219913482666,0.029347650706768036,0.9926100969314575,False,0.0
normal,34,False,-3.262993335723877,0.01779928430914879,3.065891558735953,-1.9981043338775635,0.0855480432510376,-1.3989630937576294,0.11763866245746613,0.3545830249786377,0.2503132224082947,0.3545830249786377,0.2503132224082947,7.091660499572754,0.1501879334449768,0.13072270154953003,0.1459578424692154,0.13834026455879211,0.017799342051148415,0.08554811030626297,0.1176387369632721,3.065892199066188,3.065892219543457,0.0957937240600586,0.0855475515127182,3.065891558735953,0.27109628915786743,15,0.31896328926086426,0.0,2.5574266260264267e-07,0.0,False,True,False,False,False,False,0.26893290877342224,0.029847759753465652,-0.04695749282836914,1.712418998067733e-05,0.014636855572462082,0.3545830249786377,0.2503132224082947,0.0,0.02224917709827423,0.20439280569553375,0.24442158639431,0.20439277589321136,0.2400800883769989,0.2400800883769989,0.20008431375026703,0.2069113552570343,0.04139971733093262,0.9897668361663818,False,0.0
normal,35,False,-3.2536678314208984,0.018275033682584763,3.0120393591118106,-1.988715648651123,0.08483490347862244,-1.3895444869995117,0.11636237800121307,0.35502517223358154,0.2510005831718445,0.35502517223358154,0.2510005831718445,7.100503444671631,0.1506003499031067,0.1327456831932068,0.14748640358448029,0.14011603593826294,0.018275057896971703,0.08483493328094482,0.11636241525411606,3.0120399994420457,3.012040138244629,0.09128907322883606,0.08483441919088364,3.0120393591118106,0.27109628915786743,15,0.30954456329345703,0.0,1.5911719231098687e-07,0.0,False,True,False,False,False,False,0.2732963562011719,0.026690978556871414,-0.025048676878213882,0.0002839139197021723,-0.007732115685939789,0.35502517223358154,0.2510005831718445,0.0,0.022843822836875916,0.20080266892910004,0.24238406121730804,0.20080262422561646,0.23675832152366638,0.23675832152366638,0.1965877115726471,0.26970285177230835,0.05302026495337486,0.9857577085494995,False,0.0
normal,36,False,-3.2450249195098877,0.01885865442454815,2.9680753524151426,-1.9800220727920532,0.08444788306951523,-1.3808269500732422,0.11551559716463089,0.3551383912563324,0.2512472867965698,0.3551383912563324,0.2512472867965698,7.102767825126648,0.1507483720779419,0.13344359397888184,0.14876799285411835,0.1411058008670807,0.018858488649129868,0.08444781601428986,0.1155155748128891,2.968079621283374,2.9680795669555664,0.08807690441608429,0.08444739878177643,2.9680753524151426,0.27109628915786743,15,0.30082714557647705,0.0,2.2321775361433538e-07,0.0,False,True,False,False,False,False,0.27498117089271545,0.021089885383844376,-0.022425612434744835,2.8397374762789696e-07,5.185510417504702e-06,0.3551383912563324,0.2512472867965698,0.0,0.02357311174273491,0.19787196815013885,0.2412782907485962,0.19787168502807617,0.23426786065101624,0.23426786065101624,0.19396618008613586,0.32781898975372314,0.0635857954621315,0.983020544052124,False,0.0
normal,37,False,-3.236107587814331,0.019532585516572,2.923314988349934,-1.9710538387298584,0.08413355052471161,-1.371834635734558,0.11473315954208374,0.3551815152168274,0.2512178421020508,0.3551815152168274,0.2512178421020508,7.103630304336548,0.15073070526123047,0.13519400358200073,0.1502774953842163,0.14273574948310852,0.019532619044184685,0.08413360267877579,0.11473321914672852,2.9233156286801685,2.9233157634735107,0.0856514722108841,0.08413306623697281,2.923314988349934,0.27109628915786743,15,0.2918349504470825,0.0,3.0746736001674435e-07,0.0,False,True,False,False,False,False,0.2737170159816742,0.022499380633234978,-0.021186845377087593,6.912918024681858e-07,-1.727431663312018e-05,0.3551815152168274,0.2512178421020508,0.0,0.024415774270892143,0.19488771259784698,0.240380197763443,0.1948876678943634,0.23182255029678345,0.23182255029678345,0.19139216840267181,0.38776695728302,0.07421556115150452,0.9806047081947327,False,0.0
normal,38,False,-3.22678279876709,0.020216353237628937,2.8773988282111116,-1.9616777896881104,0.08380349725484848,-1.3624341487884521,0.11392288655042648,0.355355829000473,0.2515726685523987,0.355355829000473,0.2515726685523987,7.1071165800094604,0.1509436011314392,0.13618215918540955,0.15143698453903198,0.14380957186222076,0.020216403529047966,0.08380355685949326,0.11392294615507126,2.8773988282111116,2.87739896774292,0.08406911790370941,0.08380302041769028,2.8773986147676998,0.27109628915786743,15,0.282434344291687,0.0,2.765935107618134e-07,0.0,False,True,False,False,False,False,0.2738126218318939,0.01227132324129343,-0.023686006665229797,4.670896305469796e-05,-0.0036431518383324146,0.355355829000473,0.2515726685523987,0.0,0.025270504876971245,0.19182658195495605,0.23943720757961273,0.19182656705379486,0.22930555045604706,0.22930555045604706,0.18874269723892212,0.45043766498565674,0.08501681685447693,0.9777328968048096,False,0.0
normal,39,False,-3.2177963256835938,0.02082965150475502,2.8443294001274366,-1.9526548385620117,0.08368660509586334,-1.3533939123153687,0.11346012353897095,0.3556893765926361,0.251883864402771,0.3556893765926361,0.251883864402771,7.113787531852722,0.1511303186416626,0.13752712309360504,0.15213622152805328,0.14483167231082916,0.02082950249314308,0.08368655294179916,0.11346012353897095,2.84433388243908,2.8443338871002197,0.08371946215629578,0.08368612825870514,2.8443294001274366,0.27109628915786743,15,0.2733941078186035,0.0,2.3430560247561516e-07,0.0,False,True,False,False,False,False,0.2711195647716522,0.019446132704615593,-0.022231917828321457,1.7450114683015272e-05,-0.007091996725648642,0.3556893765926361,0.251883864402771,0.0,0.026036877185106277,0.18962225317955017,0.23910322785377502,0.1896219551563263,0.22762984037399292,0.22762984037399292,0.1869787871837616,0.5107058882713318,0.09549117088317871,0.9757459759712219,False,0.0
normal,40,False,-3.209019660949707,0.021605651825666428,2.8051915624096173,-1.9438354969024658,0.08359839767217636,-1.3445544242858887,0.11296255886554718,0.35599130392074585,0.25227493047714233,0.35599130392074585,0.25227493047714233,7.119826078414917,0.1513649582862854,0.13928668200969696,0.15352442860603333,0.14640554785728455,0.021605568006634712,0.08359837532043457,0.11296256631612778,2.805194337173968,2.80519437789917,0.08434063196182251,0.08359792083501816,2.8051915624096173,0.27109628915786743,15,0.26455461978912354,0.0,2.4998652747854067e-07,0.0,False,True,False,False,False,False,0.27012985944747925,0.005583344027400017,-0.024602700024843216,1.05211461232102e-06,0.0010640611872076988,0.35599130392074585,0.25227493047714233,0.0,0.027006959542632103,0.1870129555463791,0.23885120451450348,0.18701276183128357,0.22570335865020752,0.22570335865020752,0.18495091795921326,0.569635808467865,0.1053546667098999,0.9734284281730652,False,0.0
normal,41,False,-3.2000203132629395,0.022200925275683403,2.7598568221238926,-1.9347875118255615,0.08319258689880371,-1.335483431816101,0.11208256334066391,0.3558976352214813,0.2522224187850952,0.3558976352214813,0.2522224187850952,7.1179527044296265,0.15133345127105713,0.14075832068920135,0.15496112406253815,0.14785972237586975,0.022200820967555046,0.08319255709648132,0.1120825782418251,2.7598602372184775,2.7598602771759033,0.08561283349990845,0.08319211006164551,2.7598568221238926,0.27109628915786743,15,0.25548362731933594,0.0,2.3121053516206302e-07,0.0,False,True,False,False,False,False,0.2718693017959595,0.024400785565376282,-0.02527919039130211,2.4787582333374303e-06,0.0004496488254517317,0.3558976352214813,0.2522224187850952,0.0,0.027751026675105095,0.1839906871318817,0.2376917451620102,0.1839904487133026,0.2231275737285614,0.2231275737285614,0.1822395622730255,0.6301090717315674,0.11483079940080643,0.9709051847457886,False,0.0
normal,42,False,-3.1910018920898438,0.02283426560461521,2.712674729111091,-1.9257192611694336,0.082784004509449,-1.326391577720642,0.11118045449256897,0.356346994638443,0.2527579665184021,0.356346994638443,0.2527579665184021,7.12693989276886,0.15165477991104126,0.14181338250637054,0.1557627022266388,0.14878803491592407,0.022834310308098793,0.08278406411409378,0.11118052154779434,2.7126751559979136,2.712675094604492,0.08780980855226517,0.0827835276722908,2.712674515667679,0.27109628915786743,15,0.2463918924331665,0.0,3.3811372190939437e-07,0.0,False,True,False,False,False,False,0.27196893095970154,0.018265513703227043,-0.02305406890809536,5.49466813026811e-06,-0.0017600433202460408,0.356346994638443,0.2527579665184021,0.0,0.028542887419462204,0.1808450073003769,0.23652437329292297,0.1808449625968933,0.2204623967409134,0.2204623967409134,0.17943410575389862,0.6907206773757935,0.12393884360790253,0.9677044153213501,False,0.0
normal,43,False,-3.1815075874328613,0.023600444197654724,2.6670565359748104,-1.9161776304244995,0.08254276216030121,-1.3168275356292725,0.11046203225851059,0.356568306684494,0.2530466318130493,0.356568306684494,0.2530466318130493,7.13136613368988,0.15182797908782958,0.14315658807754517,0.15729030966758728,0.15022344887256622,0.023600321263074875,0.08254273235797882,0.11046204715967178,2.66706059139963,2.667060613632202,0.09121675789356232,0.0825422927737236,2.6670565359748104,0.27109628915786743,15,0.23682773113250732,0.0,2.3200786358756886e-07,0.0,False,True,False,False,False,False,0.2726201117038727,0.031395137310028076,-0.026900092139840126,0.00031735803349874914,-0.014219089411199093,0.356568306684494,0.2530466318130493,0.0,0.029500402510166168,0.17780403792858124,0.23583513498306274,0.17780376970767975,0.21806007623672485,0.21806007623672485,0.17690534889698029,0.7544817328453064,0.13347186148166656,0.9650134444236755,False,0.0
normal,44,False,-3.172935962677002,0.024028291925787926,2.61615455118529,-1.9075541496276855,0.0818464607000351,-1.308179497718811,0.10923324525356293,0.35722437500953674,0.2538219094276428,0.35722437500953674,0.2538219094276428,7.144487500190735,0.1522931456565857,0.14372801780700684,0.15789905190467834,0.1508135348558426,0.024028342217206955,0.08184652030467987,0.1092333123087883,2.616155191515525,2.6161551475524902,0.09460426867008209,0.08184599131345749,2.61615455118529,0.27109628915786743,15,0.22817981243133545,0.0,3.387174274394056e-07,0.0,False,True,False,False,False,False,0.27505356073379517,0.023480359464883804,-0.0263909250497818,1.6106293969642138e-06,-0.0017432704335078597,0.35722437500953674,0.2538219094276428,0.0,0.03003542870283127,0.17441034317016602,0.23384569585323334,0.17441029846668243,0.21489503979682922,0.21489503979682922,0.17357373237609863,0.8121345043182373,0.14096522331237793,0.9610731601715088,False,0.0
normal,45,False,-3.163835048675537,0.02465636469423771,2.5679782387614285,-1.8984050750732422,0.08141052722930908,-1.299007534980774,0.1082933321595192,0.3572886288166046,0.2538022994995117,0.3572886288166046,0.2538022994995117,7.145772576332092,0.15228137969970704,0.1439894139766693,0.15861374139785767,0.1513015776872635,0.02465624362230301,0.0814104899764061,0.10829333961009979,2.5679820807428366,2.5679821968078613,0.09914977848529816,0.08141005784273148,2.5679780253180167,0.27109628915786743,15,0.2190077304840088,0.0,2.3132911053380667e-07,0.0,False,True,False,False,False,False,0.2739947438240051,0.025904925540089607,-0.03410383686423302,0.0,0.007768487557768822,0.3572886288166046,0.2538022994995117,0.0,0.03082030452787876,0.1711988002061844,0.2326001673936844,0.1711985319852829,0.21215252578258514,0.21215252578258514,0.17068688571453094,0.873281717300415,0.14905773103237152,0.9583502411842346,False,0.0
normal,46,False,-3.1547293663024902,0.02522563375532627,2.517559062968864,-1.8892499208450317,0.08086622506380081,-1.2898290157318115,0.1072215586900711,0.35753345489501953,0.25410598516464233,0.35753345489501953,0.25410598516464233,7.150669097900391,0.1524635910987854,0.14463530480861664,0.1594894826412201,0.15206238627433777,0.0252256840467453,0.08086628466844559,0.10722162574529648,2.5175597032990984,2.517559766769409,0.10422302782535553,0.0808657631278038,2.517559062968864,0.27109628915786743,15,0.20982933044433594,0.0,3.3833018164841633e-07,0.0,False,True,False,False,False,False,0.2744268774986267,0.04112345725297928,0.0038625220768153667,3.432260200497694e-05,-0.05875255912542343,0.35753345489501953,0.25410598516464233,0.0,0.031532105058431625,0.16783730685710907,0.23104503750801086,0.1678372621536255,0.20918239653110504,0.20918239653110504,0.1675604283809662,0.934471070766449,0.1565803736448288,0.9550763964653015,False,0.0
normal,47,False,-3.145742416381836,0.025865264236927032,2.4712286091681976,-1.8802183866500854,0.08048255741596222,-1.2807763814926147,0.10635317862033844,0.35834822058677673,0.2551804780960083,0.35834822058677673,0.2551804780960083,7.166964411735535,0.15310828685760497,0.1455204039812088,0.1601601541042328,0.1528402864933014,0.025865163654088974,0.08048253506422043,0.10635319352149963,2.4712322377061944,2.4712321758270264,0.10986243933439255,0.08048209547996521,2.4712286091681976,0.27109628915786743,15,0.2007765769958496,0.0,2.295775942684486e-07,0.0,False,True,False,False,False,False,0.27423158288002014,0.017717933282256126,-0.02536548301577568,2.756761148248188e-07,0.00034712906926870346,0.35834822058677673,0.2551804780960083,0.0,0.03233145549893379,0.16474881768226624,0.22994884848594666,0.16474857926368713,0.20658531785011292,0.20658531785011292,0.1648266613483429,0.9948227405548096,0.16397331655025482,0.9514048099517822,False,0.0
normal,48,False,-3.1368606090545654,0.026473641395568848,2.4239368062418527,-1.8712918758392334,0.08004634827375412,-1.2718287706375122,0.10542218387126923,0.35792315006256104,0.25473544001579285,0.35792315006256104,0.25473544001579285,7.158463001251221,0.1528412640094757,0.14630027115345,0.16118891537189484,0.15374459326267242,0.026473715901374817,0.08004642277956009,0.1054222583770752,2.4239368062418527,2.4239368438720703,0.11582095921039581,0.08004589378833771,2.4239368062418527,0.27109628915786743,15,0.19182908535003662,0.0,3.0691424512951926e-07,0.0,False,True,False,False,False,False,0.27217981219291687,0.02431410551071167,-0.02686297334730625,3.1813069654162973e-06,-0.0010132375173270702,0.35792315006256104,0.25473544001579285,0.0,0.03309214487671852,0.16159579157829285,0.22870256006717682,0.16159579157829285,0.20388367772102356,0.20388367772102356,0.16198283433914185,1.0,0.16198283433914185,0.9491482377052307,False,0.0
normal,49,False,-3.1276650428771973,0.027042027562856674,2.3785871249173183,-1.8620543479919434,0.07961302250623703,-1.2625713348388672,0.10451437532901764,0.3581693768501282,0.25511717796325684,0.3581693768501282,0.25511717796325684,7.1633875370025635,0.1530703067779541,0.14658059179782867,0.16151925921440125,0.15404993295669556,0.02704194001853466,0.07961299270391464,0.10451437532901764,2.378589686238257,2.378589630126953,0.11432914435863495,0.07961256802082062,2.3785871249173183,0.41687700152397156,16,0.18257153034210205,0.0,2.7440214012131037e-07,0.0,False,True,False,False,False,False,0.27346646785736084,0.005085645243525505,-0.052957676351070404,0.0,0.00024477049009874463,0.3581693768501282,0.25511717796325684,0.0,0.033802423626184464,0.15857264399528503,0.2274644821882248,0.1585724800825119,0.2012760192155838,0.2012760192155838,0.15923792123794556,1.0,0.15923792123794556,0.9461588263511658,False,0.0
normal,50,False,-3.118419885635376,0.027569707483053207,2.325339397034722,-1.8527607917785645,0.0789644792675972,-1.2532548904418945,0.10330869257450104,0.3586779832839966,0.25573402643203735,0.3586779832839966,0.25573402643203735,7.173559665679932,0.1534404158592224,0.1473192274570465,0.16256526112556458,0.15494224429130554,0.027569731697440147,0.07896451652050018,0.10330873727798462,2.3253398239215453,2.3253397941589355,0.1073756292462349,0.07896402478218079,2.325339397034722,0.41687700152397156,16,0.17325520515441895,0.0,3.315646210921841e-07,0.0,False,True,False,False,False,False,0.2746620178222656,0.027769021689891815,-0.025747643783688545,7.656305388081819e-05,-0.003457320388406515,0.3586779832839966,0.25573402643203735,0.0,0.03446216508746147,0.15502265095710754,0.22561150789260864,0.15502262115478516,0.1980556845664978,0.1980556845664978,0.15584810078144073,1.0,0.15584810078144073,0.9423216581344604,False,0.0
normal,51,False,-3.109503746032715,0.02813832461833954,2.2815593785588213,-1.8438059091567993,0.07856598496437073,-1.244281530380249,0.1024521067738533,0.3588300347328186,0.2558259069919586,0.3588300347328186,0.2558259069919586,7.176600694656372,0.15349554419517517,0.1479359120130539,0.16222256422042847,0.15507924556732178,0.028138382360339165,0.0785660445690155,0.10245216637849808,2.2815593785588213,2.281559467315674,0.10121171921491623,0.07856553792953491,2.2815591651154095,0.41687700152397156,16,0.1642817258834839,0.0,2.1997713872679014e-07,0.0,False,True,False,False,False,False,0.26801997423171997,0.05340614914894104,-0.03609422221779823,1.3248873983684462e-05,-0.022587895393371582,0.3588300347328186,0.2558259069919586,0.0,0.035172976553440094,0.1521039605140686,0.22447296977043152,0.1521039456129074,0.1955607533454895,0.1955607533454895,0.15322186052799225,1.0,0.15322186052799225,0.9397348165512085,False,0.0
normal,52,False,-3.1005420684814453,0.028723012655973434,2.233420418731983,-1.8348023891448975,0.0780872330069542,-1.2352581024169922,0.10146963596343994,0.35973405838012695,0.2571011483669281,0.35973405838012695,0.2571011483669281,7.194681167602539,0.15426068902015685,0.1486055701971054,0.16309088468551636,0.15584823489189148,0.028723081573843956,0.07808730006217957,0.10146970301866531,2.233420418731983,2.2334203720092773,0.09539874643087387,0.07808678597211838,2.233420418731983,0.41687700152397156,16,0.15525829792022705,0.0,3.0556623187294463e-07,0.0,False,True,False,False,False,False,0.27256184816360474,0.023074861615896225,-0.026595108211040497,2.2543538307218114e-06,-0.002054119948297739,0.35973405838012695,0.2571011483669281,0.0,0.03590385243296623,0.14889469742774963,0.22310510277748108,0.14889469742774963,0.19277140498161316,0.19277140498161316,0.15028569102287292,1.0,0.15028569102287292,0.9356702566146851,False,0.0
normal,53,False,-3.091524362564087,0.029301842674613,2.1845811510718067,-1.8257428407669067,0.07758712768554688,-1.2261788845062256,0.10045846551656723,0.35930585861206055,0.2564791440963745,0.35930585861206055,0.2564791440963745,7.186117172241211,0.1538874864578247,0.14909422397613525,0.16347946226596832,0.1562868356704712,0.029302071779966354,0.0775872990489006,0.10045860707759857,2.184578162864045,2.1845781803131104,0.09006760269403458,0.07758668065071106,2.1845809376283953,0.41687700152397156,16,0.14617908000946045,0.0,2.520224882118782e-07,0.0,False,True,False,False,False,False,0.27234455943107605,0.017814548686146736,-0.02560444548726082,4.596970939019229e-06,-0.0005784558597952127,0.35930585861206055,0.2564791440963745,0.0,0.03662759065628052,0.14563854038715363,0.22167623043060303,0.14563873410224915,0.18992513418197632,0.18992513418197632,0.14728961884975433,1.0,0.14728961884975433,0.9334459900856018,False,0.0
normal,54,False,-3.0826261043548584,0.02982649765908718,2.1380144154145406,-1.8168058395385742,0.07708301395177841,-1.2172235250473022,0.09946705400943756,0.35945582389831543,0.2566538453102112,0.35945582389831543,0.2566538453102112,7.189116477966309,0.1539923071861267,0.14989690482616425,0.1638856679201126,0.15689128637313843,0.02982647716999054,0.0770830437541008,0.09946710616350174,2.138016763292068,2.138016700744629,0.08541933447122574,0.0770825743675232,2.1380144154145406,0.41687700152397156,16,0.1372237205505371,0.0,2.61413106272812e-07,0.0,False,True,False,False,False,False,0.27225786447525024,0.022255517542362213,-0.0252843014895916,1.8926814391306834e-06,-0.0005940959672443569,0.35945582389831543,0.2566538453102112,0.0,0.037283096462488174,0.14253444969654083,0.2202359288930893,0.1425342857837677,0.18718045949935913,0.18718045949935913,0.144400492310524,1.0,0.144400492310524,0.930526614189148,False,0.0
normal,55,False,-3.07370924949646,0.03036315366625786,2.094552854508692,-1.8078534603118896,0.07665947079658508,-1.208254337310791,0.09858869016170502,0.3595975637435913,0.2569194734096527,0.3595975637435913,0.2569194734096527,7.191951274871826,0.15415168404579163,0.15019962191581726,0.1636546105146408,0.15692710876464844,0.03036324493587017,0.07665955275297165,0.09858876466751099,2.094552214178457,2.0945522785186768,0.08156280219554901,0.07665903121232986,2.09455264106528,0.41687700152397156,16,0.12825453281402588,0.0,3.0530236472259276e-07,0.0,False,True,False,False,False,False,0.26870715618133545,0.0418299064040184,-0.024323677644133568,3.4121540011256e-06,0.0027429936453700066,0.3595975637435913,0.2569194734096527,0.0,0.03795405477285385,0.1396368145942688,0.21902580559253693,0.1396368443965912,0.18467193841934204,0.18467193841934204,0.1417599469423294,1.0,0.1417599469423294,0.9277524948120117,False,0.0
normal,56,False,-3.064164638519287,0.030892718583345413,2.0378082832144604,-1.798263669013977,0.07593533396720886,-1.1986430883407593,0.09727071225643158,0.35996660590171814,0.2574009299278259,0.35996660590171814,0.2574009299278259,7.199332118034363,0.15444055795669556,0.15064507722854614,0.1634763926267624,0.15706074237823486,0.03089277260005474,0.07593538612127304,0.09727077186107635,2.0378082832144604,2.037808418273926,0.07810081541538239,0.07593490183353424,2.037808069771049,0.41687700152397156,16,0.11864340305328369,0.0,3.045614960228704e-07,0.0,False,True,False,False,False,False,0.2707081735134125,0.03675415366888046,-0.02489539049565792,0.0002864268026314676,-0.008497457951307297,0.35996660590171814,0.2574009299278259,0.0,0.038615964353084564,0.13585388660430908,0.21695686876773834,0.1358538717031479,0.1812027543783188,0.1812027543783188,0.13810816407203674,1.0,0.13810816407203674,0.923801839351654,False,0.0
normal,57,False,-3.0554909706115723,0.03145106881856918,1.9916628848516198,-1.7895541191101074,0.07547412812709808,-1.1899166107177734,0.09632657468318939,0.3605184853076935,0.25800395011901855,0.3605184853076935,0.25800395011901855,7.21036970615387,0.15480237007141112,0.15120653808116913,0.16419929265975952,0.15770292282104492,0.031450968235731125,0.0754740908741951,0.0963265672326088,1.9916658730593817,1.9916658401489258,0.0760764479637146,0.07547369599342346,1.9916628848516198,0.41687700152397156,16,0.10991668701171875,0.0,1.580685733415521e-07,0.0,False,True,False,False,False,False,0.27504128217697144,0.025599930435419083,-0.027430076152086258,1.2041188313105522e-07,-0.00021275672770570964,0.3605184853076935,0.25800395011901855,0.0,0.03931371122598648,0.13277772068977356,0.215639129281044,0.13277752697467804,0.1785263568162918,0.1785263568162918,0.13529090583324432,1.0,0.13529090583324432,0.9205223917961121,False,0.0
normal,58,False,-3.046414375305176,0.03201005607843399,1.9422537232825705,-1.780440092086792,0.07494141161441803,-1.180784821510315,0.09527675062417984,0.36051058769226074,0.2581433057785034,0.36051058769226074,0.2581433057785034,7.210211753845215,0.15488598346710206,0.15172196924686432,0.1649959832429886,0.15835897624492645,0.03201010078191757,0.07494146376848221,0.09527680277824402,1.9422539367259821,1.9422539472579956,0.0749427005648613,0.07494097948074341,1.9422537232825705,0.41687700152397156,16,0.1007850170135498,0.0,2.1741185207702074e-07,0.0,False,True,False,False,False,False,0.2744593620300293,0.025441404432058334,-0.0261432696133852,2.9680068109882995e-06,0.00013529288116842508,0.36051058769226074,0.2581433057785034,0.0,0.040012627840042114,0.12948359549045563,0.21411709487438202,0.12948358058929443,0.17561650276184082,0.17561650276184082,0.13222791254520416,1.0,0.13222791254520416,0.9174731969833374,False,0.0
normal,59,False,-3.0373311042785645,0.03249410167336464,1.889608332707405,-1.7713178396224976,0.07426221668720245,-1.1716440916061401,0.09404656291007996,0.3607081174850464,0.2583979666233063,0.3607081174850464,0.2583979666233063,7.214162349700928,0.15503877997398377,0.15243934094905853,0.16572299599647522,0.15908116102218628,0.032494060695171356,0.07426223903894424,0.09404662251472473,1.8896113209151666,1.8896113634109497,0.07476801425218582,0.07426179200410843,1.889608332707405,0.41687700152397156,16,0.091644287109375,0.0,2.409762203114951e-07,0.0,False,True,False,False,False,False,0.2778782546520233,0.024950126186013222,-0.02724546380341053,1.9945817086863826e-07,-0.0005628030048683286,0.3607081174850464,0.2583979666233063,0.0,0.040617577731609344,0.12597408890724182,0.21217654645442963,0.1259738802909851,0.17238962650299072,0.17238962650299072,0.1288311928510666,1.0,0.1288311928510666,0.9139916896820068,False,0.0
normal,60,False,-3.0281100273132324,0.033009618520736694,1.8480581575521016,-1.7620667219161987,0.07385963201522827,-1.1623787879943848,0.09320909529924393,0.3610135316848755,0.2588126063346863,0.3610135316848755,0.2588126063346863,7.22027063369751,0.15528756380081177,0.15302661061286926,0.16524308919906616,0.1591348499059677,0.0330098532140255,0.0738598108291626,0.09320924431085587,1.848055596231163,1.8480556011199951,0.07600557059049606,0.07385920733213425,1.8480581575521016,0.41687700152397156,16,0.08237898349761963,0.0,2.576023803158023e-07,0.0,False,True,False,False,False,False,0.2726190984249115,0.028339393436908722,-0.022869857028126717,9.228623821400106e-05,-0.0005007480503991246,0.3610135316848755,0.2588126063346863,0.0,0.041262317448854446,0.12320370227098465,0.21102631092071533,0.12320387363433838,0.1699940413236618,0.1699940413236618,0.12630952894687653,1.0,0.12630952894687653,0.9111814498901367,False,0.0
normal,61,False,-3.0189900398254395,0.0335431769490242,1.7974579817465315,-1.7529113292694092,0.07327507436275482,-1.153206467628479,0.09209492802619934,0.3612976670265198,0.259114146232605,0.3612976670265198,0.259114146232605,7.2259533405303955,0.15546848773956298,0.1537538468837738,0.1659337282180786,0.1598437875509262,0.03354340419173241,0.07327524572610855,0.09209506958723068,1.7974552069821812,1.7974551916122437,0.07812190055847168,0.0732746571302414,1.7974579817465315,0.41687700152397156,16,0.07320666313171387,0.0,2.536892225180054e-07,0.0,False,True,False,False,False,False,0.27634522318840027,0.024890001863241196,-0.0269266739487648,9.120510640059365e-07,0.00015865439490880817,0.3612976670265198,0.259114146232605,0.0,0.04192925617098808,0.11983034759759903,0.2093561738729477,0.11983053386211395,0.16696985065937042,0.16696985065937042,0.12312616407871246,1.0,0.12312616407871246,0.9078556895256042,False,0.0
normal,62,False,-3.0098931789398193,0.03406430780887604,1.7462741449320427,-1.7437794208526611,0.07266516983509064,-1.144058108329773,0.09094928205013275,0.36170172691345215,0.2595207095146179,0.36170172691345215,0.2595207095146179,7.234034538269043,0.15571242570877075,0.15398623049259186,0.16643771529197693,0.160211980342865,0.03406434506177902,0.07266522943973541,0.09094934910535812,1.7462753188708062,1.7462753057479858,0.08119209110736847,0.07266475260257721,1.7462742516537484,0.41687700152397156,16,0.06405830383300781,0.0,2.5567493366907e-07,0.0,False,True,False,False,False,False,0.27388277649879456,0.024584177881479263,-0.030484439805150032,1.8628937823450542e-06,0.004258299246430397,0.36170172691345215,0.2595207095146179,0.0,0.04258043318986893,0.11641835421323776,0.20761358737945557,0.1164182797074318,0.16388975083827972,0.16388975083827972,0.1198839545249939,1.0,0.1198839545249939,0.904369056224823,False,0.0
normal,63,False,-3.000809669494629,0.034524720162153244,1.6972170582703665,-1.7346632480621338,0.07204151153564453,-1.134926438331604,0.08981212973594666,0.3618578016757965,0.2598353922367096,0.3618578016757965,0.2598353922367096,7.23715603351593,0.15590123534202574,0.15425816178321838,0.1677732914686203,0.16101571917533875,0.03452462702989578,0.07204148918390274,0.08981214463710785,1.6972204733649516,1.6972204446792603,0.08511990308761597,0.0720411017537117,1.6972170582703665,0.41687700152397156,16,0.054926514625549316,0.0,1.706118126776346e-07,0.0,False,True,False,False,False,False,0.27186211943626404,0.020701542496681213,-0.027348116040229797,9.72633915807819e-06,-0.0026486157439649105,0.3618578016757965,0.2598353922367096,0.0,0.04315578192472458,0.113148033618927,0.20583172142505646,0.1131478026509285,0.1608932465314865,0.1608932465314865,0.1167297437787056,1.0,0.1167297437787056,0.9010578393936157,False,0.0
normal,64,False,-2.9918086528778076,0.034911371767520905,1.6452812603169416,-1.7256288528442383,0.07128044962882996,-1.1258761882781982,0.08850742876529694,0.3621184229850769,0.26028186082839966,0.3621184229850769,0.26028186082839966,7.242368459701538,0.1561691164970398,0.15479668974876404,0.16768917441368103,0.16124293208122253,0.03491133823990822,0.07128045707941055,0.08850745856761932,1.6452832880293515,1.6452833414077759,0.0896499902009964,0.07128003984689713,1.6452812603169416,0.41687700152397156,16,0.045876264572143555,0.0,1.1353704820749044e-07,0.0,False,True,False,False,False,False,0.27183830738067627,0.02807820588350296,-0.02783593349158764,1.2467038686736487e-05,0.00027688092086464167,0.3621184229850769,0.26028186082839966,0.0,0.0436391718685627,0.10968555510044098,0.20365725457668304,0.10968541353940964,0.1576065719127655,0.1576065719127655,0.11327008157968521,1.0,0.11327008157968521,0.8973246812820435,False,0.0
normal,65,False,-2.982901096343994,0.035406097769737244,1.5966920416134114,-1.7166908979415894,0.07070139050483704,-1.1169238090515137,0.08741974830627441,0.36247771978378296,0.26075032353401184,0.36247771978378296,0.26075032353401184,7.249554395675659,0.1564501941204071,0.15528689324855804,0.1678154319524765,0.16155116260051727,0.035406190901994705,0.07070145756006241,0.08741980791091919,1.5966909743963535,1.5966910123825073,0.09490376710891724,0.0707009881734848,1.5966920416134114,0.41687700152397156,16,0.036924004554748535,0.0,3.00197285696413e-07,0.0,False,True,False,False,False,False,0.27317866683006287,0.020023223012685776,-0.026297882199287415,6.900000926179928e-07,-8.050155156524852e-05,0.36247771978378296,0.26075032353401184,0.0,0.04425773769617081,0.10644606500864029,0.20200282335281372,0.10644613206386566,0.15468239784240723,0.15468239784240723,0.11019200831651688,1.0,0.11019200831651688,0.8939321041107178,False,0.0
normal,66,False,-2.9735593795776367,0.03598909452557564,1.546234552728471,-1.7073185443878174,0.07016929239034653,-1.107537031173706,0.08635945618152618,0.3626912534236908,0.260897159576416,0.3626912534236908,0.260897159576416,7.253825068473816,0.1565382957458496,0.15481074154376984,0.16858167946338654,0.16169621050357819,0.03598913550376892,0.0701693519949913,0.08635952323675156,1.5462355132238232,1.5462355613708496,0.10102633386850357,0.0701688900589943,1.546234552728471,0.41687700152397156,16,0.02753734588623047,0.0,3.9820039887672465e-07,0.0,False,True,False,False,False,False,0.27549633383750916,0.026374056935310364,-0.025853151455521584,0.00014241479220800102,-0.007756698876619339,0.3626912534236908,0.260897159576416,0.0,0.04498641937971115,0.10308236628770828,0.2004825472831726,0.10308229923248291,0.1517244130373001,0.1517244130373001,0.10707833617925644,1.0,0.10707833617925644,0.8908272385597229,False,0.0
normal,67,False,-2.9648427963256836,0.03644725680351257,1.5024157942733716,-1.6985762119293213,0.0696590393781662,-1.0987825393676758,0.08539050072431564,0.3630216121673584,0.26146528124809265,0.3630216121673584,0.26146528124809265,7.260432243347168,0.15687916874885557,0.1560240536928177,0.16808411478996277,0.16205409169197083,0.036447424441576004,0.06965916603803635,0.0853906124830246,1.502414193447785,1.5024142265319824,0.10715507715940475,0.06965864449739456,1.5024157942733716,0.41687700152397156,16,0.018782854080200195,0.0,3.6669331393568427e-07,0.0,False,True,False,False,False,False,0.27379319071769714,0.028416896238923073,-0.029517777264118195,4.6060728209340596e-07,-0.0028118067421019077,0.3630216121673584,0.26146528124809265,0.0,0.04555927962064743,0.10016094893217087,0.19902470707893372,0.10016105324029922,0.1491009145975113,0.1491009145975113,0.10431675612926483,1.0,0.10431675612926483,0.8876356482505798,False,0.0
normal,68,False,-2.9555869102478027,0.03693797439336777,1.4504127616453044,-1.6892907619476318,0.06900045275688171,-1.0894829034805298,0.08418752253055573,0.3632291555404663,0.2616455554962158,0.3632291555404663,0.2616455554962158,7.264583110809326,0.1569873332977295,0.15678010880947113,0.16816741228103638,0.16247376799583435,0.036938052624464035,0.06900053471326828,0.08418760448694229,1.4504127616453044,1.4504127502441406,0.10893113166093826,0.06900005787611008,1.4504127616453044,0.5626575350761414,17,0.0094832181930542,0.0,3.3801160270741093e-07,0.0,False,True,False,False,False,False,0.27369388937950134,0.028299324214458466,-0.026425935328006744,0.0,-0.0001736051490297541,0.3632291555404663,0.2616455554962158,0.0,0.04617256671190262,0.09669418632984161,0.19714303314685822,0.09669418632984161,0.1459273397922516,0.1459273397922516,0.10097615420818329,1.0,0.10097615420818329,0.8842817544937134,False,0.0
normal,69,False,-2.9464640617370605,0.037418805062770844,1.3989114277561159,-1.6801395416259766,0.06834303587675095,-1.0803183317184448,0.08299094438552856,0.3633251190185547,0.2617943286895752,0.3633251190185547,0.2617943286895752,7.266502380371094,0.15707659721374512,0.15704262256622314,0.16867049038410187,0.1628565490245819,0.037418801337480545,0.06834305822849274,0.08299098163843155,1.398912708416585,1.3989126682281494,0.10157124698162079,0.0683426484465599,1.3989114277561159,0.5626575350761414,17,0.0003184080123901367,0.0,1.8851712013656652e-07,0.0,False,True,False,False,False,False,0.27280470728874207,0.030877768993377686,-0.02445402927696705,0.0,-0.0011008288711309433,0.3633251190185547,0.2617943286895752,0.0,0.04677350074052811,0.09326084703207016,0.19526471197605133,0.093260757625103,0.14277848601341248,0.14277848601341248,0.0976615697145462,1.0,0.0976615697145462,0.8809841871261597,False,0.0
normal,70,False,-2.937483310699463,0.0378885455429554,1.3487663133039978,-1.6711320877075195,0.06770448386669159,-1.071298360824585,0.08182742446660995,0.36359721422195435,0.2621670365333557,0.36359721422195435,0.2621670365333557,7.271944284439087,0.15730022192001342,0.15768568217754364,0.1689937561750412,0.16333971917629242,0.03586793690919876,0.06651659309864044,0.08103396743535995,1.3864428107045517,1.38644278049469,0.0946432575583458,0.06770409643650055,1.3487663133039978,0.5626575350761414,17,0.0,0.007902860641479492,0.0007505012908950448,0.0,False,True,False,False,False,False,0.27166786789894104,0.024263836443424225,-0.02702268399298191,3.7731467728008283e-06,0.0016689200419932604,0.36359721422195435,0.2621670365333557,0.0,0.0448349192738533,0.092429518699646,0.1934402734041214,0.08991775661706924,0.14017635583877563,0.14017635583877563,0.09492248296737671,1.0,0.09492248296737671,0.8780093193054199,False,0.0
normal,71,False,-2.9282922744750977,0.038309212774038315,1.2948450647362149,-1.6619136333465576,0.06693336367607117,-1.0620667934417725,0.0804917961359024,0.36375167965888977,0.26225078105926514,0.36375167965888977,0.26225078105926514,7.275033593177795,0.15735046863555907,0.15860718488693237,0.16998599469661713,0.16429659724235535,0.031647343188524246,0.0628109723329544,0.0775722786784172,1.4097433607278156,1.4097434282302856,0.08785917609930038,0.06693298369646072,1.2948450647362149,0.5626575350761414,17,0.0,0.015695691108703613,0.00222321436740458,0.0,False,True,False,False,False,False,0.27083003520965576,0.029560234397649765,-0.028417212888598442,0.00014501587429549545,-0.006376881618052721,0.36375167965888977,0.26225078105926514,0.0,0.03955917805433273,0.09398289024829865,0.19123710691928864,0.08632300049066544,0.1374516487121582,0.1374516487121582,0.09205437451601028,1.0,0.09205437451601028,0.8752008676528931,False,0.0
normal,72,False,-2.9194693565368652,0.03874097764492035,1.2443529980186012,-1.6530660390853882,0.06624911725521088,-1.053207516670227,0.07927893102169037,0.3640444874763489,0.2625909447669983,0.3640444874763489,0.2625909447669983,7.2808897495269775,0.15755456686019897,0.15921837091445923,0.1708865463733673,0.16505245864391327,0.02719021588563919,0.05895288288593292,0.07399794459342957,1.4368476857885417,1.4368476867675781,0.08184918016195297,0.06624873727560043,1.2443528912968955,0.5626575350761414,17,0.0,0.023479819297790527,0.003514498472213745,0.0,False,True,False,False,False,False,0.27193936705589294,0.027619879692792892,-0.027082841843366623,3.3501864891150035e-06,-0.0017903456464409828,0.3640444874763489,0.2625909447669983,0.0,0.03398776799440384,0.0957898423075676,0.1892821043729782,0.08295685797929764,0.13486206531524658,0.13486206531524658,0.08932849764823914,1.0,0.08932849764823914,0.8722711205482483,False,0.0
normal,73,False,-2.9105660915374756,0.03918038681149483,1.1932638233571407,-1.6441388130187988,0.06555930525064468,-1.0442688465118408,0.07805423438549042,0.3640117049217224,0.26253020763397217,0.3640117049217224,0.26253020763397217,7.280234098434448,0.1575181245803833,0.1598658710718155,0.17151305079460144,0.16568946838378906,0.023356258869171143,0.055475134402513504,0.07068890333175659,1.4529642641871272,1.4529643058776855,0.07635357230901718,0.06555893272161484,1.1932638233571407,0.5626575350761414,17,0.0,0.03164017200469971,0.004579389933496714,0.0,False,True,False,False,False,False,0.27179932594299316,0.022915992885828018,-0.026480581611394882,2.0243430753907887e-06,0.0004116592463105917,0.3640117049217224,0.26253020763397217,0.0,0.029195323586463928,0.09686428308486938,0.18731124699115753,0.07955092191696167,0.13214367628097534,0.13214367628097534,0.08646703511476517,1.0,0.08646703511476517,0.8696134686470032,False,0.0
normal,74,False,-2.901538848876953,0.039613861590623856,1.1409146922372242,-1.6350878477096558,0.06483567506074905,-1.0352067947387695,0.07678251713514328,0.36387011408805847,0.26248347759246826,0.36387011408805847,0.26248347759246826,7.277402281761169,0.15749008655548094,0.1604640930891037,0.1722809076309204,0.16637250781059265,0.023830410093069077,0.05479227751493454,0.0694580152630806,1.4006142792935645,1.4006142616271973,0.07147686183452606,0.06483530253171921,1.1409147989589299,0.5626575350761414,17,0.0,0.04070758819580078,0.004579795058816671,0.0,False,True,False,False,False,False,0.2728193402290344,0.02621571719646454,-0.027988355606794357,1.1937159797525965e-05,-0.0013526760740205646,0.36387011408805847,0.26248347759246826,0.0,0.02978801354765892,0.09337428212165833,0.18524372577667236,0.07606098800897598,0.1289030760526657,0.1289030760526657,0.08305587619543076,1.0,0.08305587619543076,0.8664196133613586,False,0.0
normal,75,False,-2.8925788402557373,0.04003531485795975,1.0890448482979722,-1.626105546951294,0.06411060690879822,-1.0262140035629272,0.07551436871290207,0.36406439542770386,0.26286548376083374,0.36406439542770386,0.26286548376083374,7.281287908554077,0.15771929025650025,0.16081954538822174,0.17305102944374084,0.1669352948665619,0.024292010813951492,0.054107651114463806,0.06823045015335083,1.348752546203952,1.3487526178359985,0.06749528646469116,0.06411024183034897,1.089044955019678,0.5626575350761414,17,0.0,0.04970598220825195,0.004579821135848761,0.0,False,True,False,False,False,False,0.27200430631637573,0.02638391964137554,-0.027544723823666573,2.0365803266031435e-06,-0.000694718852173537,0.36406439542770386,0.26286548376083374,0.0,0.03036501258611679,0.08991683274507523,0.18317212164402008,0.07260299474000931,0.12568330764770508,0.12568330764770508,0.07966664433479309,1.0,0.07966664433479309,0.8628178238868713,False,0.0
normal,76,False,-2.883664131164551,0.040436554700136185,1.0370420291133164,-1.6171696186065674,0.06336235255002975,-1.0172678232192993,0.0742216408252716,0.3642888367176056,0.2631714940071106,0.3642888367176056,0.2631714940071106,7.285776734352112,0.15790289640426636,0.161476269364357,0.1734571009874344,0.1674666851758957,0.02473355084657669,0.05339981988072395,0.06697819381952286,1.2967505807929425,1.296750545501709,0.0645204409956932,0.0633619874715805,1.0370420291133164,0.5626575350761414,17,0.0,0.05865788459777832,0.004579886328428984,0.0,False,True,False,False,False,False,0.2719823122024536,0.02928154729306698,-0.026661094278097153,1.8331097351165226e-07,0.00026902189711108804,0.3642888367176056,0.2631714940071106,0.0,0.030916938558220863,0.08645004034042358,0.18103425204753876,0.0691361352801323,0.12243080139160156,0.12243080139160156,0.07624295353889465,1.0,0.07624295353889465,0.859259307384491,False,0.0
normal,77,False,-2.8743927478790283,0.04081231355667114,0.9842728413594443,-1.6078776121139526,0.06257165968418121,-1.007966160774231,0.07287843525409698,0.3646601438522339,0.26355206966400146,0.3646601438522339,0.26355206966400146,7.293202877044678,0.15813124179840088,0.16237808763980865,0.17331886291503906,0.16784846782684326,0.025151263922452927,0.052651189267635345,0.06567710638046265,1.2439813930390704,1.2439813613891602,0.06263779103755951,0.06257130205631256,0.9842728413594443,0.5626575350761414,17,0.0,0.06796550750732422,0.004579994361847639,0.0,False,True,False,False,False,False,0.2732260525226593,0.02003699541091919,-0.029713934287428856,0.0001156791768153198,-0.008847856894135475,0.3646601438522339,0.26355206966400146,0.0,0.03143908083438873,0.08293209224939346,0.1787751466035843,0.06561818718910217,0.11909531056880951,0.11909531056880951,0.07273191213607788,1.0,0.07273191213607788,0.8555432558059692,False,0.0
normal,78,False,-2.8652029037475586,0.04128435254096985,0.9333300888783157,-1.5986689329147339,0.061917614191770554,-0.9987485408782959,0.07169099152088165,0.3652319312095642,0.2640712261199951,0.3652319312095642,0.2640712261199951,7.304638624191284,0.15844273567199707,0.16242027282714844,0.17324641346931458,0.1678333431482315,0.025664031505584717,0.05203834921121597,0.06453109532594681,1.1930558227525725,1.1930558681488037,0.06224045157432556,0.0619172602891922,0.9333299821566099,0.5626575350761414,17,0.0,0.07718825340270996,0.0045800767838954926,0.0,False,True,False,False,False,False,0.27222853899002075,0.018177850171923637,-0.027321716770529747,0.00020983751164749265,-0.010726249776780605,0.3652319312095642,0.2640712261199951,0.0,0.032080039381980896,0.0795370563864708,0.17690646648406982,0.06222199648618698,0.11600003391504288,0.11600003391504288,0.06947372108697891,1.0,0.06947372108697891,0.8519288301467896,False,0.0
normal,79,False,-2.8564565181732178,0.041611120104789734,0.880346230413264,-1.5899039506912231,0.06107315421104431,-0.9899747371673584,0.07029175758361816,0.36528921127319336,0.2644417881965637,0.36528921127319336,0.2644417881965637,7.305784225463867,0.15866507291793822,0.16275596618652344,0.17353999614715576,0.1681479811668396,0.026029184460639954,0.05123291537165642,0.06317120045423508,1.1400966703624094,1.140096664428711,0.06291121989488602,0.061072804033756256,0.880346230413264,0.5626575350761414,17,0.0,0.0859684944152832,0.004580018576234579,0.0,False,True,False,False,False,False,0.27387598156929016,0.02690243162214756,-0.028054818511009216,9.365772712044418e-06,-0.0005583057063631713,0.36528921127319336,0.2644417881965637,0.0,0.03253648057579994,0.0760064423084259,0.1744937300682068,0.058689747005701065,0.11259260028600693,0.11259260028600693,0.06588694453239441,1.0,0.06588694453239441,0.8481508493423462,False,0.0
normal,80,False,-2.8474230766296387,0.04196440055966377,0.8344285761705608,-1.580855369567871,0.060411397367715836,-0.9809188842773438,0.0691492035984993,0.3655022978782654,0.2647067904472351,0.3655022978782654,0.2647067904472351,7.310045957565308,0.15882407426834105,0.1629001647233963,0.1724744737148285,0.167687326669693,0.026422830298542976,0.05061190202832222,0.06206955760717392,1.0941925697763404,1.094192624092102,0.065057672560215,0.06041105091571808,0.8344285228097079,0.5626575350761414,17,0.0,0.09502935409545898,0.0045799193903803825,0.0,False,True,False,False,False,False,0.27264508605003357,0.0250138808041811,-0.029086945578455925,0.0,0.0002445970894768834,0.3655022978782654,0.2647067904472351,0.0,0.03302853927016258,0.07294616848230362,0.17260301113128662,0.055628567934036255,0.10972271114587784,0.10972271114587784,0.06286600977182388,1.0,0.06286600977182388,0.8450158834457397,False,0.0
normal,81,False,-2.838326930999756,0.04227852821350098,0.7789074091505552,-1.5717419385910034,0.059498175978660583,-0.9717973470687866,0.06765462458133698,0.36566266417503357,0.264964759349823,0.36566266417503357,0.264964759349823,7.313253283500671,0.1589788556098938,0.16349337995052338,0.17298386991024017,0.16823862493038177,0.026778580620884895,0.04974016547203064,0.06061640381813049,1.0386612108334325,1.038661241531372,0.06816254556179047,0.05949783697724342,0.7789074091505552,0.5626575350761414,17,0.0,0.10415774583816528,0.004579892847687006,0.0,False,True,False,False,False,False,0.2735312581062317,0.029111703857779503,-0.025360217317938805,3.369482874404639e-05,-0.0027637709863483906,0.36566266417503357,0.264964759349823,0.0,0.03347322717308998,0.06924407929182053,0.1699938178062439,0.05192716047167778,0.10611923038959503,0.10611923038959503,0.05907287448644638,1.0,0.05907287448644638,0.8411544561386108,False,0.0
normal,82,False,-2.829310178756714,0.042622312903404236,0.7324968607097003,-1.5627117156982422,0.05881599709391594,-0.9627606868743896,0.06648647785186768,0.3660028576850891,0.26533621549606323,0.3660028576850891,0.26533621549606323,7.320057153701782,0.15920172929763793,0.16387613117694855,0.17177754640579224,0.1678268313407898,0.027162693440914154,0.04909868165850639,0.05948912724852562,0.9922638425232417,0.9922638535499573,0.07244047522544861,0.05881566181778908,0.7324968607097003,0.5626575350761414,17,0.0,0.11319965124130249,0.004579803440719843,0.0,False,True,False,False,False,False,0.27144521474838257,0.02470942586660385,-0.0254829004406929,1.665037984821538e-06,6.342481356114149e-06,0.3660028576850891,0.26533621549606323,0.0,0.03395336866378784,0.06615091860294342,0.16804474592208862,0.048833124339580536,0.10320315510034561,0.10320315510034561,0.05600332096219063,1.0,0.05600332096219063,0.8378669023513794,False,0.0
normal,83,False,-2.8203673362731934,0.04296820983290672,0.6799664094116612,-1.5537543296813965,0.05800063908100128,-0.9537966251373291,0.06512106209993362,0.366066575050354,0.2654538154602051,0.366066575050354,0.2654538154602051,7.32133150100708,0.15927228927612305,0.16446854174137115,0.17169809341430664,0.1680833101272583,0.027549371123313904,0.04832407832145691,0.05816444754600525,0.9397286954701483,0.9397286772727966,0.07739634811878204,0.05800030753016472,0.6799664094116612,0.5626575350761414,17,0.0,0.12216973304748535,0.004579898901283741,0.0,False,True,False,False,False,False,0.2712332010269165,0.028261279687285423,-0.027966711670160294,5.069893177278573e-06,-0.0007882483769208193,0.366066575050354,0.2654538154602051,0.0,0.03443671390414238,0.06264857947826385,0.16571517288684845,0.04533109441399574,0.09984996169805527,0.09984996169805527,0.05247364565730095,1.0,0.05247364565730095,0.8343961238861084,False,0.0
normal,84,False,-2.8113903999328613,0.04332132264971733,0.6268762027667983,-1.5447641611099243,0.05718010291457176,-0.9448000192642212,0.06374460458755493,0.36631590127944946,0.26588553190231323,0.36631590127944946,0.26588553190231323,7.326318025588989,0.15953131914138793,0.16501742601394653,0.17171776294708252,0.16836759448051453,0.027943361550569534,0.04754435643553734,0.056828778237104416,0.8866323523272029,0.8866323828697205,0.08305373042821884,0.0571797750890255,0.6268762027667983,0.5626575350761414,17,0.0,0.13117235898971558,0.004579991567879915,0.0,False,True,False,False,False,False,0.2707204520702362,0.02485359087586403,-0.02749018371105194,8.821569281280972e-06,-0.000743561948183924,0.36631590127944946,0.26588553190231323,0.0,0.03492920100688934,0.05910882353782654,0.1633707880973816,0.04179174825549126,0.09646476805210114,0.09646476805210114,0.04891028255224228,1.0,0.04891028255224228,0.8305792212486267,False,0.0
normal,85,False,-2.802442789077759,0.04365139454603195,0.5762738925271126,-1.5358047485351562,0.05639151111245155,-0.9358351230621338,0.0624261349439621,0.36652663350105286,0.2660835385322571,0.36652663350105286,0.2660835385322571,7.330532670021057,0.15965012311935425,0.16549208760261536,0.17177075147628784,0.1686314195394516,0.028314147144556046,0.04679648578166962,0.05555103346705437,0.8360275341274314,0.8360275626182556,0.08926358819007874,0.05639118701219559,0.5762739458879655,0.5626575350761414,17,0.0,0.14014333486557007,0.00457990076392889,0.0,False,True,False,False,False,False,0.270245760679245,0.024454433470964432,-0.026594189926981926,2.3181903088698164e-05,6.408488843590021e-05,0.36652663350105286,0.2660835385322571,0.0,0.03539268299937248,0.05573516711592674,0.16111768782138824,0.03841826319694519,0.09323195368051529,0.09323195368051529,0.045507319271564484,1.0,0.045507319271564484,0.8271484375,False,0.0
normal,86,False,-2.7936038970947266,0.04426412656903267,0.5355312271586048,-1.5269571542739868,0.05610354617238045,-0.9269833564758301,0.06171153485774994,0.3668227791786194,0.2664393186569214,0.3668227791786194,0.2664393186569214,7.336455583572388,0.15986359119415283,0.16494974493980408,0.17103508114814758,0.16799241304397583,0.02896704524755478,0.04654867947101593,0.05487658828496933,0.7952821473554261,0.7952821850776672,0.09611605852842331,0.05610322579741478,0.5355312271586048,0.5626575350761414,17,0.0,0.1489982008934021,0.004579917527735233,0.0,False,True,False,False,False,False,0.2736099362373352,0.008713768795132637,-0.00864911638200283,0.0,0.009448971599340439,0.3668227791786194,0.2664393186569214,0.0,0.03620880842208862,0.053018808364868164,0.16029493510723114,0.03570208325982094,0.09102659672498703,0.09102659672498703,0.043185893446207047,1.0,0.043185893446207047,0.8245872855186462,False,0.0
normal,87,False,-2.7845120429992676,0.04460666701197624,0.48172609180671194,-1.5178546905517578,0.05525660142302513,-0.9178758859634399,0.06030116602778435,0.366426557302475,0.26600056886672974,0.366426557302475,0.26600056886672974,7.3285311460494995,0.15960034132003784,0.16542135179042816,0.1716333031654358,0.16852733492851257,0.029350224882364273,0.04574274271726608,0.053507402539253235,0.7414909391861377,0.7414909601211548,0.1031872108578682,0.05525628477334976,0.48172609180671194,0.5626575350761414,17,0.0,0.15811198949813843,0.004579856991767883,0.0,False,True,False,False,False,False,0.2712923586368561,0.026435676962137222,-0.028753552585840225,5.3187299897672347e-08,-6.555014988407493e-05,0.366426557302475,0.26600056886672974,0.0,0.03668778017163277,0.04943272843956947,0.15787510573863983,0.03211507201194763,0.08757881075143814,0.08757881075143814,0.03955664485692978,1.0,0.03955664485692978,0.8215782642364502,False,0.0
normal,88,False,-2.775432825088501,0.04492424428462982,0.4266042507293141,-1.5087659358978271,0.054355572909116745,-0.9087824821472168,0.05882292240858078,0.36729729175567627,0.26694631576538086,0.36729729175567627,0.26694631576538086,7.345945835113525,0.16016778945922852,0.1657189577817917,0.17200271785259247,0.16886083781719208,0.029709404334425926,0.0448831245303154,0.05207046866416931,0.6863578122883535,0.6863577961921692,0.09570052474737167,0.05435526371002197,0.4266042507293141,0.7084380388259888,18,0.0,0.16721194982528687,0.004579967353492975,0.0,False,True,False,False,False,False,0.27054816484451294,0.020972782745957375,-0.028546752408146858,2.1713536625611596e-05,-0.009068379178643227,0.36729729175567627,0.26694631576538086,0.0,0.037136755883693695,0.04575718566775322,0.15530075132846832,0.028440283611416817,0.08400771766901016,0.08400771766901016,0.0357975997030735,1.0,0.0357975997030735,0.8170614242553711,False,0.0
normal,89,False,-2.7663512229919434,0.045254334807395935,0.3730409734431485,-1.499675989151001,0.05350151285529137,-0.899688720703125,0.057407960295677185,0.3676950931549072,0.2674744725227356,0.3676950931549072,0.2674744725227356,7.3539018630981445,0.16048468351364134,0.16670271754264832,0.17225466668605804,0.16947868466377258,0.030080582946538925,0.04407024756073952,0.05069674178957939,0.6327967494775829,0.6327967643737793,0.0878472849726677,0.05350120738148689,0.3730409734431485,0.7084380388259888,18,0.0,0.17631208896636963,0.004579855129122734,0.0,False,True,False,False,False,False,0.26976895332336426,0.028354668989777565,-0.027312146499753,0.0001854422444012016,-0.006063483189791441,0.3676950931549072,0.2674744725227356,0.0,0.03760072961449623,0.04218645021319389,0.1528605967760086,0.024869397282600403,0.08056288957595825,0.08056288957595825,0.03217146173119545,1.0,0.03217146173119545,0.8130884170532227,False,0.0
normal,90,False,-2.75785231590271,0.045421525835990906,0.3313266069435006,-1.4911713600158691,0.052746497094631195,-0.891181468963623,0.05621612071990967,0.36793947219848633,0.26790010929107666,0.36793947219848633,0.26790010929107666,7.358789443969727,0.16074006557464598,0.16696709394454956,0.1709306836128235,0.16894888877868652,0.030286293476819992,0.04335379973053932,0.04954349249601364,0.5910829165864638,0.5910829305648804,0.0807720273733139,0.05274619534611702,0.331326633623927,0.7084380388259888,18,0.0,0.18482470512390137,0.004579845350235701,0.0,False,True,False,False,False,False,0.2665093243122101,0.033249687403440475,-0.017987007275223732,0.0,0.0007441805792041123,0.36793947219848633,0.26790010929107666,0.0,0.037857867777347565,0.03940552845597267,0.15070341527462006,0.022088441997766495,0.0777817890048027,0.0777817890048027,0.029243988916277885,1.0,0.029243988916277885,0.8098816871643066,False,0.0
normal,91,False,-2.7486581802368164,0.04570925235748291,0.2809748792689897,-1.4819715023040771,0.0519210547208786,-0.8819786310195923,0.05486340448260307,0.3679230511188507,0.2678864002227783,0.3679230511188507,0.2678864002227783,7.358461022377014,0.16073184013366698,0.16717080771923065,0.1710262894630432,0.16909855604171753,0.030615683645009995,0.0425700768828392,0.04823252931237221,0.5407320960464521,0.5407320857048035,0.07346309721469879,0.051920756697654724,0.28097490594941615,0.7084380388259888,18,0.0,0.19403356313705444,0.004579827189445496,0.0,False,True,False,False,False,False,0.2665042281150818,0.059183236211538315,-0.03153518959879875,0.0,0.0073372675105929375,0.3679230511188507,0.2678864002227783,0.0,0.03826960548758507,0.036048807203769684,0.14834502339363098,0.01873166114091873,0.07451954483985901,0.07451954483985901,0.02581004798412323,1.0,0.02581004798412323,0.8066331148147583,False,0.0
normal,92,False,-2.7400548458099365,0.046000320464372635,0.22793563223863747,-1.4733628034591675,0.05103953555226326,-0.8733675479888916,0.05342646688222885,0.3685208261013031,0.2685773968696594,0.3685208261013031,0.2685773968696594,7.370416522026062,0.16114643812179566,0.16725951433181763,0.17129862308502197,0.1692790687084198,0.03094572201371193,0.04172757640480995,0.04683462530374527,0.4876933292637759,0.48769333958625793,0.06697283685207367,0.05103924497961998,0.22793563223863747,0.7084380388259888,18,0.0,0.20265114307403564,0.0045798104256391525,0.0,False,True,False,False,False,False,0.2682136595249176,0.025332769379019737,-0.01752234250307083,0.0,-0.0012320001842454076,0.3685208261013031,0.2685773968696594,0.0,0.03868215158581734,0.03251288831233978,0.14582641422748566,0.015195708721876144,0.07106676697731018,0.07106676697731018,0.022175544872879982,1.0,0.022175544872879982,0.8024893999099731,False,0.0
normal,93,False,-2.7308542728424072,0.04604654386639595,0.1620639805421387,-1.4641573429107666,0.049629468470811844,-0.8641597032546997,0.05132659524679184,0.3684617877006531,0.26855748891830444,0.3684617877006531,0.26855748891830444,7.3692357540130615,0.16113449335098265,0.1674536168575287,0.1721341758966446,0.16979390382766724,0.0310337096452713,0.04035928472876549,0.04477653652429581,0.42182045026766063,0.4218204617500305,0.06024785339832306,0.04962918534874916,0.1620639938823519,0.7084380388259888,18,0.0,0.21186834573745728,0.004579837433993816,0.0,False,True,False,False,False,False,0.26741304993629456,0.028060397133231163,-0.030569029971957207,0.0,-0.005845663137733936,0.3684617877006531,0.26855748891830444,0.0,0.03879213705658913,0.02812136337161064,0.14179767668247223,0.01080426573753357,0.06641731411218643,0.06641731411218643,0.017281383275985718,1.0,0.017281383275985718,0.797859787940979,False,0.0
normal,94,False,-2.721726894378662,0.04623718187212944,0.10342676649693955,-1.4550268650054932,0.04852375015616417,-0.8550277948379517,0.04960683360695839,0.36910995841026306,0.26919615268707275,0.36910995841026306,0.26919615268707275,7.382199168205261,0.16151769161224364,0.16683456301689148,0.17210042476654053,0.169467493891716,0.031265608966350555,0.03929491341114044,0.04309816285967827,0.36318586424446636,0.3631858825683594,0.05459757149219513,0.048523470759391785,0.10342676649693955,0.7084380388259888,18,0.0,0.22100794315338135,0.004579882137477398,0.0,False,True,False,False,False,False,0.272527277469635,0.03324536606669426,-0.02717365324497223,0.00035288187791593373,-0.005554530769586563,0.36910995841026306,0.26919615268707275,0.0,0.039082013070583344,0.024212390184402466,0.13863849639892578,0.006895117927342653,0.06245044618844986,0.06245044618844986,0.013105732388794422,1.0,0.013105732388794422,0.7932542562484741,False,0.0
normal,95,False,-2.7132363319396973,0.04648285731673241,0.05385564139915386,-1.4465348720550537,0.047673504799604416,-0.8465350866317749,0.048237480223178864,0.3694536089897156,0.2696605920791626,0.3694536089897156,0.2696605920791626,7.3890721797943115,0.16179635524749755,0.1683182716369629,0.17165394127368927,0.16998609900474548,0.03154977411031723,0.03848318010568619,0.041767336428165436,0.313615179373717,0.31361517310142517,0.05045951530337334,0.04767323285341263,0.05385564139915386,0.7084380388259888,18,0.0,0.22950679063796997,0.004579822067171335,0.0,False,True,False,False,False,False,0.26971644163131714,0.026574810966849327,-0.027915017679333687,2.2016452021489386e-06,1.821746991481632e-05,0.3694536089897156,0.2696605920791626,0.0,0.03943721950054169,0.020907677710056305,0.13620923459529877,0.003590376116335392,0.05919468402862549,0.05919468402862549,0.0096786143258214,1.0,0.0096786143258214,0.7895340919494629,False,0.0
normal,96,False,-2.7041101455688477,0.0467214360833168,-0.0008525853250706172,-1.4374080896377563,0.046702589839696884,-0.8374080657958984,0.04669366031885147,0.3696252107620239,0.2698100507259369,0.3696252107620239,0.2698100507259369,7.3925042152404785,0.16188603043556213,0.16797755658626556,0.17203910648822784,0.1700083315372467,0.03182987868785858,0.03755369782447815,0.04026490077376366,0.25890192234690346,0.2589019238948822,0.04728647693991661,0.046702321618795395,-0.0008525853250706172,0.7084380388259888,18,0.0,0.23864060640335083,0.004579968750476837,0.0,False,True,False,False,False,False,0.2696157991886139,0.02700444869697094,-0.02743586152791977,0.0,0.0006113203126005828,0.3696252107620239,0.2698100507259369,0.0,0.03978734835982323,0.017260128632187843,0.1334352046251297,-5.683902054443024e-05,0.05556384474039078,0.05556384474039078,0.005856677889823914,1.0,0.005856677889823914,0.7857537865638733,False,0.0
normal,97,False,-2.6951613426208496,0.04696718230843544,-0.05382410847014875,-1.428459882736206,0.04577723145484924,-0.8284600973129272,0.04521358758211136,0.3697654604911804,0.27019304037094116,0.3697654604911804,0.27019304037094116,7.395309209823608,0.16211582422256468,0.16849634051322937,0.17251738905906677,0.17050686478614807,0.03211631253361702,0.03666897490620613,0.038825441151857376,0.20592766883537214,0.20592767000198364,0.04580313339829445,0.04577697068452835,-0.05382410847014875,0.7084380388259888,18,0.0,0.24759525060653687,0.004579947795718908,0.0,False,True,False,False,False,False,0.27080440521240234,0.031801722943782806,-0.02987636812031269,5.420176421466749e-06,-0.00088608602527529,0.3697654604911804,0.27019304037094116,0.0,0.0401453897356987,0.013728511519730091,0.13079135119915009,-0.003588273888453841,0.05206533148884773,0.05206533148884773,0.002174032386392355,1.0,0.002174032386392355,0.7818722724914551,False,0.0
normal,98,False,-2.6858792304992676,0.04721742868423462,-0.08154083936423528,-1.4191784858703613,0.04541471228003502,-0.8191790580749512,0.04456081986427307,0.37023067474365234,0.2706957161426544,0.37023067474365234,0.2706957161426544,7.404613494873047,0.16241742968559264,0.16952143609523773,0.17126496136188507,0.1703931987285614,0.032408855855464935,0.036348678171634674,0.03821485862135887,0.1782073460888754,0.17820735275745392,0.046686213463544846,0.04541445150971413,-0.08154083936423528,0.7084380388259888,18,0.0,0.25687921047210693,0.004579870030283928,0.0,False,True,False,False,False,False,0.2660115361213684,0.0384560190141201,-0.02318238839507103,0.00026580854319036007,-0.021156353875994682,0.37023067474365234,0.2706957161426544,0.0,0.04051107168197632,0.011880489997565746,0.12975557148456573,-0.005436055827885866,0.05038445070385933,0.05038445070385933,0.00040468419319950044,1.0,0.00040468419319950044,0.7796887159347534,False,0.0
normal,99,False,-2.67716646194458,0.04772307723760605,-0.12189168933017978,-1.4104671478271484,0.04502828046679497,-0.8104685544967651,0.04375183582305908,0.3706280589103699,0.2712218761444092,0.3706280589103699,0.2712218761444092,7.4125611782073975,0.1627331256866455,0.16991613805294037,0.1719474196434021,0.17093178629875183,0.032954033464193344,0.03600176423788071,0.037445392459630966,0.1378559758546152,0.13785597681999207,0.04908239096403122,0.045028023421764374,-0.12189168933017978,0.7084380388259888,18,0.0,0.26559334993362427,0.004579814150929451,0.0,False,True,False,False,False,False,0.2723976969718933,0.02507803961634636,-0.026342833414673805,0.0,0.00041628850158303976,0.3706280589103699,0.2712218761444092,0.0,0.041192542761564255,0.009190398268401623,0.12865149974822998,-0.008126112632453442,0.048085443675518036,0.048085443675518036,0.0,1.0,0.0,0.7768635749816895,False,0.0
normal,100,False,-2.668140411376953,0.04796348139643669,-0.17895906710397347,-1.401444673538208,0.044007040560245514,-0.8014475107192993,0.042132988572120667,0.3703869581222534,0.27096253633499146,0.3703869581222534,0.27096253633499146,7.407739162445068,0.16257752180099486,0.17033489048480988,0.1716001033782959,0.1709674894809723,0.03323483467102051,0.035021163523197174,0.03586729243397713,0.08079956373609057,0.08079956471920013,0.05245979502797127,0.04400678724050522,-0.17895906710397347,0.7084380388259888,18,0.0,0.2746216058731079,0.004579794127494097,0.0,False,True,False,False,False,False,0.2716566324234009,0.014716481789946556,-0.031648579984903336,3.6018127502757125e-06,-0.00046679889783263206,0.3703869581222534,0.27096253633499146,0.0,0.041543543338775635,0.005386637523770332,0.12573367357254028,-0.011930604465305805,0.04428747668862343,0.04428747668862343,0.0,1.0,0.0,0.7733249664306641,False,0.0
normal,101,False,-2.6591639518737793,0.04817253351211548,-0.23428696111480887,-1.392472505569458,0.04299290478229523,-0.7924774885177612,0.0405394621193409,0.3706374764442444,0.2712898254394531,0.3706374764442444,0.2712898254394531,7.412749528884888,0.16277389526367186,0.1708262413740158,0.17139370739459991,0.17110997438430786,0.033484816551208496,0.03404780477285385,0.03431447595357895,0.025465133020776055,0.025465132668614388,0.05706757307052612,0.04299265891313553,-0.23428696111480887,0.7084380388259888,18,0.0,0.2835986018180847,0.00457998039200902,0.0,False,True,False,False,False,False,0.27114662528038025,0.02712607942521572,-0.029247839003801346,0.0,-0.0003711986355483532,0.3706374764442444,0.2712898254394531,0.0,0.04185602068901062,0.001697675557807088,0.122836172580719,-0.015619130805134773,0.04057829827070236,0.04057829827070236,0.0,1.0,0.0,0.7692884802818298,False,0.0
normal,102,False,-2.650174140930176,0.04839165508747101,-0.2882684807659319,-1.3834881782531738,0.04201860725879669,-0.7834956645965576,0.038999877870082855,0.3709089159965515,0.2716459333896637,0.3709089159965515,0.2716459333896637,7.41817831993103,0.16298756003379822,0.17082548141479492,0.17150503396987915,0.17116525769233704,0.03374454379081726,0.03311420977115631,0.032815635204315186,-0.028511504112307524,0.02851150371134281,0.06268109381198883,0.04201836511492729,-0.2882684807659319,0.7084380388259888,18,0.0,0.2925875186920166,0.004579813219606876,0.0,False,True,False,False,False,False,0.26974645256996155,0.025767028331756592,-0.02111571654677391,1.4663076399301644e-05,0.0001314743421971798,0.3709089159965515,0.2716459333896637,0.0,0.042180679738521576,-0.0019007669761776924,0.12005247175693512,-0.019217899069190025,0.03697741776704788,0.03697741776704788,0.0,1.0,0.0,0.765331506729126,False,0.0
normal,103,False,-2.6412370204925537,0.048591457307338715,-0.34252443528347204,-1.374557614326477,0.041018933057785034,-0.7745683193206787,0.03743204474449158,0.37099799513816833,0.27178430557250977,0.37099799513816833,0.27178430557250977,7.419959902763367,0.16307058334350585,0.1712348759174347,0.1720477044582367,0.1716412901878357,0.03398473560810089,0.03215496987104416,0.031288258731365204,-0.0827645771437915,0.08276458084583282,0.06896679103374481,0.04101869836449623,-0.34252446196389846,0.7084380388259888,18,0.0,0.30152177810668945,0.004579856991767883,0.0,False,True,False,False,False,False,0.2700168490409851,0.030240196734666824,-0.029172997921705246,1.3720527931582183e-06,0.0007187578594312072,0.37099799513816833,0.27178430557250977,0.0,0.042480919510126114,-0.00551763828843832,0.11719628423452377,-0.022834964096546173,0.033334746956825256,0.033334746956825256,0.0,1.0,0.0,0.7615504264831543,False,0.0
normal,104,False,-2.6323001384735107,0.04879488795995712,-0.39729558883567206,-1.3656284809112549,0.04001149907708168,-0.7656428813934326,0.03585106134414673,0.37154102325439453,0.27238547801971436,0.37154102325439453,0.27238547801971436,7.430820465087891,0.1634312868118286,0.17139267921447754,0.17212647199630737,0.17175957560539246,0.03422873467206955,0.03118806518614292,0.029747789725661278,-0.13753646440771877,0.13753646612167358,0.07579328119754791,0.040011271834373474,-0.39729558883567206,0.7084380388259888,18,0.0,0.3104543089866638,0.004579821135848761,0.0,False,True,False,False,False,False,0.26966261863708496,0.029926514253020287,-0.02978673204779625,1.0489077340025688e-06,-0.0006417124532163143,0.37154102325439453,0.27238547801971436,0.0,0.042785920202732086,-0.009169097989797592,0.11431792378425598,-0.02648637257516384,0.02965918369591236,0.02965918369591236,0.0,1.0,0.0,0.7572736740112305,False,0.0
normal,105,False,-2.6233396530151367,0.0489414818584919,-0.45368880559404434,-1.3566772937774658,0.038911379873752594,-0.7566961050033569,0.03416041284799576,0.3719087839126587,0.27284467220306396,0.3719087839126587,0.27284467220306396,7.438175678253174,0.16370680332183837,0.17178906500339508,0.17210032045841217,0.17194469273090363,0.034415699541568756,0.030128400772809982,0.02809763513505459,-0.19392434508080197,0.19392435252666473,0.08300797641277313,0.038911156356334686,-0.45368880559404434,0.7084380388259888,18,0.0,0.3194087743759155,0.00457977969199419,0.0,False,True,False,False,False,False,0.2703218460083008,0.024342399090528488,-0.032230108976364136,6.9881571107544e-07,0.0008711447007954121,0.3719087839126587,0.27284467220306396,0.0,0.043019622564315796,-0.012928289361298084,0.11117473244667053,-0.03024592064321041,0.025802960619330406,0.025802960619330406,0.0,1.0,0.0,0.7529582977294922,False,0.0
normal,106,False,-2.6146669387817383,0.049340710043907166,-0.5000755550945098,-1.348013162612915,0.03828511759638786,-0.7480359077453613,0.03304840624332428,0.3721405267715454,0.2731214165687561,0.3721405267715454,0.2731214165687561,7.442810535430908,0.16387284994125365,0.17040926218032837,0.17170940339565277,0.17105934023857117,0.034854426980018616,0.029541509225964546,0.027024932205677032,-0.24031588371781448,0.24031588435173035,0.09048537164926529,0.038284897804260254,-0.5000755550945098,0.7084380388259888,18,0.0,0.3280736804008484,0.0045799436047673225,0.0,False,True,False,False,False,False,0.2708236873149872,0.028253844007849693,-0.023493561893701553,6.119552381278481e-06,-0.0050785234197974205,0.3721405267715454,0.2731214165687561,0.0,0.04356803372502327,-0.016021057963371277,0.1093854233622551,-0.03333837166428566,0.02295011654496193,0.02295011654496193,0.0,1.0,0.0,0.7498286962509155,False,0.0
