Su2050/forklift_sim/outputs/exp83_single_point_steer_diag/exp83_actor_proprio12_seed42_iter50_center_zero_steer_steps.csv
mode,step,done,root_x,root_y,root_yaw_deg,fork_center_x,fork_center_y,tip_x,tip_y,raw_drive,raw_steer,applied_drive,applied_steer,drive_target_rad_s,steer_target_rad,left_steer_joint_pos_rad,right_steer_joint_pos_rad,mean_steer_joint_pos_rad,root_y_signed_m,center_y_signed_m,tip_y_signed_m,yaw_err_signed_deg,yaw_err_abs_deg,d_traj_m,d_traj_signed_m,yaw_traj_signed_deg,traj_s_norm,traj_closest_idx,dist_front_m,insert_depth_m,pallet_disp_xy_m,hold_counter,inserted,push_free,hold_entry,clean_insert_ready,dirty_insert,success,policy_vx_r,policy_vy_r,policy_yaw_rate,policy_lift_pos,policy_lift_vel,policy_prev_drive,policy_prev_steer,policy_prev_lift,policy_y_err_obs,policy_yaw_err_obs,policy_d_traj_signed_obs,policy_yaw_traj_err_obs
zero_steer,0,False,-3.5,0.0,0.0,-2.233297824859619,0.0,-1.6332979202270508,0.0,nan,nan,nan,nan,nan,nan,0.0,0.0,0.0,0.0,0.0,0.0,0.0,0.0,0.0,0.0,0.0,0.0,0,0.5532978773117065,0.0,0.0,0.0,False,True,False,False,False,False,0.0,0.0,0.0,0.0,0.0,0.0,0.0,0.0,0.0,0.0,0.0,0.0
zero_steer,1,False,-3.499817371368408,-7.627531886100769e-07,-9.803916156495213e-05,-2.2331151962280273,-2.9302148050192045e-06,-1.633115291595459,-3.956878572353162e-06,0.171059712767601,0.09285933524370193,0.171059712767601,0.0,3.4211942553520203,0.0,9.894980030367151e-05,-9.847238834481686e-05,2.3870597942732275e-07,-9.78372440840758e-07,-3.1414754175784765e-06,-4.166074631939409e-06,-9.78420091071343e-05,9.784200665308163e-05,0.0001826521329348907,-2.9299494599399623e-06,-9.803916156495213e-05,0.0,0,0.5531150102615356,0.0,2.709572584080888e-07,0.0,False,True,False,False,False,False,-0.0008423427352681756,5.6568173931736965e-06,-9.626597602618858e-05,0.0,1.4757379176444374e-05,0.171059712767601,0.0,0.0,-1.2229655794726568e-06,-6.522800504171755e-06,-8.371284820896108e-06,-6.535944066854427e-06
zero_steer,2,False,-3.4992995262145996,-3.066379576921463e-06,-0.0003762665242339029,-2.2325973510742188,-1.1384924619051162e-05,-1.6325974464416504,-1.5325178537750617e-05,0.1706489622592926,0.09542067348957062,0.1706489622592926,0.0,3.412979245185852,0.0,0.00017987331375479698,-0.00017808936536312103,8.919741958379745e-07,-3.4996928661712445e-06,-1.1813879609690048e-05,-1.5752068065921776e-05,-0.00037606936526230915,0.0003760693653021008,0.0007005662773735821,-1.1383894161554053e-05,-0.0003762665242339029,0.0,0,0.552597165107727,0.0,5.160313776286785e-07,0.0,False,True,False,False,False,False,-0.0016865747747942805,1.1174167411809321e-05,-0.0001899589697131887,0.0,1.4401248336071149e-05,0.1706489622592926,0.0,0.0,-4.37461585534038e-06,-2.5071291020140052e-05,-3.252541137044318e-05,-2.5084435037570074e-05
zero_steer,3,False,-3.4987406730651855,-4.122965037822723e-06,-0.000470401452233609,-2.2320384979248047,-1.452265860280022e-05,-1.6320385932922363,-1.9448691091383807e-05,0.1710684597492218,0.09527207911014557,0.1710684597492218,0.0,3.421369194984436,0.0,-0.0005221529863774776,-0.00014269202074501663,-0.0003324224962852895,-4.773972705152119e-06,-1.5169307516771369e-05,-2.009327545238193e-05,-0.0004702043193171192,0.0004702043370343745,0.0012594106374308467,-1.4521343473461457e-05,-0.000470401452233609,0.0,0,0.5520380735397339,0.0,7.63127616210113e-07,0.0,False,True,False,False,False,False,0.02989926002919674,0.00014526738959830254,-0.00015742657706141472,9.54424535848375e-07,0.00017727114027366042,0.1710684597492218,0.0,0.0,-5.9674657677533105e-06,-3.134695361950435e-05,-4.148955486016348e-05,-3.136009763693437e-05
zero_steer,4,False,-3.4971530437469482,-6.154179573059082e-06,-0.0005262083061730033,-2.2304511070251465,-1.7787657270673662e-05,-1.630450963973999,-2.329809831280727e-05,0.17120099067687988,0.09538431465625763,0.17120099067687988,0.0,3.4240198135375977,0.0,-0.0005941434064880013,1.4828608073003124e-05,-0.00028965738601982594,-7.022877525741933e-06,-1.8651995560503565e-05,-2.4160372049664147e-05,-0.0005260111732565135,0.000526011164765805,0.0028467734809964895,-1.7786047465051524e-05,-0.0005262083061730033,0.0,0,0.5504504442214966,0.0,1.010763980957563e-06,0.0,False,True,False,False,False,False,0.0632452517747879,-6.406440661521628e-05,-3.391818609088659e-05,0.0,-4.5637687435373664e-05,0.17120099067687988,0.0,0.0,-8.778596566116903e-06,-3.5067412682110444e-05,-5.0817277951864526e-05,-3.508055306156166e-05
zero_steer,5,False,-3.4944727420806885,-5.723908543586731e-06,-0.00047937717499353373,-2.2277708053588867,-1.6322039300575852e-05,-1.6277706623077393,-2.1342064428608865e-05,0.17125849425792694,0.09604787081480026,0.17125849425792694,0.0,3.425169885158539,0.0,-0.0007094934117048979,8.970709131972399e-06,-0.00035026133991777897,-6.810293598391581e-06,-1.7404065147275105e-05,-2.2422025722335093e-05,-0.00047918004207704384,0.0004791800456587225,0.005522036924958229,-1.63203203555895e-05,-0.00047937717499353373,0.009580372832715511,1,0.5477699041366577,0.0,1.2586218645083136e-06,0.0,False,True,False,False,False,False,0.09466993808746338,-9.81689736363478e-05,5.3410058171721175e-05,0.0,-0.00017271640535909683,0.17125849425792694,0.0,0.0,-8.512866770615801e-06,-3.1945335649652407e-05,-4.6629487769678235e-05,-3.195847966708243e-05
zero_steer,6,False,-3.490769863128662,-6.84056431055069e-06,-0.00041349556795447663,-2.2240676879882812,-1.5982175682438537e-05,-1.624067783355713,-2.031229087151587e-05,0.17087730765342712,0.09585815668106079,0.17087730765342712,0.0,3.4175461530685425,0.0,-0.0008726000669412315,0.00013132022286299616,-0.0003706399293150753,-7.316546088986797e-06,-1.6749279893701896e-05,-2.1217290850472637e-05,-0.00042666368721556443,0.0004266636969987303,0.001818965538404882,-1.5980493117240258e-05,-0.00041349556795447663,0.009580372832715511,1,0.5440675020217896,0.0,1.2907012205687352e-06,0.0,False,True,False,False,False,False,0.1245609000325203,0.00014661185559816658,0.0002916001249104738,0.0,-0.000725431484170258,0.17087730765342712,0.0,0.0,-9.145682270172983e-06,-2.8444244890124537e-05,-4.5658551243832335e-05,-2.756637150014285e-05
zero_steer,7,False,-3.4861769676208496,-8.048955351114273e-06,-0.0002833205948478762,-2.2194747924804688,-1.4312641724245623e-05,-1.6194748878479004,-1.7279568055528216e-05,0.17091336846351624,0.09642495214939117,0.17091336846351624,0.0,3.4182673692703247,0.0,-0.0008835797780193388,0.00031097064493224025,-0.0002863045665435493,-7.253246167238103e-06,-1.441357653675368e-05,-1.7805217794375494e-05,-0.00032387781332667725,0.0003238778153900057,0.0027740371879190207,-1.4311134691524785e-05,-0.0002833205948478762,0.009580372832715511,1,0.5394755601882935,0.0,1.8304956483916612e-06,0.0,False,True,False,False,False,False,0.14905127882957458,0.0001680817804299295,-0.00017620701692067087,2.1260481375406926e-08,-0.0002077750104945153,0.17091336846351624,0.0,0.0,-9.066558050108142e-06,-2.1591853510471992e-05,-4.08889573009219e-05,-1.88880403584335e-05
zero_steer,8,False,-3.480879068374634,-8.331146091222763e-06,-0.00023250420524365033,-2.214177131652832,-1.3471378224494401e-05,-1.6141769886016846,-1.590615647728555e-05,0.1707204133272171,0.09669353067874908,0.1707204133272171,0.0,3.414408266544342,0.0,-0.001238129218108952,0.0004515180771704763,-0.00039330555591732264,-7.131068286980735e-06,-1.3374573427427094e-05,-1.6331941878888756e-05,-0.00028240772822586474,0.0002824077382683754,0.0014260450843721628,-1.346974113403121e-05,-0.00023250420524365033,0.017815569415688515,2,0.5341777801513672,0.0,2.0006530121463584e-06,0.0,False,True,False,False,False,False,0.16817013919353485,-0.00073456164682284,0.0005012916517443955,1.1781568787228025e-07,0.00026821106439456344,0.1707204133272171,0.0,0.0,-8.913835699786432e-06,-1.8827182429959066e-05,-3.848497726721689e-05,-1.550027991470415e-05
zero_steer,9,False,-3.4750277996063232,-8.993316441774368e-06,-0.0001417081867049992,-2.2083258628845215,-1.2126218280172907e-05,-1.608325719833374,-1.361018257739488e-05,0.17063255608081818,0.09653881937265396,0.17063255608081818,0.0,3.4126511216163635,0.0,-0.0015515467384830117,0.0006487060454674065,-0.0004514203465078026,-7.367794296442298e-06,-1.177945432573324e-05,-1.3869131180399563e-05,-0.00019954931894043654,0.0001995493221329525,0.003802795661613345,-1.2124543900426943e-05,-0.0001417081867049992,0.024949943646788597,3,0.5283266305923462,0.0,2.123992089764215e-06,0.0,False,True,False,False,False,False,0.18325696885585785,0.0001330493250861764,-0.00022289148182608187,1.6130033486660977e-07,-0.0002018623345065862,0.17063255608081818,0.0,0.0,-9.20974252949236e-06,-1.3303288142196834e-05,-3.4641554520931095e-05,-9.447212505619973e-06
zero_steer,10,False,-3.468745231628418,-9.295064955949783e-06,-2.8105292144442006e-05,-2.202043056488037,-9.916419912769925e-06,-1.6020431518554688,-1.0210737855231855e-05,0.17042472958564758,0.0966138169169426,0.17042472958564758,0.0,3.4084945917129517,0.0,-0.0018645345699042082,0.0009343681740574539,-0.00046508319792337716,-5.190038791624829e-06,-8.160102879628539e-06,-9.566936569171958e-06,-0.00013434268239677043,0.0001343426847597584,0.0024800498504191637,-9.915051123243757e-06,-2.8105292144442006e-05,0.024949943646788597,3,0.5220457315444946,0.0,3.52828465111088e-06,0.0,False,True,False,False,False,False,0.1950787752866745,-0.0001255997340194881,6.64764957036823e-05,2.520864086363872e-07,-0.0003775361110456288,0.17042472958564758,0.0,0.0,-6.4875484895310365e-06,-8.956179044616874e-06,-2.8328719054115936e-05,-1.8736860738499672e-06
zero_steer,11,False,-3.4621217250823975,-1.0753516107797623e-05,0.00021863663671701006,-2.1954197883605957,-5.919871000514831e-06,-1.5954196453094482,-3.63031313099782e-06,0.17023739218711853,0.09678643941879272,0.17023739218711853,0.0,3.4047478437423706,0.0,-0.002272513462230563,0.0013828800292685628,-0.0004448167164810002,-5.924038305238355e-06,-3.787904915952822e-06,-2.7760818284150446e-06,9.662204400240973e-05,9.662204683991149e-05,0.0018627737881615758,-5.9189655985392164e-06,0.00021863663671701006,0.031228050589561462,4,0.5154223442077637,0.0,3.739782187039964e-06,0.0,False,True,False,False,False,False,0.2044754922389984,-0.0010382942855358124,0.000994869158603251,3.689247876081936e-07,-0.0003854950482491404,0.17023739218711853,0.0,0.0,-7.405047654174268e-06,6.441469395213062e-06,-1.691133002168499e-05,1.4575775821867865e-05
zero_steer,12,False,-3.4552268981933594,-8.327420800924301e-06,-9.375186586142514e-05,-2.1885247230529785,-1.0400099199614488e-05,-1.5885248184204102,-1.13818659883691e-05,0.17003896832466125,0.09686334431171417,0.17003896832466125,0.0,3.400779366493225,0.0,-0.0026594530791044235,0.0014692526310682297,-0.0005951002240180969,-3.312530679977499e-06,-8.193552275770344e-06,-1.0505549653316848e-05,-0.00022077953874142297,0.00022077954781707376,0.002222085604444146,-1.0398398444522172e-05,-9.375186586142514e-05,0.03689507395029068,5,0.5085276365280151,0.0,3.896701855410356e-06,0.0,False,True,False,False,False,False,0.2117021232843399,-0.0001506934204371646,-0.0002489957259967923,5.516203316346946e-08,0.0004174607165623456,0.17003896832466125,0.0,0.0,-4.140663349971874e-06,-1.4718635611643549e-05,-2.970971036120318e-05,-6.250124442885863e-06
zero_steer,13,False,-3.44812273979187,-5.9157609939575195e-06,-0.0003834196924724867,-2.1814208030700684,-1.4392450793820899e-05,-1.581420660018921,-1.8407612515147775e-05,0.16997268795967102,0.09680968523025513,0.16997268795967102,0.0,3.3994537591934204,0.0,-0.003036066424101591,0.0015623786021023989,-0.0007368439109995961,1.3126236808602698e-06,-1.0792680768645369e-05,-1.6526611943845637e-05,-0.0005475500418188981,0.0005475500365719199,0.0027575867716223,-1.439009702153271e-05,-0.0003834196924724867,0.04737243801355362,7,0.5014241933822632,0.0,4.47458705821191e-06,0.0,False,True,False,False,False,False,0.21748697757720947,-0.0001876344031188637,-0.0002220640890300274,1.3006018662053975e-07,-0.0001244185259565711,0.16997268795967102,0.0,0.0,1.6407796010753373e-06,-3.650333746918477e-05,-4.111456291866489e-05,-2.5561312213540077e-05
zero_steer,14,False,-3.44085431098938,-4.7995708882808685e-06,-0.0007830220536780357,-2.174152374267578,-2.2110718418844044e-05,-1.5741522312164307,-3.0310506190289743e-05,0.1699790209531784,0.09676344692707062,0.1699790209531784,0.0,3.399580419063568,0.0,-0.003334023989737034,0.001556200091727078,-0.0008889119490049779,5.1264532885397784e-06,-1.709510979708284e-05,-2.7620819309959188e-05,-0.0010051311843740553,0.0010051311692222953,0.0016016102163121104,-2.2107336917542852e-05,-0.0007830220536780357,0.052672307938337326,8,0.49415814876556396,0.0,6.816593668190762e-06,0.0,False,True,False,False,False,False,0.22178003191947937,-0.00017635773110669106,-4.729775901068933e-05,2.498071580703254e-07,0.00010823860066011548,0.1699790209531784,0.0,0.0,6.4080668380483985e-06,-6.700874655507505e-05,-6.316381768556312e-05,-5.220147068030201e-05
zero_steer,15,False,-3.433459520339966,-2.441462129354477e-06,-0.0011163644877351657,-2.166757583618164,-2.712218338274397e-05,-1.5667574405670166,-3.881272641592659e-05,0.1699836105108261,0.09675648808479309,0.1699836105108261,0.0,3.399672210216522,0.0,-0.0035309256054461002,0.00162007927428931,-0.0009554231655783951,8.664330380270258e-06,-2.1445659513119608e-05,-3.570788976503536e-05,-0.001361942388543187,0.001361942384392023,0.0007424541981890798,-2.7118439902551472e-05,-0.0011163644877351657,0.058338917791843414,9,0.4867638349533081,0.0,7.432749498548219e-06,0.0,False,True,False,False,False,False,0.22537942230701447,-0.00021609164832625538,-0.00022821234597358853,3.48226819824049e-07,-2.1468906197696924e-05,0.1699836105108261,0.0,0.0,1.0830412975337822e-05,-9.079615847440436e-05,-7.74812579038553e-05,-7.44243006920442e-05
zero_steer,16,False,-3.4259605407714844,-1.6619451344013214e-06,-0.001527911837401948,-2.1592583656311035,-3.5441204090602696e-05,-1.5592584609985352,-5.144146052771248e-05,0.17012672126293182,0.09693155437707901,0.17012672126293182,0.0,3.4025344252586365,0.0,-0.003731856122612953,0.0015829073963686824,-0.0010744743049144745,1.0018395187216811e-05,-2.948931978608016e-05,-4.820297908736393e-05,-0.0017870226549814687,0.0017870226874947548,0.00048457225784659386,-3.54368967236951e-05,-0.001527911837401948,0.06461702287197113,10,0.4792652130126953,0.0,7.791684765834361e-06,0.0,False,True,False,False,False,False,0.22823938727378845,0.0015385340666398406,-0.002148472238332033,2.559204972385487e-07,0.0004212002386339009,0.17012672126293182,0.0,0.0,1.2522994438768364e-05,-0.00011913484195247293,-0.00010124827531399205,-0.00010186078725382686
zero_steer,17,False,-3.4183835983276367,1.4761462807655334e-07,-0.0020786428426417527,-2.151681423187256,-4.580727545544505e-05,-1.5516815185546875,-6.757477240171283e-05,0.1701662689447403,0.0970260351896286,0.1701662689447403,0.0,3.403325378894806,0.0,-0.003733629360795021,0.001755996490828693,-0.0009888163767755032,1.2127300578868017e-05,-3.972458216594532e-05,-6.428531196434051e-05,-0.002345377070975957,0.0023453771136701107,0.00113555823918432,-4.580245149554685e-05,-0.0020786428426417527,0.07175160199403763,11,0.4716883897781372,0.0,8.006964890228119e-06,0.0,False,True,False,False,False,False,0.23040127754211426,-0.0010974117321893573,0.0008517674286849797,3.5376029927647323e-07,0.0007072793669067323,0.1701662689447403,0.0,0.0,1.515912572358502e-05,-0.0001563584664836526,-0.00013086415128782392,-0.0001385761861456558
zero_steer,18,False,-3.410740613937378,2.5187619030475616e-06,-0.0025693638366830686,-2.144038677215576,-5.428504664450884e-05,-1.5440385341644287,-8.119136327877641e-05,0.17025014758110046,0.0971430093050003,0.17025014758110046,0.0,3.4050029516220093,0.0,-0.003797883167862892,0.0019050227710977197,-0.0009464301983825862,1.4734489923284855e-05,-4.811234612134285e-05,-7.788106449879706e-05,-0.002842703554970816,0.00284270360134542,0.002989785047248006,-5.428013173514046e-05,-0.0025693638366830686,0.07998659461736679,12,0.4640456438064575,0.0,8.17067120806314e-06,0.0,False,True,False,False,False,False,0.23224110901355743,-0.000265746028162539,0.00043179665226489305,0.0,-0.0002480893163010478,0.17025014758110046,0.0,0.0,1.8418111721985042e-05,-0.00018951356469187886,-0.00015508609067182988,-0.00017129091429524124
zero_steer,19,False,-3.403047561645508,4.192814230918884e-06,-0.0030881074076844475,-2.136345386505127,-6.40794460196048e-05,-1.5363454818725586,-9.641802898840979e-05,0.17006152868270874,0.09697484225034714,0.17006152868270874,0.0,3.401230573654175,0.0,-0.0038017244078218937,0.001953740604221821,-0.0009239919018000364,1.6740286810090765e-05,-5.772599979536608e-05,-9.299851080868393e-05,-0.003368277106701376,0.0033682771027088165,0.0047044348903000355,-6.40736470813863e-05,-0.0030881074076844475,0.07998659461736679,12,0.4563525915145874,0.0,8.215038178605027e-06,0.0,False,True,False,False,False,False,0.23351094126701355,-0.0012474596733227372,0.0004519777721725404,0.0,-0.0003465265326667577,0.17006152868270874,0.0,0.0,2.092535942210816e-05,-0.00022455181169789284,-0.0001830675610108301,-0.00020587383187375963
zero_steer,20,False,-3.3953137397766113,5.099456757307053e-06,-0.003598364101786222,-2.1286115646362305,-7.445361552527174e-05,-1.528611660003662,-0.00011213559628231451,0.17004293203353882,0.09700483083724976,0.17004293203353882,0.0,3.4008586406707764,0.0,-0.0038838388863950968,0.0020030608866363764,-0.0009403889998793602,1.8666945834411308e-05,-6.754450441803783e-05,-0.00010838036541827023,-0.0038995377580814303,0.0038995377253741026,0.0013905444648116827,-0.0,-0.003598364101786222,0.08956717699766159,13,0.44861912727355957,0.0,8.644103218102828e-06,0.0,False,True,False,False,False,False,0.23457439243793488,-8.332847210112959e-05,-0.00032726023346185684,3.013357456893573e-07,-0.0001076072221621871,0.17004293203353882,0.0,0.0,2.3333683202508837e-05,-0.0002599691797513515,-0.0,-0.00023989094188436866
zero_steer,21,False,-3.38754940032959,7.729046046733856e-06,-0.004116444622502267,-2.120847225189209,-8.327780233230442e-05,-1.5208473205566406,-0.00012638511543627828,0.16990844905376434,0.09698234498500824,0.16990844905376434,0.0,3.398168981075287,0.0,-0.003926422446966171,0.002064776374027133,-0.0009308230364695191,2.2311915017780848e-05,-7.581934914924204e-05,-0.00012230129505041987,-0.004438697900097628,0.004438697826117277,0.009153268299996853,-0.0,-0.004116444622502267,0.08956717699766159,13,0.4408552646636963,0.0,9.178820619126782e-06,0.0,False,True,False,False,False,False,0.23541009426116943,-6.312436744337901e-05,-0.0004167951119598001,3.5559671118789993e-07,-0.00020547170424833894,0.16990844905376434,0.0,0.0,2.788989331747871e-05,-0.00029591319616883993,-0.0,-0.00027442965074442327
zero_steer,22,False,-3.3797614574432373,1.0670162737369537e-05,-0.004644037965891074,-2.1130595207214355,-9.200078784488142e-05,-1.513059377670288,-0.00014063304115552455,0.17010709643363953,0.09694300591945648,0.17010709643363953,0.0,3.4021419286727905,0.0,-0.003915434703230858,0.0020572016946971416,-0.0009291165042668581,2.613160904729739e-05,-8.414578041993082e-05,-0.00013638097152579576,-0.004988094154472254,0.004988094326108694,0.01694084331393242,-0.0,-0.004644037965891074,0.08956717699766159,13,0.43306827545166016,0.0,1.013753171719145e-05,0.0,False,True,False,False,False,False,0.23606756329536438,0.0006929209921509027,-0.0002509051118977368,1.1360204155153042e-07,-0.0002783105301205069,0.17010709643363953,0.0,0.0,3.266450949013233e-05,-0.0003325396100990474,-0.0,-0.0003096025320701301
zero_steer,23,False,-3.3719539642333984,1.1072959750890732e-05,-0.005283054189577335,-2.1052517890930176,-0.00010572544852038845,-1.5052518844604492,-0.00016104946553241462,0.17004209756851196,0.09706462919712067,0.17004209756851196,0.0,3.4008419513702393,0.0,-0.0038168965838849545,0.0021592273842543364,-0.000828834599815309,2.8161386580904946e-05,-9.702435636427253e-05,-0.00015632121358066797,-0.005662432344600532,0.0056624324060976505,0.024748552590608597,-0.0,-0.005283054189577335,0.08956717699766159,13,0.42526161670684814,0.0,1.103792692447314e-05,0.0,False,True,False,False,False,False,0.23660406470298767,-0.0009564950596541166,0.0007755710976198316,4.745304522657534e-07,-0.0010370396776124835,0.17004209756851196,0.0,0.0,3.5201734135625884e-05,-0.0003774954820983112,-0.0,-0.00035220361314713955
zero_steer,24,False,-3.3641304969787598,1.3791956007480621e-05,-0.005827881837804856,-2.097428321838379,-0.00011505155998747796,-1.4974284172058105,-0.0001760809973347932,0.17017419636249542,0.09701227396726608,0.17017419636249542,0.0,3.4034839272499084,0.0,-0.0038329558447003365,0.0021938153076916933,-0.0008195702685043216,3.1497314921580255e-05,-0.00010606611613184214,-0.00017122592544183135,-0.006222303167644942,0.0062223030254244804,0.03257199749350548,-0.0,-0.005827881837804856,0.08956717699766159,13,0.4174385070800781,0.0,1.1507000635901932e-05,0.0,False,True,False,False,False,False,0.23707032203674316,-9.599741315469146e-05,-0.00033932278165593743,3.4121865155611886e-07,-1.290797081310302e-05,0.17017419636249542,0.0,0.0,3.937164365197532e-05,-0.00041482021333649755,-0.0,-0.0003885254554916173
zero_steer,25,False,-3.356295585632324,1.513119786977768e-05,-0.006508966007007179,-2.0895934104919434,-0.0001287698105443269,-1.489593505859375,-0.00019693154899869114,0.17013753950595856,0.09683701395988464,0.17013753950595856,0.0,3.402750790119171,0.0,-0.003717605257406831,0.0022524928208440542,-0.0007325562182813883,3.3244534279219806e-05,-0.00011964639998041093,-0.00019206640718039125,-0.00691560030205263,0.0069156005047261715,0.040406908839941025,-0.0,-0.006508966007007179,0.08956717699766159,13,0.4096040725708008,0.0,1.2020793292322196e-05,0.0,False,True,False,False,False,False,0.23727719485759735,-0.0008660979801788926,0.0003854480746667832,1.2591245024395903e-07,0.00012035004328936338,0.17013753950595856,0.0,0.0,4.155566784902476e-05,-0.00046104000648483634,-0.0,-0.000433931068982929
zero_steer,26,False,-3.34845232963562,1.6841571778059006e-05,-0.007123376207404206,-2.0817503929138184,-0.00014064289280213416,-1.481750249862671,-0.00021523871691897511,0.17015273869037628,0.09706953167915344,0.17015273869037628,0.0,3.4030547738075256,0.0,-0.003619425231590867,0.0023166118189692497,-0.0006514067063108087,3.5000000934815034e-05,-0.0001315190311288461,-0.0002103942824760452,-0.007532030294107902,0.007532030344009399,0.048249926418066025,-0.0,-0.007123376207404206,0.08956717699766159,13,0.4017608165740967,0.0,1.2055226761731319e-05,0.0,False,True,False,False,False,False,0.23761475086212158,-0.0006964307394810021,0.00015511269157286733,5.882679943169933e-08,-5.917678208788857e-05,0.17015273869037628,0.0,0.0,4.3750002078013495e-05,-0.0005021353717893362,-0.0,-0.0004748917417600751
zero_steer,27,False,-3.3406014442443848,1.993868499994278e-05,-0.007717676036368039,-2.073899269104004,-0.00015068463108036667,-1.4738993644714355,-0.00023150394554249942,0.17012256383895874,0.09702808409929276,0.17012256383895874,0.0,3.402451276779175,0.0,-0.003580934600904584,0.0024809984024614096,-0.0005499680992215872,3.833347000181675e-05,-0.0001414640573784709,-0.00022662892297375947,-0.00813264588026935,0.00813264586031437,0.05610104650259018,-0.0,-0.007717676036368039,0.08956717699766159,13,0.3939100503921509,0.0,1.2169974070275202e-05,0.0,False,True,False,False,False,False,0.23787711560726166,-0.00011650122178252786,-2.9420767532428727e-05,0.0,0.0003320988907944411,0.17012256383895874,0.0,0.0,4.791683750227094e-05,-0.0005421763635240495,-0.0,-0.0005145117174834013
zero_steer,28,False,-3.332742691040039,2.1608546376228333e-05,-0.008496529377634404,-2.066040515899658,-0.00016623377450741827,-1.4660406112670898,-0.0002552092191763222,0.17012397944927216,0.09699329733848572,0.17012397944927216,0.0,3.402479588985443,0.0,-0.0035169669426977634,0.0025409457739442587,-0.0004880105843767524,4.1330782551085576e-05,-0.00015638902550563216,-0.00025004311464726925,-0.008943309793728524,0.008943310007452965,0.06395981460809708,-0.0,-0.008496529377634404,0.08956717699766159,13,0.38605237007141113,0.0,1.3388291336013936e-05,0.0,False,True,False,False,False,False,0.238070547580719,-0.001106009352952242,0.0005069130565971136,0.0,0.0009205160895362496,0.17012397944927216,0.0,0.0,5.166347909835167e-05,-0.0005962206632830203,-0.0,-0.0005664352793246508
zero_steer,29,False,-3.324876070022583,2.4123582988977432e-05,-0.009100886059841487,-2.0581741333007812,-0.00017707991355564445,-1.4581739902496338,-0.0002723841753322631,0.16988922655582428,0.09713098406791687,0.16988922655582428,0.0,3.3977845311164856,0.0,-0.0035343861673027277,0.0025498548056930304,-0.0004922656808048487,4.4645108573604375e-05,-0.00016679431428201497,-0.00026694705593399704,-0.009563880671344449,0.00956388097256422,0.07182619720697403,-0.0,-0.009100886059841487,0.08956717699766159,13,0.3781862258911133,0.0,1.3795128325000405e-05,0.0,False,True,False,False,False,False,0.23813007771968842,-0.0003617218171712011,-0.00010118698992300779,1.547275871871534e-07,0.00046785257291048765,0.16988922655582428,0.0,0.0,5.5806383898016065e-05,-0.0006375920493155718,-0.0,-0.0006067257490940392
zero_steer,30,False,-3.317009925842285,2.5420915335416794e-05,-0.00980097878224114,-2.0503077507019043,-0.00019126030383631587,-1.450307846069336,-0.00029389592236839235,0.16982829570770264,0.09698571264743805,0.16982829570770264,0.0,3.3965659141540527,0.0,-0.0035463168751448393,0.0026218006387352943,-0.00046225811820477247,4.5877844968345016e-05,-0.00018119379819836468,-0.00028875109273940325,-0.010270961164182808,0.010270961560308933,0.07969259470701218,-0.0,-0.00980097878224114,0.08956717699766159,13,0.37032055854797363,0.0,1.4405795809580013e-05,0.0,False,True,False,False,False,False,0.23824326694011688,4.427119347383268e-05,-0.00045986060285940766,3.1541551948066626e-07,-0.00017017204663716257,0.16982829570770264,0.0,0.0,5.7347308029420674e-05,-0.0006847307668067515,-0.0,-0.0006533985724672675
zero_steer,31,False,-3.3091421127319336,2.727517858147621e-05,-0.01051705474760822,-2.0424399375915527,-0.00020523715647868812,-1.4424400329589844,-0.00031537149334326386,0.1697165071964264,0.09659987688064575,0.1697165071964264,0.0,3.394330143928528,0.0,-0.003569964552298188,0.002655166434124112,-0.00045739905908703804,4.7919591452227905e-05,-0.00019513680308591574,-0.0003102655755355954,-0.010993986546875579,0.010993986390531063,0.08744001388549805,-0.00020523597777355462,-0.01051705474760822,0.24130578339099884,15,0.36245274543762207,0.0,1.4528808605973609e-05,0.0,False,True,False,False,False,False,0.2380608171224594,0.00012024313764413819,-0.0005208950606174767,3.557686909516633e-07,-0.00016126615810208023,0.1697165071964264,0.0,0.0,5.989948840579018e-05,-0.000732932414393872,-0.0005863885162398219,-0.0007011370034888387
zero_steer,32,False,-3.3012752532958984,2.9232818633317947e-05,-0.011272631918090983,-2.0345730781555176,-0.00021998389274813235,-1.4345731735229492,-0.00033803062979131937,0.16990698873996735,0.09684507548809052,0.16990698873996735,0.0,3.398139774799347,0.0,-0.003565077902749181,0.002769137965515256,-0.00039796996861696243,5.1618968427646905e-05,-0.00020906449935864657,-0.00033254269510507584,-0.0117912985744255,0.011791299097239971,0.07957322150468826,-0.00021998262673150748,-0.011272631918090983,0.24130578339099884,15,0.3545875549316406,0.0,1.6256994058494456e-05,0.0,False,True,False,False,False,False,0.2381359040737152,0.0002247481606900692,-0.0003269054868724197,3.383348001761988e-08,0.0004945432883687317,0.16990698873996735,0.0,0.0,6.452370871556923e-05,-0.0007860865443944931,-0.0006285217823460698,-0.000751508807297796
zero_steer,33,False,-3.293410062789917,3.1342729926109314e-05,-0.01200931267654382,-2.0267081260681152,-0.00023416063049808145,-1.4267079830169678,-0.00035992186167277396,0.17012396454811096,0.0969548374414444,0.17012396454811096,0.0,3.4024792909622192,0.0,-0.0036067343316972256,0.002843491267412901,-0.0003816215321421623,5.3675386880058795e-05,-0.00022332053049467504,-0.00035452545853331685,-0.012529146601535321,0.012529146857559681,0.07170834392309189,-0.00023415929172188044,-0.01200931267654382,0.24130578339099884,15,0.3467223644256592,0.0,1.6306252291542478e-05,0.0,False,True,False,False,False,False,0.2381751835346222,0.00015805070870555937,-0.0005708661628887057,3.4308814633732254e-07,-0.00020597680122591555,0.17012396454811096,0.0,0.0,6.709423178108409e-05,-0.0008352764416486025,-0.0006690265727229416,-0.0008006208227016032
zero_steer,34,False,-3.2855427265167236,3.445986658334732e-05,-0.012714883223998037,-2.018840789794922,-0.0002466423320583999,-1.4188406467437744,-0.00037979226908646524,0.17016756534576416,0.09675183892250061,0.17016756534576416,0.0,3.403351306915283,0.0,-0.0036186822690069675,0.0028715324588119984,-0.0003735749050974846,5.68803989153821e-05,-0.00023578443506266922,-0.00037441126187331975,-0.013237887117156578,0.013237887062132359,0.06384110450744629,-0.000246640935074538,-0.012714883223998037,0.24130578339099884,15,0.33885514736175537,0.0,1.6343085007974878e-05,0.0,False,True,False,False,False,False,0.23798607289791107,6.811382627347484e-05,-0.000521137670148164,3.299795707789599e-07,0.00014003786782268435,0.17016756534576416,0.0,0.0,7.110049773473293e-05,-0.0008825258119031787,-0.0007046884275041521,-0.0008476588991470635
zero_steer,35,False,-3.2776780128479004,3.60831618309021e-05,-0.013512512915375325,-2.0109758377075195,-0.000262653105892241,-1.4109759330749512,-0.00040415581315755844,0.1701609194278717,0.09698063880205154,0.1701609194278717,0.0,3.403218388557434,0.0,-0.00361387780867517,0.0029795332811772823,-0.0003171722637489438,5.94490411458537e-05,-0.0002514023508410901,-0.00039864363498054445,-0.014060508030479906,0.014060508459806442,0.05597629025578499,-0.00026265159249305725,-0.013512512915375325,0.24130578339099884,15,0.33099114894866943,0.0,1.7194455722346902e-05,0.0,False,True,False,False,False,False,0.23804709315299988,0.0003484703483991325,-0.0005643085460178554,2.602547795049759e-07,-0.0001007264363579452,0.1701609194278717,0.0,0.0,7.431130507029593e-05,-0.0009373672073706985,-0.0007504331297241151,-0.0009008341585285962
zero_steer,36,False,-3.2698137760162354,3.716256469488144e-05,-0.014388288742047752,-2.0031118392944336,-0.0002809354627970606,-1.4031118154525757,-0.0004316092818044126,0.17011681199073792,0.09698906540870667,0.17011681199073792,0.0,3.4023362398147583,0.0,-0.0036547346971929073,0.0030632144771516323,-0.0002957601100206375,6.118722376413643e-05,-0.0002694177092052996,-0.00042601567110978067,-0.01495400549665534,0.014954005368053913,0.048112496733665466,-0.0002809338620863855,-0.014388290409574405,0.24130578339099884,15,0.3231273889541626,0.0,1.7692853361950256e-05,0.0,False,True,False,False,False,False,0.23811179399490356,0.00020108393800910562,-0.0005608935025520623,3.067431180170388e-07,-4.5274238800629973e-05,0.17011681199073792,0.0,0.0,7.648402970517054e-05,-0.0009969336679205298,-0.0008026682189665735,-0.0009592193528078496
zero_steer,37,False,-3.2619504928588867,4.087388515472412e-05,-0.015164317293164213,-1.995248556137085,-0.0002943806757684797,-1.395248532295227,-0.0004531810409389436,0.16991864144802094,0.09696072340011597,0.16991864144802094,0.0,3.3983728289604187,0.0,-0.003658585948869586,0.0031065153889358044,-0.0002760352799668908,6.498060247395188e-05,-0.000282808585325256,-0.0004475462483242154,-0.015731288027814733,0.015731288120150566,0.04024947062134743,-0.0002943789877463132,-0.015164318960690865,0.24130578339099884,15,0.31526410579681396,0.0,1.7678228687145747e-05,0.0,False,True,False,False,False,False,0.23796431720256805,0.0002571117947809398,-0.0005827398272231221,2.622982719913125e-07,-0.00019569520372897387,0.16991864144802094,0.0,0.0,8.122574945446104e-05,-0.001048752572387457,-0.0008410828304477036,-0.001010954612866044
zero_steer,38,False,-3.25408673286438,4.134373739361763e-05,-0.0160349379611894,-1.9873847961425781,-0.00031315864180214703,-1.3873847723007202,-0.00048107613110914826,0.17000830173492432,0.09695196151733398,0.17000830173492432,0.0,3.4001660346984863,0.0,-0.0035867097321897745,0.003220844781026244,-0.00018293247558176517,6.582040077773854e-05,-0.00030147083452902734,-0.00047544605331495404,-0.01661340795963787,0.01661340892314911,0.03238614648580551,-0.0003131568373646587,-0.016034939628716053,0.24130578339099884,15,0.3074004650115967,0.0,1.7826670955400914e-05,0.0,False,True,False,False,False,False,0.2381190061569214,-0.0002569736971054226,-0.0004903250373899937,0.0,0.00017358861805405468,0.17000830173492432,0.0,0.0,8.227550279116258e-05,-0.001107560470700264,-0.000894733821041882,-0.0010689959162846208
zero_steer,39,False,-3.246220588684082,4.276074469089508e-05,-0.016990585813242653,-1.9795186519622803,-0.0003328691818751395,-1.3795186281204224,-0.0005107941688038409,0.16992813348770142,0.09691959619522095,0.16992813348770142,0.0,3.3985626697540283,0.0,-0.0034524924121797085,0.0032704679761081934,-9.101221803575754e-05,6.738622323609889e-05,-0.0003211532603017986,-0.0005051931948401034,-0.017574516961479155,0.01757451705634594,0.0245207492262125,-0.0003328672901261598,-0.016990587480769304,0.24130578339099884,15,0.2995344400405884,0.0,1.7996326278080232e-05,0.0,False,True,False,False,False,False,0.23817549645900726,-0.0004802522307727486,-0.00021096224372740835,2.385509674240893e-07,0.0001452467404305935,0.16992813348770142,0.0,0.0,8.423277904512361e-05,-0.0011716344160959125,-0.0009510494419373572,-0.0011327058309689164
zero_steer,40,False,-3.2383551597595215,4.535214975476265e-05,-0.017781206890098072,-1.9716532230377197,-0.0003477568970993161,-1.3716531991958618,-0.0005339612835086882,0.16995254158973694,0.09674066305160522,0.16995254158973694,0.0,3.3990508317947388,0.0,-0.003465628484264016,0.003322348929941654,-7.163977716118097e-05,7.123609975678846e-05,-0.00033553590765222907,-0.0005282120546326041,-0.018399215613011916,0.01839921623468399,0.01665669120848179,-0.00034775491803884506,-0.017781208557624727,0.24130578339099884,15,0.2916703224182129,0.0,1.9403747501200996e-05,0.0,False,True,False,False,False,False,0.23804180324077606,0.0005451628821901977,-0.0005222715553827584,0.0,-0.00030931169749237597,0.16995254158973694,0.0,0.0,8.904512651497498e-05,-0.0012266143457964063,-0.0009935854468494654,-0.0011854139156639576
zero_steer,41,False,-3.230491876602173,4.640687257051468e-05,-0.01871223037606891,-1.963789939880371,-0.00036728536360897124,-1.3637899160385132,-0.0005632393877021968,0.16986605525016785,0.09678211808204651,0.16986605525016785,0.0,3.397321105003357,0.0,-0.003440829459577799,0.0034126373939216137,-1.4096032828092575e-05,7.474103767890483e-05,-0.00035397126339375973,-0.0005570398643612862,-0.019391622422600268,0.01939162239432335,0.008797448128461838,-0.00036728326813317835,-0.01871223204359556,0.24130578339099884,15,0.2838094234466553,0.0,2.19466419366654e-05,0.0,False,True,False,False,False,False,0.23800912499427795,-0.00022015528520569205,-0.00011504285066621378,0.0,0.0014126477763056755,0.16986605525016785,0.0,0.0,9.342629346065223e-05,-0.001292774803005159,-0.001049380749464035,-0.0012474821414798498
zero_steer,42,False,-3.222630500793457,4.7734007239341736e-05,-0.019609114588876247,-1.9559285640716553,-0.00038578666863031685,-1.3559285402297974,-0.0005911328480578959,0.16997212171554565,0.09673537313938141,0.16997212171554565,0.0,3.399442434310913,0.0,-0.0033431758638471365,0.0034972066059708595,7.701537106186152e-05,7.725732575636357e-05,-0.0003720034728758037,-0.0005848053260706365,-0.02032107509846413,0.020321074873209,0.0010053663281723857,-0.00038578445673920214,-0.0196091162564029,0.24130578339099884,15,0.2759493589401245,0.0,2.3364716980722733e-05,0.0,False,True,False,False,False,False,0.238180011510849,-0.0005842882674187422,-0.00028038336313329637,0.0,0.0007547001587226987,0.16997212171554565,0.0,0.0,9.657166083343327e-05,-0.0013547383714467287,-0.0011022413382306695,-0.0013072744477540255
zero_steer,43,False,-3.214763641357422,4.883715882897377e-05,-0.020605748578529533,-1.9480617046356201,-0.0004067172412760556,-1.3480616807937622,-0.0006225001416169107,0.16988232731819153,0.09670449048280716,0.16988232731819153,0.0,3.3976465463638306,0.0,-0.0032290129456669092,0.0035663817543536425,0.00016868440434336662,7.826855289749801e-05,-0.00039302706136368215,-0.0006162661593407393,-0.021317759113917003,0.02131775952875614,0.006950367707759142,-0.00040671491296961904,-0.020605748578529533,0.24130578339099884,15,0.26808249950408936,0.0,2.3363374566542916e-05,0.0,False,True,False,False,False,False,0.2381705939769745,-0.0003614822053350508,-0.00044942929525859654,0.0,-0.0006212557200342417,0.16988232731819153,0.0,0.0,9.783569112187251e-05,-0.0014211839297786355,-0.0011620426084846258,-0.0013737165136262774
zero_steer,44,False,-3.2068967819213867,4.969025030732155e-05,-0.021495452421569767,-1.940194845199585,-0.00042553385719656944,-1.340194821357727,-0.0006506337085738778,0.16992132365703583,0.09658472239971161,0.16992132365703583,0.0,3.3984264731407166,0.0,-0.0032825337257236242,0.0036308690905570984,0.00017416768241673708,7.994576299097389e-05,-0.0004115462943445891,-0.0006443518213927746,-0.022231288577772942,0.022231288254261017,0.014811431057751179,-0.0004255314124748111,-0.021495452421569767,0.24130578339099884,15,0.26021599769592285,0.0,2.386892811045982e-05,0.0,False,True,False,False,False,False,0.23810173571109772,0.0004523704410530627,-0.0007056883187033236,3.226430465019803e-07,-5.774697638116777e-05,0.16992132365703583,0.0,0.0,9.993220737669617e-05,-0.0014820859069004655,-0.001215804019011557,-0.0014330301200971007
zero_steer,45,False,-3.1990318298339844,5.1859766244888306e-05,-0.02241295226638611,-1.9323298931121826,-0.0004436484887264669,-1.3323298692703247,-0.0006783563876524568,0.16992253065109253,0.09654732793569565,0.16992253065109253,0.0,3.3984506130218506,0.0,-0.0033384812995791435,0.0037336850073188543,0.0001976018538698554,8.326083479914814e-05,-0.00042911895434372127,-0.0006718183867633343,-0.0231760891689495,0.02317608892917633,0.02267460897564888,-0.00044364595669321716,-0.02241295226638611,0.24130578339099884,15,0.2523517608642578,0.0,2.465866054990329e-05,0.0,False,True,False,False,False,False,0.23812496662139893,0.00048419073573313653,-0.0007508912240155041,2.109597119215323e-07,-5.7505458244122565e-05,0.16992253065109253,0.0,0.0,0.00010407603986095637,-0.0015450726496055722,-0.0012675599427893758,-0.0014941968256607652
zero_steer,46,False,-3.191167116165161,5.371728911995888e-05,-0.023454681179312018,-1.9244651794433594,-0.00046482167090289295,-1.3244651556015015,-0.0007104385294951499,0.16990697383880615,0.0967051312327385,0.16990697383880615,0.0,3.398139476776123,0.0,-0.0033624283969402313,0.003757323371246457,0.0001974474871531129,8.542304567527026e-05,-0.0004501991788856685,-0.0007039078627713025,-0.02422739468744264,0.02422739565372467,0.030538519844412804,-0.0004648190224543214,-0.023454681179312018,0.24130578339099884,15,0.24448740482330322,0.0,2.5060182451852597e-05,0.0,False,True,False,False,False,False,0.2379281371831894,0.00019754341337829828,-0.000657761178445071,3.1699991609457356e-07,0.00015280346269719303,0.16990697383880615,0.0,0.0,0.00010677881073206663,-0.0016151596792042255,-0.0013280543498694897,-0.0015636454336345196
zero_steer,47,False,-3.183305501937866,5.515431985259056e-05,-0.02446819887632526,-1.9166035652160645,-0.00048579162103123963,-1.316603660583496,-0.0007420220063067973,0.1698371320962906,0.09662960469722748,0.1698371320962906,0.0,3.3967426419258118,0.0,-0.003362734103575349,0.0038637390825897455,0.00025050248950719833,8.687997615197673e-05,-0.00047125446144491434,-0.000735626497771591,-0.025245674840576382,0.025245675817131996,0.03839967027306557,-0.0004857888270635158,-0.02446820054385191,0.24130578339099884,15,0.2366260290145874,0.0,2.5202694814652205e-05,0.0,False,True,False,False,False,False,0.2379828244447708,-0.00021723718964494765,-0.0005171507364138961,1.7935535367996636e-07,0.0007331077940762043,0.1698371320962906,0.0,0.0,0.00010859996837098151,-0.001683044945821166,-0.0013879680773243308,-0.0016312133520841599
zero_steer,48,False,-3.1754448413848877,5.59147447347641e-05,-0.02549349097903417,-1.908742904663086,-0.0005076983943581581,-1.3087430000305176,-0.0007746656192466617,0.1696774661540985,0.0967089831829071,0.1696774661540985,0.0,3.39354932308197,0.0,-0.0033223270438611507,0.003951413556933403,0.00031454325653612614,8.833207539282739e-05,-0.0004929086426272988,-0.0007682255818508565,-0.02629082718572056,0.026290828362107277,0.0462600439786911,-0.0005076954839751124,-0.02549349097903417,0.24130578339099884,15,0.2287660837173462,0.0,2.5897643354255706e-05,0.0,False,True,False,False,False,False,0.2379259616136551,0.0003497804282233119,-0.000750420440454036,3.4337188026256626e-07,-0.00016188807785511017,0.1696774661540985,0.0,0.0,0.00011041509424103424,-0.001752721844241023,-0.0014505585422739387,-0.0016995660262182355
zero_steer,49,False,-3.1675865650177,5.81410713493824e-05,-0.026555803840962674,-1.9008846282958984,-0.0005289578111842275,-1.30088472366333,-0.0008070495678111911,0.1696552038192749,0.09665529429912567,0.1696552038192749,0.0,3.393104076385498,0.0,-0.0033367075957357883,0.004004407208412886,0.00033384980633854866,9.134442370850593e-05,-0.0005139034474268556,-0.0008005918352864683,-0.02737672220957346,0.027376722544431686,0.054118119180202484,-0.00052895478438586,-0.026555803840962674,0.24130578339099884,15,0.22090840339660645,0.0,2.6693860490922816e-05,0.0,False,True,False,False,False,False,0.23780690133571625,0.0005312220891937613,-0.0007182291592471302,1.4984929919137358e-07,4.671188071370125e-05,0.1696552038192749,0.0,0.0,0.0001141805259976536,-0.0018251148285344243,-0.0015112994005903602,-0.0017703869380056858
zero_steer,50,False,-3.1597299575805664,5.878182128071785e-05,-0.027658229056525128,-1.8930280208587646,-0.0005526896566152573,-1.2930281162261963,-0.0008423259132541716,0.16944639384746552,0.09670686721801758,0.16944639384746552,0.0,3.3889278769493103,0.0,-0.003236996941268444,0.004124226048588753,0.00044361455366015434,9.1931113274768e-05,-0.0005377320339903235,-0.0008359851781278849,-0.0284810817560532,0.02848108299076557,0.06197460740804672,-0.0005526865134015679,-0.027658229056525128,0.24130578339099884,15,0.2130521535873413,0.0,2.698116259125527e-05,0.0,False,True,False,False,False,False,0.23798294365406036,-0.00035954578197561204,-0.00039179835584945977,0.0,-0.00012867314217146486,0.16944639384746552,0.0,0.0,0.00011491389159346,-0.0018987387884408236,-0.00157910434063524,-0.0018438819097355008
zero_steer,51,False,-3.151869773864746,6.011594086885452e-05,-0.02879343617855567,-1.8851678371429443,-0.0005764528177678585,-1.285167932510376,-0.000877976999618113,0.1694898009300232,0.0966857299208641,0.1694898009300232,0.0,3.389796018600464,0.0,-0.0031712481286376715,0.004250388126820326,0.0005395699990913272,9.323794074589387e-05,-0.0005616018897853792,-0.0008717805612832308,-0.029619879062967293,0.02961988002061844,0.06983470171689987,-0.0005764494999311864,-0.02879343617855567,0.24130578339099884,15,0.205191969871521,0.0,2.7058631530962884e-05,0.0,False,True,False,False,False,False,0.23791834712028503,0.00051492964848876,-0.0005742590292356908,5.762233001860295e-08,0.0005317081231623888,0.1694898009300232,0.0,0.0,0.00011654742411337793,-0.001974658574908972,-0.0016469985712319613,-0.0019195623463019729
zero_steer,52,False,-3.144011974334717,6.183888763189316e-05,-0.029766708119802733,-1.877310037612915,-0.0005962471477687359,-1.2773101329803467,-0.0009079633746296167,0.169598788022995,0.09671735763549805,0.169598788022995,0.0,3.3919757604599,0.0,-0.003172731027007103,0.004361608996987343,0.0005944389849901199,9.519181185169145e-05,-0.0005813384777866304,-0.0009017911506816745,-0.030600981709376075,0.030600981786847115,0.077692411839962,-0.000596243713516742,-0.029766708119802733,0.24130578339099884,15,0.1973341703414917,0.0,2.709768887143582e-05,0.0,False,True,False,False,False,False,0.23783227801322937,0.00041886884719133377,-0.0007825583452358842,2.669139576028101e-07,-0.00013847899390384555,0.169598788022995,0.0,0.0,0.00011898976663360372,-0.002040065359324217,-0.0017035534838214517,-0.0019844472408294678
zero_steer,53,False,-3.136157274246216,6.305752322077751e-05,-0.0310197109921162,-1.869455337524414,-0.000622730003669858,-1.2694554328918457,-0.0009475676342844963,0.1697186827659607,0.09664417803287506,0.1697186827659607,0.0,3.394373655319214,0.0,-0.0032181995920836926,0.004403776954859495,0.0005927886813879013,9.728212899062783e-05,-0.0006074879202060401,-0.0009413170628249645,-0.03187833714092755,0.031878337264060974,0.08554708957672119,-0.0006227264530025423,-0.0310197109921162,0.24130578339099884,15,0.18947994709014893,0.0,2.76805894827703e-05,0.0,False,True,False,False,False,False,0.23769724369049072,0.0005375376204028726,-0.0007121965172700584,3.9948574226400524e-08,0.00032949703745543957,0.1697186827659607,0.0,0.0,0.00012160265760030597,-0.0021252224687486887,-0.0017792184371501207,-0.002067980822175741
zero_steer,54,False,-3.1283011436462402,6.358558312058449e-05,-0.03227510509764983,-1.861599326133728,-0.0006499562878161669,-1.2615994215011597,-0.0009879403514787555,0.1696997731924057,0.09673399478197098,0.1696997731924057,0.0,3.393995463848114,0.0,-0.0031022068578749895,0.004531324841082096,0.0007145589916035533,9.78612806648016e-05,-0.0006347691523842514,-0.0009817950194701552,-0.033138523718061426,0.03313852474093437,0.08160194754600525,-0.0006499525625258684,-0.03227510509764983,0.3930446207523346,16,0.18162405490875244,0.0,2.7882186259375885e-05,0.0,False,True,False,False,False,False,0.23797844350337982,-0.000260355940554291,-0.0006246635457500815,0.0,-0.00012767285807058215,0.1696997731924057,0.0,0.0,0.000122326600831002,-0.002209234982728958,-0.0018570073880255222,-0.002151673659682274
zero_steer,55,False,-3.1204397678375244,6.42961822450161e-05,-0.0334591157222289,-1.8537379503250122,-0.000675422023050487,-1.2537380456924438,-0.0010258050169795752,0.16990289092063904,0.0968533456325531,0.16990289092063904,0.0,3.3980578184127808,0.0,-0.0030698757618665695,0.004653391428291798,0.0007917578332126141,9.828724432736635e-05,-0.0006604263326153159,-0.001019806950353086,-0.034318318835262124,0.03431832045316696,0.07374107092618942,-0.0006754181813448668,-0.0334591157222289,0.3930446207523346,16,0.17376255989074707,0.0,2.7694313757820055e-05,0.0,False,True,False,False,False,False,0.23789945244789124,0.000766616896726191,-0.0007724724127911031,2.0563371094795002e-07,7.463910151273012e-06,0.16990289092063904,0.0,0.0,0.00012285905540920794,-0.002287887968122959,-0.0019297662656754255,-0.002230607671663165
zero_steer,56,False,-3.1125807762145996,6.683217361569405e-05,-0.03482150834296835,-1.8458789587020874,-0.0007030059350654483,-1.245879054069519,-0.001067655859515071,0.16980046033859253,0.09679508209228516,0.16980046033859253,0.0,3.3960092067718506,0.0,-0.0030510476790368557,0.004704698454588652,0.000826825387775898,0.00010151216702070087,-0.0006877468549646437,-0.0010615959763526917,-0.03569996138368191,0.03569996356964111,0.06588273495435715,-0.0007030019187368453,-0.03482150834296835,0.3930446207523346,16,0.16590404510498047,0.0,2.8201127861393616e-05,0.0,False,True,False,False,False,False,0.2378331869840622,4.639998951461166e-05,-0.000429325649747625,1.2703564777893916e-07,8.292132406495512e-05,0.16980046033859253,0.0,0.0,0.0001268902124138549,-0.0023799974005669355,-0.00200857687741518,-0.002321433974429965
zero_steer,57,False,-3.1047210693359375,6.689736619591713e-05,-0.03597771796319135,-1.8380192518234253,-0.0007285023457370698,-1.238019347190857,-0.0011052601039409637,0.16997908055782318,0.09696108847856522,0.16997908055782318,0.0,3.3995816111564636,0.0,-0.003051130101084709,0.004882680717855692,0.0009157753083854914,0.000102326346677728,-0.0007130263256840408,-0.0010992351453751326,-0.03688023007845201,0.03688022866845131,0.058023851364851,-0.0007284981547854841,-0.03597771796319135,0.3930446207523346,16,0.15804505348205566,0.0,2.9089118470437825e-05,0.0,False,True,False,False,False,False,0.23785778880119324,0.0007961644441820681,-0.0010298326378688216,2.1226659896456113e-07,-0.00012895706458948553,0.16997908055782318,0.0,0.0,0.0001279079297091812,-0.0024586820509284735,-0.0020814232993870974,-0.002398514421656728
zero_steer,58,False,-3.0968618392944336,6.795162335038185e-05,-0.037298989376671886,-1.830160140991211,-0.0007566588465124369,-1.2301602363586426,-0.0011472529731690884,0.1698952615261078,0.09704247862100601,0.1698952615261078,0.0,3.3979052305221558,0.0,-0.003004926024004817,0.0049795652739703655,0.0009873196249827743,0.00010388283408246934,-0.0007410016260109842,-0.0011411987943574786,-0.03821602564907874,0.03821602463722229,0.05016587674617767,-0.0007566545391455293,-0.037298989376671886,0.3930446207523346,16,0.1501864194869995,0.0,2.9558919777628034e-05,0.0,False,True,False,False,False,False,0.23807168006896973,0.00022615271154791117,-0.0007198008825071156,0.0,-0.000684091355651617,0.1698952615261078,0.0,0.0,0.0001298535498790443,-0.0025477351155132055,-0.0021618702448904514,-0.002486599376425147
zero_steer,59,False,-3.0889973640441895,6.878562271595001e-05,-0.03871922182689158,-1.8222956657409668,-0.0007872235728427768,-1.2222957611083984,-0.0011926903389394283,0.16979746520519257,0.09697842597961426,0.16979746520519257,0.0,3.3959493041038513,0.0,-0.0029129546601325274,0.005052994471043348,0.0010700199054554105,0.00010531100269872695,-0.0007713750819675624,-0.001186635927297175,-0.03965448416561392,0.03965448588132858,0.042303018271923065,-0.0007872190908528864,-0.03871922182689158,0.3930446207523346,16,0.14232242107391357,0.0,3.0103121389402077e-05,0.0,False,True,False,False,False,False,0.23802033066749573,3.6990822991356254e-05,-0.00021874744561500847,1.7076472147437016e-07,0.0005694309948012233,0.16979746520519257,0.0,0.0,0.00013163874973542988,-0.002643632236868143,-0.002249197568744421,-0.002581281354650855
zero_steer,60,False,-3.0811352729797363,7.00480304658413e-05,-0.03997724728948339,-1.8144335746765137,-0.0008137737750075758,-1.2144336700439453,-0.0012324145063757896,0.16969752311706543,0.09694144129753113,0.16969752311706543,0.0,3.3939504623413086,0.0,-0.002850628923624754,0.005135684739798307,0.0011425279080867767,0.00010707751789595932,-0.0007977763889357448,-0.0012263794196769595,-0.04092857457997914,0.04092857614159584,0.034443218261003494,-0.0008137691183947027,-0.03997724728948339,0.3930446207523346,16,0.13446080684661865,0.0,3.068590012844652e-05,0.0,False,True,False,False,False,False,0.23809964954853058,0.00014528950850944966,-0.0008276013541035354,0.0,-0.0006154280272312462,0.16969752311706543,0.0,0.0,0.00013384690100792795,-0.0027285716496407986,-0.0023250547237694263,-0.0026651497464627028
zero_steer,61,False,-3.073272466659546,7.19376839697361e-05,-0.04130556567059881,-1.8065707683563232,-0.000841250701341778,-1.2065708637237549,-0.001273801550269127,0.1695895791053772,0.09690575301647186,0.1695895791053772,0.0,3.391791582107544,0.0,-0.002884332789108157,0.005205163266509771,0.001160415238700807,0.00011034034832846373,-0.0008246380602940917,-0.0012675102334469557,-0.04229118064413016,0.04229117929935455,0.026584111154079437,-0.0008412458701059222,-0.04130556567059881,0.3930446207523346,16,0.12659943103790283,0.0,3.2005769753595814e-05,0.0,False,True,False,False,False,False,0.2381097972393036,0.00026137157692573965,-0.0007840219186618924,0.0,-0.0008315196610055864,0.1695895791053772,0.0,0.0,0.00013792543904855847,-0.0028194119222462177,-0.0024035596288740635,-0.002753704320639372
zero_steer,62,False,-3.065406560897827,7.202569395303726e-05,-0.04268428337726952,-1.7987048625946045,-0.0008716435404494405,-1.1987050771713257,-0.0013186322757974267,0.1695362627506256,0.09697544574737549,0.1695362627506256,0.0,3.390725255012512,0.0,-0.0028634481132030487,0.005260658450424671,0.0011986051686108112,0.00011023016122635454,-0.0008551949285902083,-0.0013124888064339757,-0.043668350886067034,0.04366835206747055,0.018725188449025154,-0.0008716385345906019,-0.04268428671232282,0.3930446207523346,16,0.11873352527618408,0.0,3.191708674421534e-05,0.0,False,True,False,False,False,False,0.23791538178920746,0.0008930065087042749,-0.0010040274355560541,1.9479966795188375e-07,3.397346881683916e-05,0.1695362627506256,0.0,0.0,0.00013778770517092198,-0.002911223331466317,-0.002490395912900567,-0.0028456191066652536
zero_steer,63,False,-3.057544708251953,7.314933463931084e-05,-0.044144889982807654,-1.7908430099487305,-0.0009028111817315221,-1.1908432245254517,-0.0013650953769683838,0.16946259140968323,0.09686698764562607,0.16946259140968323,0.0,3.3892518281936646,0.0,-0.0027918850537389517,0.005407758057117462,0.0013079365016892552,0.00011226181231904775,-0.0008860073867253959,-0.0013588585425168276,-0.045153960386237785,0.04515396058559418,0.010880558751523495,-0.0009028060012497008,-0.044144889982807654,0.3930446207523346,16,0.11087214946746826,0.0,3.255383126088418e-05,0.0,False,True,False,False,False,False,0.2379642128944397,0.0007699714042246342,-0.0007616394432261586,0.0,0.0005974156665615737,0.16946259140968323,0.0,0.0,0.00014032726176083088,-0.0030102638993412256,-0.002579445717856288,-0.0029429926071316004
zero_steer,64,False,-3.049684762954712,7.330533117055893e-05,-0.0456707902619642,-1.7829830646514893,-0.0009363900171592832,-1.1829832792282104,-0.00141465337947011,0.16963204741477966,0.0967831164598465,0.16963204741477966,0.0,3.3926409482955933,0.0,-0.002779183676466346,0.005502521991729736,0.0013616691576316953,0.00011238943261560053,-0.000919679063372314,-0.0014085399452596903,-0.046682778837036795,0.046682778745889664,0.0031266070436686277,-0.0009363846620544791,-0.0456707902619642,0.3930446207523346,16,0.10301220417022705,0.0,3.252127135056071e-05,0.0,False,True,False,False,False,False,0.2379552721977234,0.0004048846603836864,0.00015772484766785055,1.875490198699481e-07,0.00035351194674149156,0.16963204741477966,0.0,0.0,0.00014048679440747947,-0.0031121852807700634,-0.002675384748727083,-0.0030447193421423435
zero_steer,65,False,-3.041826009750366,7.37244263291359e-05,-0.04695618317198234,-1.775124430656433,-0.0009643884259276092,-1.1751246452331543,-0.0014561123680323362,0.16945090889930725,0.09674502909183502,0.16945090889930725,0.0,3.389018177986145,0.0,-0.002795405685901642,0.005632071290165186,0.001418332802131772,0.00011250498937442899,-0.0009479320142418146,-0.0014502303674817085,-0.04796595727165996,0.04796595871448517,0.004970004316419363,-0.0009643828961998224,-0.04695618317198234,0.3930446207523346,16,0.0951535701751709,0.0,3.256923446315341e-05,0.0,False,True,False,False,False,False,0.23781384527683258,0.0009371420019306242,-0.0009758812375366688,1.4054504049454408e-07,0.0002535654930397868,0.16945090889930725,0.0,0.0,0.00014063123671803623,-0.0031977305188775063,-0.002755379769951105,-0.003130412194877863
zero_steer,66,False,-3.0339670181274414,7.464876398444176e-05,-0.04850682954666696,-1.7672654390335083,-0.0009977458976209164,-1.1672656536102295,-0.0015057082055136561,0.16944655776023865,0.09679140150547028,0.16944655776023865,0.0,3.388931155204773,0.0,-0.0027734923642128706,0.005663950461894274,0.0014452290488407016,0.0001141745233326219,-0.0009810043266043067,-0.0014997588004916906,-0.04953740770886536,0.04953740909695625,0.012773559428751469,-0.0009977401932701468,-0.04850682954666696,0.3930446207523346,16,0.08729469776153564,0.0,3.280145756434649e-05,0.0,False,True,False,False,False,False,0.2377682328224182,0.0008082230924628675,-0.0009643703233450651,9.194200600859403e-08,0.00048288883408531547,0.16944655776023865,0.0,0.0,0.00014271815598476678,-0.003302493831142783,-0.0028506864327937365,-0.0032337885349988937
zero_steer,67,False,-3.026108503341675,7.528252899646759e-05,-0.04995690071881249,-1.7594069242477417,-0.0010291705839335918,-1.159407138824463,-0.0015523179899901152,0.16937704384326935,0.0969715416431427,0.16937704384326935,0.0,3.387540876865387,0.0,-0.002754525514319539,0.005772236734628677,0.0015088556101545691,0.00011544435983523726,-0.0010122668463736773,-0.001546430867165327,-0.051008916603659735,0.0510089173913002,0.020618749782443047,-0.0010291646467521787,-0.04995689738375918,0.3930446207523346,16,0.0794365406036377,0.0,3.320307587273419e-05,0.0,False,True,False,False,False,False,0.23780328035354614,0.00079714524326846,-0.0010513986926525831,0.0,0.0007789171650074422,0.16937704384326935,0.0,0.0,0.00014430544979404658,-0.003400594461709261,-0.0029404705855995417,-0.0033304598182439804
zero_steer,68,False,-3.018249988555908,7.593771442770958e-05,-0.05144559847834428,-1.7515485286712646,-0.00106142763979733,-1.1515487432479858,-0.0016001646872609854,0.1694529950618744,0.09707632660865784,0.1694529950618744,0.0,3.389059901237488,0.0,-0.0027402695268392563,0.005874494556337595,0.0015671125147491693,0.00011649397492874414,-0.0010443840874359012,-0.0015942583559080958,-0.05250913030225601,0.0525091327726841,0.02847123332321644,-0.001061421586200595,-0.05144559847834428,0.3930446207523346,16,0.07157862186431885,0.0,3.363087307661772e-05,0.0,False,True,False,False,False,False,0.23785221576690674,0.0009854473173618317,-0.000993505003862083,0.0,0.0004191235639154911,0.1694529950618744,0.0,0.0,0.00014561746502295136,-0.00350060872733593,-0.003032633103430271,-0.0034297064412385225
zero_steer,69,False,-3.010390281677246,7.76113010942936e-05,-0.052917590955867976,-1.7436888217926025,-0.001092297025024891,-1.1436890363693237,-0.0016464487416669726,0.16943922638893127,0.09693101048469543,0.16943922638893127,0.0,3.3887845277786255,0.0,-0.0027206020895391703,0.005985322408378124,0.001632360159419477,0.00011979989358223975,-0.0010745290201157331,-0.0016402479959651828,-0.05402218729113242,0.05402218922972679,0.03632757440209389,-0.0010922907385975122,-0.052917590955867976,0.3930446207523346,16,0.06372034549713135,0.0,3.5103686968795955e-05,0.0,False,True,False,False,False,False,0.23791201412677765,0.0008600617875345051,-0.0007083589443936944,0.0,-0.0004515670007094741,0.16943922638893127,0.0,0.0,0.00014974985970184207,-0.003601479111239314,-0.003120830748230219,-0.003527839435264468
zero_steer,70,False,-3.002532958984375,7.809186354279518e-05,-0.05459078386426946,-1.7358314990997314,-0.0011288076639175415,-1.1358317136764526,-0.0017004809342324734,0.16947363317012787,0.0969095379114151,0.16947363317012787,0.0,3.3894726634025574,0.0,-0.002754698973149061,0.00604464253410697,0.0016449717804789543,0.00012032195081701502,-0.0011110942577943206,-0.0016943803057074547,-0.0556997291090445,0.055699728429317474,0.04418289288878441,-0.001128801261074841,-0.05459078719932276,0.3930446207523346,16,0.055863022804260254,0.0,3.5119446692988276e-05,0.0,False,True,False,False,False,False,0.23785589635372162,0.0006131400587037206,-0.0007418234017677605,0.0,-0.0003741804393939674,0.16947363317012787,0.0,0.0,0.00015040244034025818,-0.0037133153527975082,-0.003225146559998393,-0.0036393858026713133
zero_steer,71,False,-2.994673252105713,7.801968604326248e-05,-0.05617137568258569,-1.7279717922210693,-0.001163823762908578,-1.1279720067977905,-0.0017520489636808634,0.16959217190742493,0.09695909917354584,0.16959217190742493,0.0,3.3918434381484985,0.0,-0.002796788467094302,0.006146101281046867,0.0016746564069762826,0.00012065462942700833,-0.0011461193207651377,-0.0017461534589529037,-0.05729904391661877,0.057299043983221054,0.0520411916077137,-0.0011638171272352338,-0.05617137568258569,0.3930446207523346,16,0.0480039119720459,0.0,3.586841557989828e-05,0.0,False,True,False,False,False,False,0.23772723972797394,0.0007833500858396292,-0.0009612152352929115,1.300136887039116e-07,0.0003363527648616582,0.16959217190742493,0.0,0.0,0.00015081829042173922,-0.0038199361879378557,-0.003325191792100668,-0.0037447584327310324
zero_steer,72,False,-2.9868171215057373,7.723737508058548e-05,-0.05778086573779556,-1.7201156616210938,-0.0012001888826489449,-1.1201159954071045,-0.001805268693715334,0.1695498526096344,0.09703435748815536,0.1695498526096344,0.0,3.390997052192688,0.0,-0.0027895395178347826,0.006253150291740894,0.0017318053869530559,0.00012039812281727791,-0.0011823619715869427,-0.0017994417576119304,-0.05892677671341065,0.0589267760515213,0.05989633500576019,-0.001200182014144957,-0.057780872407902174,0.3930446207523346,16,0.04014849662780762,0.0,3.649581776699051e-05,0.0,False,True,False,False,False,False,0.2378193438053131,0.000977200921624899,-0.0009098300361074507,4.795811037183739e-08,0.0005436670617200434,0.1695498526096344,0.0,0.0,0.00015049765352159739,-0.003928451798856258,-0.0034290915355086327,-0.0038520582020282745
zero_steer,73,False,-2.978959083557129,7.688859477639198e-05,-0.05942940259710822,-1.7122576236724854,-0.0012369835749268532,-1.112257957458496,-0.0018593267304822803,0.16967716813087463,0.09716646373271942,0.16967716813087463,0.0,3.3935433626174927,0.0,-0.0027751571033149958,0.006440157536417246,0.001832500216551125,0.00011987580364802852,-0.0012193042784929276,-0.0018536350689828396,-0.06057413963395972,0.06057414039969444,0.06775364279747009,-0.0012369764735922217,-0.05942940259710822,0.3930446207523346,16,0.03229045867919922,0.0,3.650210055639036e-05,0.0,False,True,False,False,False,False,0.2378639429807663,0.00010821527394000441,4.623690256266855e-05,4.924322638544254e-07,-0.0006797976093366742,0.16967716813087463,0.0,0.0,0.00014984475274104625,-0.0040382761508226395,-0.003534218529239297,-0.003961960319429636
zero_steer,74,False,-2.9711012840270996,7.802527397871017e-05,-0.061104920037663754,-1.7043999433517456,-0.001272889319807291,-1.1044002771377563,-0.001912778476253152,0.1698034107685089,0.09703554958105087,0.1698034107685089,0.0,3.3960682153701782,0.0,-0.002769859042018652,0.006508261896669865,0.0018692014273256063,0.00012098618026357144,-0.0012553167762234807,-0.001907231635414064,-0.06225329228261842,0.06225329264998436,0.07561074197292328,-0.001272881985642016,-0.061104920037663754,0.3930446207523346,16,0.024432778358459473,0.0,3.6554920370690525e-05,0.0,False,True,False,False,False,False,0.23782645165920258,0.0004715110990218818,-0.0006344066350720823,2.281554323246837e-08,6.212630250956863e-05,0.1698034107685089,0.0,0.0,0.0001512327289674431,-0.004150219261646271,-0.0036368058063089848,-0.004073661286383867
zero_steer,75,False,-2.963245153427124,7.700221613049507e-05,-0.06266645202633808,-1.69654381275177,-0.0013084349920973182,-1.0965441465377808,-0.0019646764267235994,0.169809490442276,0.09689749777317047,0.169809490442276,0.0,3.39618980884552,0.0,-0.0027615614235401154,0.006741189863532782,0.001989814219996333,0.00012012526713078842,-0.0012908774660900235,-0.0019592284224927425,-0.06382283506933298,0.06382283568382263,0.08346641063690186,-0.0013084275415167212,-0.06266645202633808,0.3930446207523346,16,0.016576766967773438,0.0,3.667760029202327e-05,0.0,False,True,False,False,False,False,0.2379431575536728,0.0006174376467242837,-0.0008423089166171849,2.7947082870127815e-08,-7.290812209248543e-05,0.169809490442276,0.0,0.0,0.00015015658573247492,-0.004254855681210756,-0.00373836443759501,-0.004177763592451811
zero_steer,76,False,-2.9553866386413574,7.751863449811935e-05,-0.0644667071306323,-1.688685417175293,-0.0013477189932018518,-1.0886857509613037,-0.002022812608629465,0.16982866823673248,0.09693139791488647,0.16982866823673248,0.0,3.3965733647346497,0.0,-0.002774195047095418,0.006798658519983292,0.0020122318528592587,0.00012169181718491018,-0.001329751219600439,-0.0020172575023025274,-0.0656520384363204,0.0656520426273346,0.08369625359773636,-0.0013477113097906113,-0.0644667071306323,0.5447832345962524,17,0.008718609809875488,0.0,3.707255746121518e-05,0.0,False,True,False,False,False,False,0.2377537041902542,0.0011728870449587703,-0.0007236860692501068,0.0,-0.0005214299308136106,0.16982866823673248,0.0,0.0,0.00015211477875709534,-0.00437680259346962,-0.0038506039418280125,-0.004297780338674784
zero_steer,77,False,-2.9475297927856445,7.73947685956955e-05,-0.06625788421982846,-1.68082857131958,-0.0013874423457309604,-1.0808289051055908,-0.002081293147057295,0.16996300220489502,0.09711340069770813,0.16996300220489502,0.0,3.3992600440979004,0.0,-0.0027651365380734205,0.0069334921427071095,0.0020841779187321663,0.00012292986502870917,-0.0013690497726202011,-0.002075757132843137,-0.06748560405303165,0.06748560816049576,0.07584124058485031,-0.0013874344294890761,-0.06625789088993508,0.5447832345962524,17,0.0008635520935058594,0.0,3.891035885317251e-05,0.0,False,True,False,False,False,False,0.23777005076408386,0.0007769116200506687,-0.0011461381800472736,0.0,0.0005328601691871881,0.16996300220489502,0.0,0.0,0.00015366233128588647,-0.004499040078371763,-0.003964098636060953,-0.004417192656546831
zero_steer,78,False,-2.939673662185669,7.638148963451385e-05,-0.06782118378675481,-1.6729724407196045,-0.0014230171218514442,-1.0729728937149048,-0.0021332388278096914,0.1700863242149353,0.09721598774194717,0.1700863242149353,0.0,3.401726484298706,0.0,-0.0027857874520123005,0.007170774973928928,0.002192493760958314,0.00012363959103822708,-0.0014039181405678391,-0.0021274778991937637,-0.06909487399472335,0.06909487396478653,0.06798731535673141,-0.0014230089727789164,-0.06782118378675481,0.5447832345962524,17,0.0,0.006990790367126465,4.055817407788709e-05,0.0,False,True,False,False,False,False,0.23793278634548187,0.0007269135676324368,-0.0008292527636513114,1.3984784175136156e-07,-0.00044064968824386597,0.1700863242149353,0.0,0.0,0.00015454948879778385,-0.004606324713677168,-0.004065739922225475,-0.004521412309259176
zero_steer,79,False,-2.9318134784698486,7.66846351325512e-05,-0.0695407372711584,-1.6651122570037842,-0.0014607299817726016,-1.0651127099990845,-0.0021889586932957172,0.17018209397792816,0.09716355800628662,0.17018209397792816,0.0,3.4036418795585632,0.0,-0.002824048977345228,0.007323916535824537,0.0022499337792396545,0.00012404043809510767,-0.0014416753547266126,-0.002183309756219387,-0.0708208708021135,0.0708208680152893,0.060129981487989426,-0.00146072159986943,-0.0695407306010518,0.5447832345962524,17,0.0,0.014851093292236328,4.053023076266982e-05,0.0,False,True,False,False,False,False,0.2377309799194336,0.0005388843128457665,-0.0007488544215448201,9.257241195825827e-09,0.0005369815044105053,0.17018209397792816,0.0,0.0,0.00015505054034292698,-0.0047213914804160595,-0.004173490218818188,-0.0046360488049685955
zero_steer,80,False,-2.923954486846924,7.591536268591881e-05,-0.07148227190358743,-1.657253384590149,-0.0015044229803606868,-1.0572538375854492,-0.002252983395010233,0.1701657772064209,0.09729241579771042,0.1701657772064209,0.0,3.403315544128418,0.0,-0.0027901476714760065,0.007439158391207457,0.002324505243450403,0.00012334855273365974,-0.001485418644733727,-0.0022474448196589947,-0.07276816840665472,0.07276816666126251,0.05227502062916756,-0.0015044143656268716,-0.07148226523348081,0.5447832345962524,17,0.0,0.02270948886871338,4.092208473593928e-05,0.0,False,True,False,False,False,False,0.2378164678812027,0.001212052651681006,-0.0008604438044130802,0.0,-0.0006771040498279035,0.1701657772064209,0.0,0.0,0.00015418569091707468,-0.004851211328059435,-0.004298327025026083,-0.004765484482049942
zero_steer,81,False,-2.9160947799682617,7.665017619729042e-05,-0.07332989143492877,-1.6493937969207764,-0.0015445355093106627,-1.0493942499160767,-0.0023124441504478455,0.16999158263206482,0.09724846482276917,0.16999158263206482,0.0,3.3998316526412964,0.0,-0.0027712767478078604,0.007551543414592743,0.0023901332169771194,0.00012426728790160269,-0.0015255535254254937,-0.0023070259485393763,-0.07462512608725193,0.07462512701749802,0.04442063719034195,-0.001544526661746204,-0.07332989143492877,0.5447832345962524,17,0.0,0.030568957328796387,4.110663212486543e-05,0.0,False,True,False,False,False,False,0.23781311511993408,0.0008923167479224503,-0.0008469389285892248,2.5008411341786996e-08,0.0005327935214154422,0.16999158263206482,0.0,0.0,0.00015533411351498216,-0.004975008312612772,-0.004412933252751827,-0.004888659343123436
zero_steer,82,False,-2.9082348346710205,7.64201395213604e-05,-0.0751982149771917,-1.6415338516235352,-0.001586070517078042,-1.0415343046188354,-0.002373544266447425,0.16987764835357666,0.09721142053604126,0.16987764835357666,0.0,3.397552967071533,0.0,-0.0027190293185412884,0.00773588614538312,0.0025084284134209156,0.00012411022908054292,-0.0015671547735109925,-0.0023682580795139074,-0.07649973954004936,0.07649973779916763,0.03656824305653572,-0.0015860614366829395,-0.0751982149771917,0.5447832345962524,17,0.0,0.0384289026260376,4.116395575692877e-05,0.0,False,True,False,False,False,False,0.23785753548145294,0.0011845873668789864,-0.0008466152939945459,0.0,-0.0009324215934611857,0.16987764835357666,0.0,0.0,0.00015513779362663627,-0.005099982488900423,-0.004531604237854481,-0.00501321442425251
zero_steer,83,False,-2.900376319885254,7.622037082910538e-05,-0.07708890338692247,-1.6336753368377686,-0.001628069905564189,-1.0336759090423584,-0.002435342874377966,0.16970409452915192,0.09718166291713715,0.16970409452915192,0.0,3.3940818905830383,0.0,-0.002768806414678693,0.00789222214370966,0.002561707980930805,0.0001236257521668449,-0.0016093937447294593,-0.002430274849757552,-0.07838839356726367,0.07838839292526245,0.02872149832546711,-0.0016280605923384428,-0.07708890338692247,0.5447832345962524,17,0.0,0.04628729820251465,4.116526179132052e-05,0.0,False,True,False,False,False,False,0.23780322074890137,0.0013469482073560357,-0.0012134849093854427,0.0,1.8748542061075568e-05,0.16970409452915192,0.0,0.0,0.00015453218657057732,-0.005225892644375563,-0.004651601891964674,-0.005139260087162256
zero_steer,84,False,-2.8925187587738037,7.579848170280457e-05,-0.07913863381869404,-1.625817894935608,-0.0016738073900341988,-1.0258184671401978,-0.002502545015886426,0.1697445809841156,0.0971914678812027,0.1697445809841156,0.0,3.394891619682312,0.0,-0.002732099499553442,0.008030625060200691,0.0026492627803236246,0.00012295843043830246,-0.0016553477616980672,-0.0024976800195872784,-0.08043681665813943,0.0804368183016777,0.020885055884718895,-0.001673797843977809,-0.07913862714858742,0.5447832345962524,17,0.0,0.05414474010467529,4.1139257518807426e-05,0.0,False,True,False,False,False,False,0.23778504133224487,0.001306232064962387,-0.000911651412025094,0.0,-0.0004540138761512935,0.1697445809841156,0.0,0.0,0.00015369804168585688,-0.0053624543361365795,-0.00478227948769927,-0.005275908391922712
zero_steer,85,False,-2.8846628665924072,7.554562762379646e-05,-0.08120226475264364,-1.617962121963501,-0.0017196834087371826,-1.0179626941680908,-0.0025700312107801437,0.1696656197309494,0.097205750644207,0.1696656197309494,0.0,3.393312394618988,0.0,-0.0027012513019144535,0.008141857571899891,0.0027203031349927187,0.00012241423246450722,-0.0017013979377225041,-0.002565284725278616,-0.08249514485733302,0.08249514549970627,0.01307568047195673,-0.0017196735134348273,-0.08120226475264364,0.5447832345962524,17,0.0,0.06200063228607178,4.104415711481124e-05,0.0,False,True,False,False,False,False,0.237747460603714,0.001339536625891924,-0.0009915386326611042,0.0,-0.0006004336755722761,0.1696656197309494,0.0,0.0,0.0001530177833046764,-0.005499676335602999,-0.004913352895528078,-0.005413484293967485
zero_steer,86,False,-2.876810073852539,7.368717342615128e-05,-0.08324886690441449,-1.6101093292236328,-0.0017667883075773716,-1.0101100206375122,-0.0026385681703686714,0.1694737672805786,0.09695911407470703,0.1694737672805786,0.0,3.3894753456115723,0.0,-0.002727827522903681,0.008319994434714317,0.0027960834559053183,0.00012035880354233086,-0.0017487022560089827,-0.0026340221520513296,-0.08454186040091625,0.08454186469316483,0.0054061622358858585,-0.0017667781794443727,-0.08324886690441449,0.5447832345962524,17,0.0,0.06985318660736084,4.1028655687114224e-05,0.0,False,True,False,False,False,False,0.2376164197921753,0.001247147098183632,-0.0007153691258281469,0.0,-0.0005395591724663973,0.1694737672805786,0.0,0.0,0.00015044849715195596,-0.005636123940348625,-0.005047937855124474,-0.005549924448132515
zero_steer,87,False,-2.868957281112671,7.351860404014587e-05,-0.08528324942087337,-1.6022567749023438,-0.0018119330052286386,-1.0022573471069336,-0.0027050168719142675,0.16929957270622253,0.09702825546264648,0.16929957270622253,0.0,3.3859914541244507,0.0,-0.0026935203932225704,0.008501028642058372,0.002903754124417901,0.0001203363062813878,-0.0017938673263415694,-0.002700570272281766,-0.08658377346773934,0.08658377081155777,0.003287626663222909,-0.001811922644264996,-0.08528324942087337,0.5447832345962524,17,0.0,0.0777057409286499,4.1106020944425836e-05,0.0,False,True,False,False,False,False,0.23763597011566162,0.001309951301664114,-0.0010511423461139202,0.0,-0.0005117713008075953,0.16929957270622253,0.0,0.0,0.00015042038285173476,-0.005772251635789871,-0.005176921840757132,-0.005685549695044756
zero_steer,88,False,-2.8611059188842773,7.186271250247955e-05,-0.08745689709327042,-1.5944054126739502,-0.0018616444431245327,-0.9944061040878296,-0.002777490532025695,0.1695147156715393,0.09719954431056976,0.1695147156715393,0.0,3.390294313430786,0.0,-0.0026754559949040413,0.0086867930367589,0.003005668520927429,0.00011844961409224197,-0.0018438114784657955,-0.0027732776943594217,-0.08875750785152234,0.08875750750303268,0.01075692381709814,-0.0018616337329149246,-0.08745690376337704,0.5447832345962524,17,0.0,0.08555704355239868,4.113134855288081e-05,0.0,False,True,False,False,False,False,0.2376209795475006,0.001337497727945447,-0.0008943555876612663,0.0,-0.0003867685445584357,0.1695147156715393,0.0,0.0,0.00014806201215833426,-0.005917167291045189,-0.0053189536556601524,-0.005830460228025913
zero_steer,89,False,-2.8532564640045166,6.940215826034546e-05,-0.08963211891082776,-1.5865559577941895,-0.0019121947698295116,-0.9865567684173584,-0.00285081984475255,0.16950665414333344,0.09719138592481613,0.16950665414333344,0.0,3.3901330828666687,0.0,-0.0026971057523041964,0.008856568485498428,0.003079731483012438,0.000116279574285727,-0.0018943632021546364,-0.0028467464726418257,-0.09094592981006351,0.09094592928886414,0.01854291930794716,-0.00191218382678926,-0.08963212558093438,0.5447832345962524,17,0.0,0.0934063196182251,4.1295832488685846e-05,0.0,False,True,False,False,False,False,0.23765084147453308,0.0012855797540396452,-0.0012063387548550963,0.0,-0.000265774637227878,0.16950665414333344,0.0,0.0,0.00014534946240019053,-0.0060630617663264275,-0.0054633826948702335,-0.0059754750691354275
zero_steer,90,False,-2.8454079627990723,6.721494719386101e-05,-0.09188914958597319,-1.5787076950073242,-0.0019642808474600315,-0.9787083864212036,-0.0029265412595123053,0.1696995198726654,0.09747181087732315,0.1696995198726654,0.0,3.393990397453308,0.0,-0.0026935692876577377,0.009035388007760048,0.003170909360051155,0.00011466457362985238,-0.001946345786564052,-0.0029225863981992006,-0.09322416475412638,0.0932241678237915,0.026365596801042557,-0.001964269671589136,-0.09188914958597319,0.5447832345962524,17,0.0,0.1012541651725769,4.1910327126970515e-05,0.0,False,True,False,False,False,False,0.23757511377334595,0.0012607836397364736,-0.0013208494056016207,0.0,2.5885194190777838e-05,0.1696995198726654,0.0,0.0,0.00014333071885630488,-0.006214944180101156,-0.005612199194729328,-0.006125943269580603
zero_steer,91,False,-2.8375587463378906,6.377464160323143e-05,-0.09376835874222583,-1.5708584785461426,-0.002009266521781683,-0.970859169960022,-0.002991206245496869,0.16980576515197754,0.09731762111186981,0.16980576515197754,0.0,3.396115303039551,0.0,-0.002725565107539296,0.00902776513248682,0.003151100128889084,0.0001119166990974918,-0.0019911888521164656,-0.0029873691964894533,-0.09512824006782612,0.09512823820114136,0.03420061245560646,-0.002009255113080144,-0.09376835207211923,0.5447832345962524,17,0.0,0.10910242795944214,4.2895775550277904e-05,0.0,False,True,False,False,False,False,0.2376127541065216,-0.0056069232523441315,0.006156274117529392,0.0,-0.00046766010927967727,0.16980576515197754,0.0,0.0,0.00013989587023388594,-0.006341882515698671,-0.005740729160606861,-0.006251223385334015
zero_steer,92,False,-2.829713821411133,5.952920764684677e-05,-0.0957681500857983,-1.5630134344100952,-0.0020577237010002136,-0.9630142450332642,-0.0030606049112975597,0.1695941835641861,0.09723053872585297,0.1695941835641861,0.0,3.391883671283722,0.0,-0.0026849873829632998,0.00904169026762247,0.0031783515587449074,0.00010960387589875609,-0.00203893706202507,-0.0030566384084522724,-0.09718337995605948,0.09718338400125504,0.04203697666525841,-0.0020577118266373873,-0.0957681500857983,0.5447832345962524,17,0.0,0.11694538593292236,4.495774192037061e-05,0.0,False,True,False,False,False,False,0.23739857971668243,-0.0016411446267738938,0.0024902692530304193,0.0,-0.0004593950870912522,0.1695941835641861,0.0,0.0,0.0001370048412354663,-0.006478891707956791,-0.005879176780581474,-0.006384543143212795
zero_steer,93,False,-2.821871757507324,5.8026984333992004e-05,-0.09797342073363972,-1.5551714897155762,-0.0021079801954329014,-0.9551724195480347,-0.003133955178782344,0.1695786714553833,0.09731180965900421,0.1695786714553833,0.0,3.391573429107666,0.0,-0.002660533878952265,0.00921919196844101,0.0032793290447443724,0.00010890059638768435,-0.0020889893639832735,-0.0031300662085413933,-0.09941555781397106,0.09941555559635162,0.049873098731040955,-0.0021079680882394314,-0.09797342740374633,0.5447832345962524,17,0.0,0.12478667497634888,4.5612607209477574e-05,0.0,False,True,False,False,False,False,0.23733654618263245,0.001419175649061799,-0.001231122761964798,0.0,-6.53755123494193e-05,0.1695786714553833,0.0,0.0,0.00013612574548460543,-0.0066277040168643,-0.0060227662324905396,-0.006531561724841595
zero_steer,94,False,-2.81402850151062,5.5753160268068314e-05,-0.10029717915532499,-1.5473283529281616,-0.0021616278681904078,-0.9473292827606201,-0.0032119369134306908,0.1696838140487671,0.09740109741687775,0.1696838140487671,0.0,3.393676280975342,0.0,-0.0026799659244716167,0.009401654824614525,0.003360844450071454,0.00010668767208699137,-0.0021426784805953503,-0.0032081380486488342,-0.1017439452896446,0.10174394398927689,0.057712163776159286,-0.002161615528166294,-0.10029717915532499,0.5447832345962524,17,0.0,0.13262969255447388,4.570603050524369e-05,0.0,False,True,False,False,False,False,0.23736892640590668,0.0012789525790140033,-0.00135718728415668,8.163991793708192e-08,-0.0001211742201121524,0.1696838140487671,0.0,0.0,0.0001333595864707604,-0.006782929413020611,-0.006176044698804617,-0.006686478387564421
zero_steer,95,False,-2.806185007095337,5.269469693303108e-05,-0.10277108167683155,-1.539484977722168,-0.0022193798795342445,-0.9394859075546265,-0.0032955955248326063,0.16956102848052979,0.09729302674531937,0.16956102848052979,0.0,3.3912205696105957,0.0,-0.002682201098650694,0.00951305590569973,0.003415427403524518,0.00010356288112234324,-0.0022005713544785976,-0.0032919729128479958,-0.10422121621498988,0.10422121733427048,0.06555262207984924,-0.0022193670738488436,-0.10277108167683155,0.5447832345962524,17,0.0,0.14047294855117798,4.58009380963631e-05,0.0,False,True,False,False,False,False,0.23725414276123047,0.0017849401338025928,-0.0014228023355826735,0.0,-0.0006590394768863916,0.16956102848052979,0.0,0.0,0.00012945360504090786,-0.006948080845177174,-0.0063410489819943905,-0.006851405370980501
zero_steer,96,False,-2.7983415126800537,5.321763455867767e-05,-0.10514161088607554,-1.5316414833068848,-0.002271264558658004,-0.9316425323486328,-0.0033723043743520975,0.16958528757095337,0.09710868448019028,0.16958528757095337,0.0,3.3917057514190674,0.0,-0.0026662691961973906,0.009618213400244713,0.0034759719856083393,0.00010397209553048015,-0.0022526714019477367,-0.003368944860994816,-0.1065963477977957,0.10659635066986084,0.07339368760585785,-0.002271251520141959,-0.10514160421596894,0.5447832345962524,17,0.0,0.14831626415252686,4.5915974624222144e-05,0.0,False,True,False,False,False,False,0.23734688758850098,0.0013559276703745127,-0.000886711583007127,9.084289587235617e-08,-0.00026292353868484497,0.16958528757095337,0.0,0.0,0.00012996511941310018,-0.007106422912329435,-0.00648929039016366,-0.00700944010168314
zero_steer,97,False,-2.790496826171875,5.126558244228363e-05,-0.1075246465452158,-1.5237970352172852,-0.002325901063159108,-0.9237980842590332,-0.0034518959000706673,0.16968785226345062,0.09719570726156235,0.16968785226345062,0.0,3.3937570452690125,0.0,-0.002664675936102867,0.009792517870664597,0.0035639209672808647,0.00010298238339601085,-0.0023070811294019222,-0.0034486581571400166,-0.10901263393839349,0.10901263356208801,0.08123628795146942,-0.00232588779181242,-0.10752465321532241,0.5447832345962524,17,0.0,0.1561594009399414,4.7268553316826e-05,0.0,False,True,False,False,False,False,0.23741640150547028,0.001446746289730072,-0.001392875681631267,6.457668177972664e-08,-0.00022146823175717145,0.16968785226345062,0.0,0.0,0.00012872797378804535,-0.007267508655786514,-0.0066453940235078335,-0.0071683102287352085
zero_steer,98,False,-2.782650947570801,4.91878017783165e-05,-0.11007305415757103,-1.515951156616211,-0.0023843192029744387,-0.9159523248672485,-0.0035370008554309607,0.1695268452167511,0.0972173660993576,0.1695268452167511,0.0,3.390536904335022,0.0,-0.0026627618353813887,0.009900528937578201,0.0036188834346830845,0.00010251752973999828,-0.002365078777074814,-0.003533907700330019,-0.11161499604312786,0.11161499470472336,0.08598415553569794,-0.002384305465966463,-0.11007305415757103,0.6965218186378479,18,0.0,0.16400301456451416,4.954964970238507e-05,0.0,False,True,False,False,False,False,0.23753690719604492,0.0013566508423537016,-0.001266192295588553,1.204026176537809e-07,-0.00011913069465663284,0.1695268452167511,0.0,0.0,0.00012814691581297666,-0.007440999615937471,-0.006812301464378834,-0.007338203489780426
zero_steer,99,False,-2.7748031616210938,4.3011270463466644e-05,-0.11199139682931242,-1.508103609085083,-0.0024329067673534155,-0.908104658126831,-0.003605677280575037,0.16952037811279297,0.09725430607795715,0.16952037811279297,0.0,3.3904075622558594,0.0,-0.0027216211892664433,0.009915567003190517,0.003596972906962037,9.667353879194707e-05,-0.0024136852007359266,-0.003602769458666444,-0.11354922690881745,0.11354922503232956,0.07814142853021622,-0.0024328927975147963,-0.11199139682931242,0.6965218186378479,18,0.0,0.17184990644454956,5.0318983994657174e-05,0.0,False,True,False,False,False,False,0.23766759037971497,-0.007147751748561859,0.007630693726241589,6.412165798330705e-10,-0.0003078486770391464,0.16952037811279297,0.0,0.0,0.00012084192712791264,-0.007569948211312294,-0.006951122544705868,-0.007466093171387911
zero_steer,100,False,-2.7669589519500732,3.9513688534498215e-05,-0.11424293133661009,-1.5002593994140625,-0.0024861812125891447,-0.9002605676651001,-0.003682529553771019,0.16936540603637695,0.09728828817605972,0.16936540603637695,0.0,3.387308120727539,0.0,-0.0026630377396941185,0.01010893378406763,0.003722948022186756,9.318001684732735e-05,-0.002467098645865917,-0.003679828252643347,-0.11580723141952813,0.11580723524093628,0.0703033059835434,-0.002486167009919882,-0.11424293133661009,0.6965218186378479,18,0.0,0.17969393730163574,5.0413898861734197e-05,0.0,False,True,False,False,False,False,0.23737964034080505,0.0014005362754687667,-0.0014514382928609848,1.1304687319579898e-07,-0.00012926991621498019,0.16936540603637695,0.0,0.0,0.00011647502105915919,-0.00772048206999898,-0.00710333464667201,-0.007616195362061262
zero_steer,101,False,-2.759115219116211,3.534788265824318e-05,-0.11674799659620483,-1.4924159049987793,-0.0025457292795181274,-0.8924170732498169,-0.003768310649320483,0.16945265233516693,0.09707847982645035,0.16945265233516693,0.0,3.3890530467033386,0.0,-0.0026715684216469526,0.010274057276546955,0.0038012443110346794,8.910348697099835e-05,-0.0025267915334552526,-0.003765864996239543,-0.11832288880842168,0.11832288652658463,0.06246773153543472,-0.0025457146111875772,-0.11674799659620483,0.6965218186378479,18,0.0,0.18753695487976074,5.0906106480397284e-05,0.0,False,True,False,False,False,False,0.2374371737241745,0.0012720280792564154,-0.0015008299378678203,7.35756060521453e-08,0.00014086117153055966,0.16945265233516693,0.0,0.0,0.00011137935507576913,-0.007888192310929298,-0.007273470517247915,-0.007783199660480022
zero_steer,102,False,-2.751268148422241,3.184657543897629e-05,-0.1194343019926429,-1.4845688343048096,-0.0026086196303367615,-0.8845701217651367,-0.003859332064166665,0.16961148381233215,0.09722885489463806,0.16961148381233215,0.0,3.392229676246643,0.0,-0.002642782172188163,0.010390845127403736,0.003874031361192465,8.556272950954735e-05,-0.0025898900348693132,-0.0038571746554225683,-0.12101683814703636,0.12101683765649796,0.05463108420372009,-0.0026086047291755676,-0.1194343019926429,0.6965218186378479,18,0.0,0.19538378715515137,5.112325379741378e-05,0.0,False,True,False,False,False,False,0.23737630248069763,0.0015549564268440008,-0.0013969395076856017,1.5872043235276578e-08,-0.00016681404667906463,0.16961148381233215,0.0,0.0,0.00010695341188693419,-0.008067789487540722,-0.0074531566351652145,-0.007962286472320557
zero_steer,103,False,-2.743424415588379,2.7997419238090515e-05,-0.12206104333704172,-1.4767251014709473,-0.002670540940016508,-0.876726508140564,-0.0039487602189183235,0.1696203052997589,0.09731067717075348,0.1696203052997589,0.0,3.3924061059951782,0.0,-0.00263943406753242,0.01055826060473919,0.003959413152188063,8.186754712369293e-05,-0.0026518877130001783,-0.003946788143366575,-0.12365399819796208,0.12365400046110153,0.04680129140615463,-0.002670525573194027,-0.12206104333704172,0.6965218186378479,18,0.0,0.20322728157043457,5.128621342009865e-05,0.0,False,True,False,False,False,False,0.2374965101480484,0.0015049318317323923,-0.0014544071163982153,1.2520705183760583e-07,-0.00012645425158552825,0.1696203052997589,0.0,0.0,0.00010233443754259497,-0.008243599906563759,-0.007630073465406895,-0.008137403056025505
zero_steer,104,False,-2.735579490661621,2.5725457817316055e-05,-0.12475986185348267,-1.4688804149627686,-0.0027324785478413105,-0.8688818216323853,-0.004038959741592407,0.16958090662956238,0.09722872078418732,0.16958090662956238,0.0,3.3916181325912476,0.0,-0.0026493046898394823,0.010670281015336514,0.004010488279163837,7.931126310722902e-05,-0.0027140823658555746,-0.004037231672555208,-0.1263515760745733,0.12635158002376556,0.03897624835371971,-0.0027324629481881857,-0.12475986185348267,0.6965218186378479,18,0.0,0.21107196807861328,5.1316339522600174e-05,0.0,False,True,False,False,False,False,0.2373475879430771,0.0016885424265637994,-0.0015866627218201756,0.0,-0.0002450137981213629,0.16958090662956238,0.0,0.0,9.913907706504688e-05,-0.008423438295722008,-0.007807037327438593,-0.008317324332892895
zero_steer,105,False,-2.727738857269287,1.9588973373174667e-05,-0.127404905970423,-1.4610397815704346,-0.002797091845422983,-0.8610413074493408,-0.004131271969527006,0.16949555277824402,0.09727532416582108,0.16949555277824402,0.0,3.3899110555648804,0.0,-0.002666301326826215,0.010819203220307827,0.004076451063156128,7.309128704946488e-05,-0.0027788819279521704,-0.0041297790594398975,-0.12900127592592836,0.12900127470493317,0.031165488064289093,-0.002797075780108571,-0.1274048926302098,0.6965218186378479,18,0.0,0.21891248226165771,5.1327635446796194e-05,0.0,False,True,False,False,False,False,0.2373262196779251,0.0016174265183508396,-0.0015538431471213698,8.405343265849297e-08,-0.00019793167302850634,0.16949555277824402,0.0,0.0,9.136411244980991e-05,-0.00860008504241705,-0.007991645485162735,-0.00849365908652544
zero_steer,106,False,-2.7198948860168457,1.7803162336349487e-05,-0.1301536702451697,-1.4531960487365723,-0.0028596478514373302,-0.8531975746154785,-0.004222612828016281,0.1693042516708374,0.09752420336008072,0.1693042516708374,0.0,3.386085033416748,0.0,-0.0026342221535742283,0.01092483103275299,0.004145304672420025,7.115233893273398e-05,-0.0028416290879249573,-0.004221328999847174,-0.13175174774796755,0.13175174593925476,0.023371588438749313,-0.0028596315532922745,-0.1301536702451697,0.6965218186378479,18,0.0,0.2267562747001648,5.128110569785349e-05,0.0,False,True,False,False,False,False,0.23745205998420715,0.0014158554840832949,-0.0014542349381372333,0.0,-0.00022666297445539385,0.1693042516708374,0.0,0.0,8.894042548490688e-05,-0.008783449418842793,-0.008170375600457191,-0.00867691170424223
zero_steer,107,False,-2.7120509147644043,1.2570060789585114e-05,-0.13281357535964008,-1.44535231590271,-0.0029236855916678905,-0.8453538417816162,-0.0043145050294697285,0.16928619146347046,0.09743040800094604,0.16928619146347046,0.0,3.385723829269409,0.0,-0.0026699136942625046,0.011066555045545101,0.004198320675641298,6.577625026693568e-05,-0.0029058384243398905,-0.0043134065344929695,-0.13441296020333376,0.1344129592180252,0.015628162771463394,-0.0029236688278615475,-0.13281357535964008,0.6965218186378479,18,0.0,0.23460006713867188,5.1248014642624184e-05,0.0,False,True,False,False,False,False,0.23750469088554382,0.0017752612475305796,-0.0015259047504514456,0.0,-0.00025148148415610194,0.16928619146347046,0.0,0.0,8.2220314652659e-05,-0.008960863575339317,-0.00835333950817585,-0.00885423831641674
zero_steer,108,False,-2.70420241355896,3.9013102650642395e-06,-0.13480530921442604,-1.4375038146972656,-0.0029763884376734495,-0.8375054597854614,-0.004388065077364445,0.16933925449848175,0.09733022749423981,0.16933925449848175,0.0,3.386785089969635,0.0,-0.0025190438609570265,0.010675890371203423,0.004078423138707876,5.688914461643435e-05,-0.002958760131150484,-0.004387185908854008,-0.13640470739833294,0.13640470802783966,0.008072491735219955,-0.002976371441036463,-0.13480530921442604,0.6965218186378479,18,0.0,0.24244844913482666,5.124824383528903e-05,0.0,False,True,False,False,False,False,0.23749268054962158,0.0016906291712075472,-0.0015498371794819832,1.085072742768034e-08,-0.00011976130190305412,0.16933925449848175,0.0,0.0,7.111143349902704e-05,-0.00909364689141512,-0.008503918536007404,-0.008987020701169968
zero_steer,109,False,-2.696357011795044,-7.539056241512299e-07,-0.13750037913095142,-1.4296586513519287,-0.0030406261794269085,-0.8296602964401245,-0.0044805253855884075,0.16930058598518372,0.09751023352146149,0.16930058598518372,0.0,3.3860117197036743,0.0,-0.002526824828237295,0.010765716433525085,0.0041194455698132515,5.181779124541208e-05,-0.003023297991603613,-0.004479890689253807,-0.1390945212708486,0.1390945166349411,0.0030597338918596506,-0.0030406087171286345,-0.1375003657907382,0.6965218186378479,18,0.0,0.2502936124801636,5.119944762554951e-05,0.0,False,True,False,False,False,False,0.237393319606781,0.0015683530364185572,-0.001721520209684968,9.861384597797951e-08,0.00013907699030824006,0.16930058598518372,0.0,0.0,6.47722408757545e-05,-0.009272968396544456,-0.008687453344464302,-0.009166690520942211
zero_steer,110,False,-2.6885147094726562,-8.20215791463852e-06,-0.14029964945295917,-1.4218164682388306,-0.003109960351139307,-0.8218182325363159,-0.0045791734009981155,0.16919049620628357,0.09740915894508362,0.16919049620628357,0.0,3.3838099241256714,0.0,-0.002564347581937909,0.010906578972935677,0.0041711158119142056,4.422391066327691e-05,-0.0030928757041692734,-0.004578828811645508,-0.14189820720343305,0.14189821481704712,0.008754606358706951,-0.0031099426560103893,-0.14029963611274593,0.6965218186378479,18,0.0,0.2581355571746826,5.133927697897889e-05,0.0,False,True,False,False,False,False,0.23739977180957794,0.001708443509414792,-0.0015174915315583348,0.0,-0.0002753719163592905,0.16919049620628357,0.0,0.0,5.527988832909614e-05,-0.00945988018065691,-0.008885550312697887,-0.00935330893844366
zero_steer,111,False,-2.680673122406006,-1.1123716831207275e-05,-0.14308543281939878,-1.4139750003814697,-0.0031744702719151974,-0.8139768838882446,-0.004672856070101261,0.1690676212310791,0.0973658338189125,0.1690676212310791,0.0,3.381352424621582,0.0,-0.002589325187727809,0.011035554111003876,0.0042231143452227116,4.096265911357477e-05,-0.003157654544338584,-0.004672747105360031,-0.14468078891869923,0.14468079805374146,0.016336461529135704,-0.0031744521111249924,-0.14308543281939878,0.6965218186378479,18,0.0,0.2659769058227539,5.1326569519005716e-05,0.0,False,True,False,False,False,False,0.2372479885816574,0.0017420912627130747,-0.001635208842344582,0.0,-0.0002481408300809562,0.1690676212310791,0.0,0.0,5.120332207297906e-05,-0.009645385667681694,-0.009069863706827164,-0.009539028629660606
zero_steer,112,False,-2.672834873199463,-1.785391941666603e-05,-0.14596863976300364,-1.4061368703842163,-0.0032449429854750633,-0.8061387538909912,-0.004773521330207586,0.16907483339309692,0.09737470746040344,0.16907483339309692,0.0,3.3814966678619385,0.0,-0.002606998896226287,0.011137614957988262,0.004265307914465666,3.408276097616181e-05,-0.0032282769680023193,-0.004773562308400869,-0.14756403588294376,0.14756403863430023,0.024082811549305916,-0.003244924359023571,-0.1459686264227904,0.6965218186378479,18,0.0,0.2738150954246521,5.1269729738123715e-05,0.0,False,True,False,False,False,False,0.2372267246246338,0.0015141696203500032,-0.001553522190079093,0.0,-0.00019408477237448096,0.16907483339309692,0.0,0.0,4.260345303919166e-05,-0.009837602265179157,-0.009271212853491306,-0.009731241501867771
zero_steer,113,False,-2.6649999618530273,-2.408260479569435e-05,-0.14884772458072268,-1.3983021974563599,-0.003314822446554899,-0.7983042001724243,-0.004873550496995449,0.16914667189121246,0.09733869135379791,0.16914667189121246,0.0,3.3829334378242493,0.0,-0.002607732778415084,0.011207862757146358,0.0043000648729503155,2.7783800760516897e-05,-0.0032982886768877506,-0.004873752593994141,-0.1504458954650131,0.15044589340686798,0.03187072277069092,-0.0033148035872727633,-0.14884772458072268,0.6965218186378479,18,0.0,0.28164970874786377,5.123520168126561e-05,0.0,False,True,False,False,False,False,0.2370678335428238,0.0015393911162391305,-0.0015643067890778184,0.0,-0.0001663982548052445,0.16914667189121246,0.0,0.0,3.472975004115142e-05,-0.010029726661741734,-0.009470867924392223,-0.009923181496560574
zero_steer,114,False,-2.6571662425994873,-3.067357465624809e-05,-0.1517543302583201,-1.3904685974121094,-0.0033856728114187717,-0.7904707193374634,-0.004974838811904192,0.169352188706398,0.09753251075744629,0.169352188706398,0.0,3.38704377412796,0.0,-0.0026180660352110863,0.011300710961222649,0.004341322463005781,2.0744682842632756e-05,-0.0033695159945636988,-0.004975384566932917,-0.1533492994914371,0.15334929525852203,0.03967618942260742,-0.0033856534864753485,-0.1517543302583201,0.6965218186378479,18,0.0,0.28948307037353516,5.1324179366929457e-05,0.0,False,True,False,False,False,False,0.23712778091430664,0.0015522153116762638,-0.0016021404881030321,0.0,-3.37663441314362e-05,0.169352188706398,0.0,0.0,2.5930854462785646e-05,-0.010223286226391792,-0.00967329554259777,-0.010116955265402794
zero_steer,115,False,-2.649332046508789,-3.68230976164341e-05,-0.15468143984364083,-1.3826346397399902,-0.0034565350506454706,-0.7826367616653442,-0.0050763534381985664,0.16936877369880676,0.09738747775554657,0.16936877369880676,0.0,3.3873754739761353,0.0,-0.002645480213686824,0.011402745731174946,0.004378632642328739,1.4459597878158092e-05,-0.003440523985773325,-0.0050770496018230915,-0.15627684930379415,0.1562768518924713,0.04749138280749321,-0.00345651526004076,-0.15468143984364083,0.6965218186378479,18,0.0,0.2973170876502991,5.127034819452092e-05,0.0,False,True,False,False,False,False,0.2371179759502411,0.0015124538913369179,-0.0015520250890403986,0.0,-0.00013916227908339351,0.16936877369880676,0.0,0.0,1.8074497347697616e-05,-0.010418456979095936,-0.009875758551061153,-0.01031209621578455
zero_steer,116,False,-2.6414971351623535,-4.336284473538399e-05,-0.15766153675588201,-1.3747999668121338,-0.0035289586521685123,-0.7748022079467773,-0.005179984495043755,0.16936689615249634,0.09742012619972229,0.16936689615249634,0.0,3.3873379230499268,0.0,-0.0026288225781172514,0.011521058157086372,0.004446117673069239,7.84876465331763e-06,-0.0035130803007632494,-0.005180842708796263,-0.1592597476608121,0.15925975143909454,0.05531278997659683,-0.0035289383959025145,-0.15766153675588201,0.6965218186378479,18,0.0,0.30515170097351074,5.123556547914632e-05,0.0,False,True,False,False,False,False,0.23714758455753326,0.0019223776180297136,-0.0017118615796789527,0.0,-0.00037654920015484095,0.16936689615249634,0.0,0.0,9.810955816647038e-06,-0.010617316700518131,-0.01008268166333437,-0.010510768741369247
zero_steer,117,False,-2.633661985397339,-4.963250830769539e-05,-0.16015060709982273,-1.3669649362564087,-0.0035902569070458412,-0.7669672966003418,-0.005267348140478134,0.16949377954006195,0.09752292931079865,0.16949377954006195,0.0,3.389875590801239,0.0,-0.002657121978700161,0.011501261033117771,0.004422069527208805,1.159191015176475e-06,-0.0035747461952269077,-0.005268549080938101,-0.16174645678701244,0.16174645721912384,0.06313729286193848,-0.0035902364179491997,-0.16015060709982273,0.6965218186378479,18,0.0,0.31298649311065674,5.1356681069592014e-05,0.0,False,True,False,False,False,False,0.23705404996871948,-0.0036210003308951855,0.004139397293329239,0.0,-0.0004034432931803167,0.16949377954006195,0.0,0.0,1.4489887689705938e-06,-0.01078309677541256,-0.01025781873613596,-0.01067670714110136
zero_steer,118,False,-2.6258344650268555,-5.676969885826111e-05,-0.16298681647224408,-1.3591375350952148,-0.003660097485408187,-0.759139895439148,-0.005366889294236898,0.16943763196468353,0.0977497324347496,0.16943763196468353,0.0,3.3887526392936707,0.0,-0.0026235124096274376,0.011668995022773743,0.0045227413065731525,-6.135982403066009e-06,-0.0036447360180318356,-0.005368235055357218,-0.1645822659530371,0.1645822674036026,0.0709569901227951,-0.003660076530650258,-0.16298682981245732,0.6965218186378479,18,0.0,0.3208138942718506,5.126862015458755e-05,0.0,False,True,False,False,False,False,0.23699446022510529,0.001563298050314188,-0.001609418774023652,0.0,-0.00020186812616884708,0.16943763196468353,0.0,0.0,-7.669978003832512e-06,-0.010972150601446629,-0.010457362048327923,-0.010865788906812668
zero_steer,119,False,-2.618002414703369,-6.449921056628227e-05,-0.16606876591244046,-1.351305603981018,-0.00373596278950572,-0.7513080835342407,-0.005475028418004513,0.16940420866012573,0.09762480854988098,0.16940420866012573,0.0,3.3880841732025146,0.0,-0.0026291757822036743,0.011787778697907925,0.004579301457852125,-1.3961522199679166e-05,-0.003720759181305766,-0.00547656137496233,-0.167667003497797,0.16766700148582458,0.07878309488296509,-0.003735941369086504,-0.16606876591244046,0.6965218186378479,18,0.0,0.3286457657814026,5.12442784383893e-05,0.0,False,True,False,False,False,False,0.2371191531419754,0.0017962075071409345,-0.0016650425968691707,0.0,-0.0002453330089338124,0.16940420866012573,0.0,0.0,-1.7451902749598958e-05,-0.011177800595760345,-0.01067411806434393,-0.011071250773966312
zero_steer,120,False,-2.6101694107055664,-7.15041533112526e-05,-0.16911004104252086,-1.3434728384017944,-0.003810204565525055,-0.7434754371643066,-0.005581118166446686,0.16934648156166077,0.09750515222549438,0.16934648156166077,0.0,3.3869296312332153,0.0,-0.0026521049439907074,0.011884219013154507,0.0046160570345819,-2.1228617697488517e-05,-0.0037952957209199667,-0.005582961719483137,-0.17070975939154512,0.1707097589969635,0.0866110771894455,-0.0038101826794445515,-0.16911004104252086,0.6965218186378479,18,0.0,0.3364782929420471,5.140031862538308e-05,0.0,False,True,False,False,False,False,0.2371174395084381,0.0017436365596950054,-0.0016546883853152394,0.0,-0.00014665322669316083,0.16934648156166077,0.0,0.0,-2.6535772121860646e-05,-0.011380650103092194,-0.01088623609393835,-0.011274002492427826
