Su2050/forklift_sim/outputs/exp83_single_point_steer_diag/exp83_force_steering_guidance_v3_seed42_point_yneg0p1_yaw0_zero_steer_steps.csv
mode,step,done,root_x,root_y,root_yaw_deg,fork_center_x,fork_center_y,tip_x,tip_y,raw_drive,raw_steer,applied_drive,applied_steer,drive_target_rad_s,steer_target_rad,left_steer_joint_pos_rad,right_steer_joint_pos_rad,mean_steer_joint_pos_rad,root_y_signed_m,center_y_signed_m,tip_y_signed_m,yaw_err_signed_deg,yaw_err_abs_deg,d_traj_m,d_traj_signed_m,yaw_traj_signed_deg,traj_s_norm,traj_closest_idx,dist_front_m,insert_depth_m,pallet_disp_xy_m,hold_counter,inserted,push_free,hold_entry,clean_insert_ready,dirty_insert,success,policy_vx_r,policy_vy_r,policy_yaw_rate,policy_lift_pos,policy_lift_vel,policy_prev_drive,policy_prev_steer,policy_prev_lift,policy_y_err_obs,policy_yaw_err_obs,policy_d_traj_signed_obs,policy_yaw_traj_err_obs,steer_target_cmd,steer_target_abs,steer_guidance_gate,steer_enforce_gate,steer_penalty_gate,steer_match,steer_wrong_sign,steer_shortfall
zero_steer,0,False,-3.5,-0.10000000149011612,0.0,-2.233297824859619,-0.10000000149011612,-1.6332979202270508,-0.10000000149011612,nan,nan,nan,nan,nan,nan,0.0,0.0,0.0,-0.10000000149011612,-0.10000000149011612,-0.10000000149011612,0.0,0.0,0.0,0.0,-6.537130939050068,0.0,0,0.5532978773117065,0.0,0.0,0.0,False,True,False,False,False,False,0.0,0.0,0.0,0.0,0.0,0.0,0.0,0.0,-0.125,0.0,0.0,-0.4358087182044983,-0.16520217061042786,0.16520217061042786,0.12126544862985611,0.0,0.0,0.8347978591918945,False,0.16520217061042786
zero_steer,1,False,-3.499772548675537,-0.10000094026327133,-0.00012246580197726396,-2.2330703735351562,-0.10000365227460861,-1.633070468902588,-0.10000493377447128,0.3543471395969391,0.2544451355934143,0.3543471395969391,0.0,7.086942791938782,0.0,0.00012133292329963297,-0.00012134106509620324,-4.070898285135627e-09,-0.10000256448984146,-0.10000479221343994,-0.10000583529472351,-0.0001003803494442047,0.00010038034815806895,0.00022748063202016056,-2.9519718736992218e-05,-6.537253028681482,0.0,0,0.553071141242981,0.0,7.670511195101426e-07,0.0,False,True,False,False,False,False,-0.0010064949747174978,6.732326710334746e-06,-0.00011455662752268836,0.0,1.4153894881019369e-05,0.3543471395969391,0.0,0.0,-0.12500320374965668,-6.692023362120381e-06,-8.434205665253103e-05,-0.43581685423851013,-0.1652267873287201,0.1652267873287201,0.12129136174917221,0.0,0.0,0.580328106880188,True,0.4196719229221344
zero_steer,2,False,-3.499140501022339,-0.10000375658273697,-0.0004625133737329961,-2.232438564300537,-0.10001397877931595,-1.6324384212493896,-0.10001882165670395,0.3698263466358185,0.2729681730270386,0.3698263466358185,0.0,7.39652693271637,0.0,0.00022103023366071284,-0.00021985266357660294,5.887850420549512e-07,-0.10000701248645782,-0.10001625865697861,-0.1000206395983696,-0.00041847576657868857,0.0004184757708571851,0.0008593742386437953,-0.00011170315701747313,-6.537592830592691,0.0,0,0.5524396896362305,0.0,1.59335638727498e-06,0.0,False,True,False,False,False,False,-0.0020254338160157204,1.3389690138865262e-05,-0.00022762238222640008,0.0,8.378932761843316e-06,0.3698263466358185,0.0,0.0,-0.12500876188278198,-2.789838436001446e-05,-0.0003191518771927804,-0.4358395040035248,-0.16529540717601776,0.16529540717601776,0.12136359512805939,0.0,0.0,0.5617364048957825,True,0.43826359510421753
zero_steer,3,False,-3.498692512512207,-0.10000527650117874,-0.0005625075995642056,-2.231990337371826,-0.10001771152019501,-1.6319904327392578,-0.10002360492944717,0.3704432547092438,0.27369898557662964,0.3704432547092438,0.0,7.4088650941848755,0.0,0.00029384478693827987,-0.00013169040903449059,8.107718895189464e-05,-0.10001016408205032,-0.10002113878726959,-0.10002634674310684,-0.0004964573378372767,0.0004964573308825493,0.0013076073955744505,-0.0001664372393861413,-6.537693148996125,0.0,0,0.5519925355911255,0.0,2.4208811737480573e-06,0.0,False,True,False,False,False,False,0.03371967747807503,3.0671508284285665e-06,-3.62161808880046e-05,0.0,3.8096266507636756e-05,0.3704432547092438,0.0,0.0,-0.12501271069049835,-3.3097156119765714e-05,-0.0004755349946208298,-0.435846209526062,-0.16533343493938446,0.16533343493938446,0.12140361964702606,0.0,0.0,0.5609675645828247,True,0.4390324354171753
zero_steer,4,False,-3.496873378753662,-0.1000053882598877,-0.0005992408146566004,-2.2301712036132812,-0.10001863539218903,-1.630171298980713,-0.10002490878105164,0.3706141412258148,0.2737122178077698,0.3706141412258148,0.0,7.412282824516296,0.0,0.00026599603006616235,-0.00011415192420827225,7.592205656692386e-05,-0.1000119224190712,-0.10002321749925613,-0.10002855956554413,-0.0005106851442311372,0.00051068514585495,0.0031266766600310802,-0.00037444409099407494,-6.537729861262914,0.0,0,0.5501739978790283,0.0,3.049375436603441e-06,0.0,False,True,False,False,False,False,0.07030539959669113,-0.00022060437186155468,0.0001274602982448414,3.1142249667936994e-08,-0.00011178150452906266,0.3706141412258148,0.0,0.0,-0.12501490116119385,-3.4045675420202315e-05,-0.0010698402766138315,-0.4358486533164978,-0.16545450687408447,0.16545450687408447,0.12153106927871704,0.0,0.0,0.5608332753181458,True,0.43916672468185425
zero_steer,5,False,-3.4938411712646484,-0.10000499337911606,-0.0005972737585287497,-2.2271389961242676,-0.1000182032585144,-1.6271390914916992,-0.10002445429563522,0.3706600069999695,0.27381372451782227,0.3706600069999695,0.0,7.41320013999939,0.0,0.0002429255109746009,-9.02408137335442e-05,7.634234498254955e-05,-0.10001316666603088,-0.10002393275499344,-0.10002902150154114,-0.00048658109857461313,0.000486581091536209,0.006158855743706226,-0.0007191994227468967,-6.537728153715621,0.0,0,0.5471423864364624,0.0,3.876488790410804e-06,0.0,False,True,False,False,False,False,0.10630691796541214,0.0004053142329212278,-0.0004526403790805489,0.0,2.143008168786764e-05,0.3706600069999695,0.0,0.0,-0.125016450881958,-3.243874016334303e-05,-0.0020548554603010416,-0.43584853410720825,-0.16565115749835968,0.16565115749835968,0.12173806875944138,0.0,0.0,0.5605351328849792,True,0.43946486711502075
zero_steer,6,False,-3.4896445274353027,-0.10000444203615189,-0.0005985884990740945,-2.222942352294922,-0.10001768171787262,-1.6229424476623535,-0.10002394765615463,0.3708181381225586,0.2740136384963989,0.3708181381225586,0.0,7.416362762451172,0.0,0.00021685061801690608,-8.923876157496125e-05,6.380592822097242e-05,-0.10001176595687866,-0.10002249479293823,-0.10002757608890533,-0.0004851978852160864,0.00048519790288992226,0.004662775434553623,8.851534221321344e-05,-22.494440852135153,0.012250503525137901,1,0.5429443120956421,0.0,2.215213498857338e-06,0.0,False,True,False,False,False,False,0.14024879038333893,0.00012001197319477797,-0.0003687929129227996,2.694985710149922e-07,4.4773652916774154e-05,0.3708181381225586,0.0,0.0,-0.12501470744609833,-3.2346524676540866e-05,0.00025290099438279867,-1.0,-0.30622661113739014,0.30622661113739014,0.2697122097015381,0.0,0.0,0.41975975036621094,True,0.5802402496337891
zero_steer,7,False,-3.484457015991211,-0.10000433772802353,-0.0006192266948031166,-2.21775484085083,-0.10001803189516068,-1.6177549362182617,-0.10002451390028,0.3906983733177185,0.30098021030426025,0.3906983733177185,0.0,7.81396746635437,0.0,0.00023032819444779307,-0.00011031366011593491,6.000726716592908e-05,-0.10001104325056076,-0.10002245008945465,-0.10002785176038742,-0.0005159678686673189,0.0005159678985364735,0.0019009645329788327,-0.0018963058246299624,-22.49445963515537,0.012250503525137901,1,0.5377570390701294,0.0,2.4219184524554294e-06,0.0,False,True,False,False,False,False,0.1674821823835373,-1.7125814338214695e-05,-4.375122443889268e-05,2.4657157382534933e-07,-0.00018384988652542233,0.3906983733177185,0.0,0.0,-0.1250137984752655,-3.439785723458044e-05,-0.005418016575276852,-1.0,-0.3073617219924927,0.3073617219924927,0.27090707421302795,0.0,0.0,0.39165806770324707,True,0.6083419322967529
zero_steer,8,False,-3.4784767627716064,-0.10000403225421906,-0.0006603035041648995,-2.2117748260498047,-0.10001862794160843,-1.6117746829986572,-0.10002554208040237,0.39139077067375183,0.3018357455730438,0.39139077067375183,0.0,7.827815413475037,0.0,0.0001893765147542581,-7.563827966805547e-05,5.686911754310131e-05,-0.1000109612941742,-0.10002321004867554,-0.10002900660037994,-0.0005540493832789468,0.0005540493875741959,0.007035557646304369,-0.00418452825397253,-22.494502323837683,0.012250503525137901,1,0.5317766666412354,0.0,2.343194864806719e-06,0.0,False,True,False,False,False,False,0.1894616186618805,0.0002727876417338848,-0.0003419420390855521,0.0,-0.00020129726908635348,0.39139077067375183,0.0,0.0,-0.12501370906829834,-3.69366243830882e-05,-0.011955794878304005,-1.0,-0.30867084860801697,0.30867084860801697,0.2722851037979126,0.0,0.0,0.3894934058189392,True,0.6105065941810608
zero_steer,9,False,-3.471857786178589,-0.10000476986169815,-0.0006915255957798819,-2.205155849456787,-0.10002005845308304,-1.6051557064056396,-0.10002730041742325,0.3914310336112976,0.30191296339035034,0.3914310336112976,0.0,7.828620672225952,0.0,0.00016759138088673353,-3.489761002128944e-05,6.634688179474324e-05,-0.10001154243946075,-0.10002451390028,-0.10003066062927246,-0.000586827537812064,0.0005868275184184313,0.006735889241099358,-0.0062674484215676785,-39.85846365639068,0.02239859662950039,2,0.5251578092575073,0.0,2.421851149847498e-06,0.0,False,True,False,False,False,False,0.20716045796871185,-3.822073631454259e-05,-1.2197142496006563e-05,0.0,-9.366250014863908e-05,0.3914310336112976,0.0,0.0,-0.12501442432403564,-3.912183456122875e-05,-0.017906995490193367,-1.0,-0.30986279249191284,0.30986279249191284,0.27353978157043457,0.0,0.0,0.3882242441177368,True,0.6117757558822632
zero_steer,10,False,-3.4647250175476074,-0.1000039130449295,-0.0006838552337278799,-2.1980228424072266,-0.10001903027296066,-1.5980229377746582,-0.1000261902809143,0.39135652780532837,0.3018491566181183,0.39135652780532837,0.0,7.827130556106567,0.0,0.00011709203681675717,1.4526212908094749e-05,6.580912304343656e-05,-0.10001062601804733,-0.10002342611551285,-0.10002949088811874,-0.0005791173114510175,0.0005791173316538334,0.011248736642301083,-0.010837679728865623,-39.85845682620151,0.02239859662950039,2,0.5180250406265259,0.0,2.3852346657804446e-06,0.0,False,True,False,False,False,False,0.2213621735572815,0.00033972857636399567,-0.00042719877092167735,0.0,-0.00014510840992443264,0.39135652780532837,0.0,0.0,-0.12501327693462372,-3.860782089759596e-05,-0.030964799225330353,-1.0,-0.31247350573539734,0.31247350573539734,0.27628788352012634,0.0,0.0,0.3856773376464844,True,0.6143226623535156
zero_steer,11,False,-3.4571776390075684,-0.10000475496053696,-0.0007152105190342576,-2.1904754638671875,-0.10002056509256363,-1.5904755592346191,-0.10002805292606354,0.3913915455341339,0.30189836025238037,0.3913915455341339,0.0,7.827830910682678,0.0,7.698682020418346e-05,7.838389137759805e-05,7.768535579089075e-05,-0.10001146793365479,-0.10002496838569641,-0.10003136843442917,-0.0006109015158786292,0.0006109015084803104,0.015851706266403198,-0.014550270512700081,-54.70700462895868,0.031632695347070694,3,0.5104776620864868,0.0,2.391481984886923e-06,0.0,False,True,False,False,False,False,0.23283538222312927,0.00013850598770659417,-0.000317129772156477,2.862352310728511e-08,7.581990212202072e-05,0.3913915455341339,0.0,0.0,-0.12501433491706848,-4.072676892974414e-05,-0.0415722019970417,-1.0,-0.3145968019962311,0.3145968019962311,0.27852293848991394,0.0,0.0,0.38350486755371094,True,0.6164951324462891
zero_steer,12,False,-3.44929575920105,-0.10000447928905487,-0.0007380312987110093,-2.182593822479248,-0.10002079606056213,-1.5825936794281006,-0.10002852231264114,0.3913193345069885,0.30186915397644043,0.3913193345069885,0.0,7.8263866901397705,0.0,6.286690040724352e-05,0.00010208250751020387,8.24747039587237e-05,-0.10001115500926971,-0.10002516955137253,-0.10003180801868439,-0.0006341322986711467,0.0006341323023661971,0.02105620503425598,-0.020982827991247177,-54.70702853462077,0.031632695347070694,3,0.5025957822799683,0.0,2.4797175228741253e-06,0.0,False,True,False,False,False,False,0.24209043383598328,0.00016812847752589732,-0.00024779324303381145,1.0560421870309256e-08,5.300892371451482e-05,0.3913193345069885,0.0,0.0,-0.12501394748687744,-4.227548561175354e-05,-0.05995094031095505,-1.0,-0.3182733654975891,0.3182733654975891,0.2823930084705353,0.0,0.0,0.37985748052597046,True,0.6201425194740295
zero_steer,13,False,-3.441143274307251,-0.10000447183847427,-0.0007269079058426487,-2.174441337585449,-0.10002054274082184,-1.5744411945343018,-0.1000281572341919,0.3913339376449585,0.3018289804458618,0.3913339376449585,0.0,7.82667875289917,0.0,3.381144779268652e-05,0.00012609249097295105,7.995196938281879e-05,-0.10001082718372345,-0.10002471506595612,-0.1000313013792038,-0.0006283246681107772,0.0006283246912062168,0.027798496186733246,-0.027636148035526276,-54.7070217044316,0.031632695347070694,3,0.494443416595459,0.0,2.452117996654124e-06,0.0,False,True,False,False,False,False,0.2495051473379135,0.00029375674785114825,-0.00040918082231655717,1.3066778592474293e-07,-0.00011149355850648135,0.3913339376449585,0.0,0.0,-0.125013530254364,-4.1888310079229996e-05,-0.07896042615175247,-1.0,-0.322074830532074,0.322074830532074,0.28639456629753113,0.0,0.0,0.3760961890220642,True,0.6239038109779358
zero_steer,14,False,-3.4327754974365234,-0.10000432282686234,-0.0007363750278630807,-2.1660733222961426,-0.10002060234546661,-1.5660734176635742,-0.10002831369638443,0.3912256062030792,0.3017430305480957,0.3912256062030792,0.0,7.8245121240615845,0.0,-2.9148482099117246e-06,0.0001809743989724666,8.902977424440905e-05,-0.10001058131456375,-0.10002470016479492,-0.10003138333559036,-0.0006386864702906631,0.0006386864697560668,0.03462492674589157,-0.033336248248815536,-64.92464319331218,0.04082300513982773,4,0.48607587814331055,0.0,2.594766101537971e-06,0.0,False,True,False,False,False,False,0.2555543780326843,0.00027493451489135623,-0.0003679431101772934,1.4505671686038113e-07,-7.648326572962105e-06,0.3912256062030792,0.0,0.0,-0.12501323223114014,-4.2579096771078184e-05,-0.09524642676115036,-1.0,-0.3253323435783386,0.3253323435783386,0.2898235321044922,0.0,0.0,0.3729246258735657,True,0.6270753741264343
zero_steer,15,False,-3.4242312908172607,-0.10000453889369965,-0.0007409027796071913,-2.157529354095459,-0.10002092272043228,-1.5575292110443115,-0.10002867877483368,0.39122819900512695,0.3018084764480591,0.39122819900512695,0.0,7.824563980102539,0.0,-1.2449161204131087e-06,0.00019182264804840088,9.528886585030705e-05,-0.10001077502965927,-0.1000250056385994,-0.10003173351287842,-0.0006432492400944833,0.0006432492518797517,0.04147528484463692,-0.041074372828006744,-64.92464319331218,0.04082300513982773,4,0.47753167152404785,0.0,2.6241755222145002e-06,0.0,False,True,False,False,False,False,0.2603824734687805,0.0002733368310146034,-0.00031463010236620903,9.520847221722306e-09,0.00014059498789720237,0.39122819900512695,0.0,0.0,-0.12501347064971924,-4.288328273105435e-05,-0.1173553541302681,-1.0,-0.32975444197654724,0.32975444197654724,0.2944783568382263,0.0,0.0,0.3684370517730713,True,0.6315629482269287
zero_steer,16,False,-3.415548801422119,-0.10000496357679367,-0.0007599042458162478,-2.1488466262817383,-0.10002176463603973,-1.54884672164917,-0.10002972185611725,0.3911416530609131,0.30170542001724243,0.3911416530609131,0.0,7.822833061218262,0.0,-1.982536559808068e-05,0.00019978175987489522,8.997819531941786e-05,-0.10001121461391449,-0.10002584755420685,-0.10003277659416199,-0.0006619266850308108,0.0006619266932830215,0.04898548126220703,-0.048938389867544174,-64.92466368387969,0.04082300513982773,4,0.46884918212890625,0.0,2.6253437681589276e-06,0.0,False,True,False,False,False,False,0.26419398188591003,0.00029065783019177616,-0.00034976119059138,3.3039961522263184e-07,-0.00021320553787518293,0.3911416530609131,0.0,0.0,-0.1250140219926834,-4.412844646140002e-05,-0.13982397317886353,-1.0,-0.33424919843673706,0.33424919843673706,0.29920968413352966,0.0,0.0,0.3640453815460205,True,0.6359546184539795
zero_steer,17,False,-3.406751871109009,-0.10000506788492203,-0.0007760921776803082,-2.140049934387207,-0.10002222657203674,-1.5400497913360596,-0.10003035515546799,0.39105063676834106,0.30162325501441956,0.39105063676834106,0.0,7.821012735366821,0.0,-5.271874397294596e-05,0.0002520305570214987,9.965591016225517e-05,-0.10001128166913986,-0.10002628713846207,-0.10003339499235153,-0.0006785585437559806,0.0006785585428588092,0.05693519115447998,-0.056905459612607956,-64.9246841744472,0.04082300513982773,4,0.4600522518157959,0.0,2.626086825330276e-06,0.0,False,True,False,False,False,False,0.26739320158958435,0.0002443608536850661,-0.00030326429987326264,2.666956504526752e-07,-0.00010240386473014951,0.39105063676834106,0.0,0.0,-0.12501409649848938,-4.5237236918183044e-05,-0.1625870317220688,-1.0,-0.3388025462627411,0.3388025462627411,0.30400267243385315,0.0,0.0,0.35957419872283936,True,0.6404258012771606
zero_steer,18,False,-3.39786434173584,-0.10000510513782501,-0.0008120092426965559,-2.131162166595459,-0.1000230610370636,-1.5311622619628906,-0.10003156214952469,0.3910117447376251,0.30158913135528564,0.3910117447376251,0.0,7.820234894752502,0.0,-3.977764936280437e-05,0.00025010580429807305,0.00010516407928662375,-0.1000114381313324,-0.10002721101045609,-0.1000346764922142,-0.0007131353342250121,0.0007131353486329317,0.0651886835694313,-0.06495517492294312,-64.92471832539304,0.04082300513982773,4,0.4511646032333374,0.0,2.518138899176847e-06,0.0,False,True,False,False,False,False,0.26991891860961914,0.00012316080392338336,-0.00011978032853221521,1.9733360545615142e-07,-0.00019468074606265873,0.3910117447376251,0.0,0.0,-0.1250143051147461,-4.754235487780534e-05,-0.18558621406555176,-1.0,-0.3434039354324341,0.3434039354324341,0.30884623527526855,0.0,0.0,0.3550069332122803,True,0.6449930667877197
zero_steer,19,False,-3.388902425765991,-0.10000555962324142,-0.0008126919906404762,-2.1222004890441895,-0.1000235304236412,-1.522200345993042,-0.10003203898668289,0.39097368717193604,0.3015545606613159,0.39097368717193604,0.0,7.819473743438721,0.0,-5.350890933186747e-05,0.0002507730096112937,9.86320519587025e-05,-0.10001219063997269,-0.10002784430980682,-0.10003525018692017,-0.0007077013338552935,0.000707701314240694,0.0731130912899971,-0.07248789817094803,-70.61148601702148,0.05035323277115822,5,0.44220244884490967,0.0,2.3627692371519515e-06,0.0,False,True,False,False,False,False,0.27186712622642517,0.0003226147673558444,-0.0003638258785940707,3.8381156741706945e-07,-0.0002628791844472289,0.39097368717193604,0.0,0.0,-0.1250152438879013,-4.718008858617395e-05,-0.2071082890033722,-1.0,-0.3477085530757904,0.3477085530757904,0.31337741017341614,0.0,0.0,0.3507368564605713,True,0.6492631435394287
zero_steer,20,False,-3.37988543510437,-0.100005604326725,-0.0008030544161299996,-2.1131834983825684,-0.10002335906028748,-1.513183355331421,-0.1000317707657814,0.39093920588493347,0.3014386296272278,0.39093920588493347,0.0,7.818784117698669,0.0,-8.571509533794597e-05,0.00030317725031636655,0.0001087310811271891,-0.10001213103532791,-0.10002759099006653,-0.1000349149107933,-0.0006993844404538625,0.0006993844290263951,0.08125997334718704,-0.08099271357059479,-70.6114791868323,0.05035323277115822,5,0.4331854581832886,0.0,2.4194555408030283e-06,0.0,False,True,False,False,False,False,0.27355605363845825,0.00021384267893154174,-0.0002580425061751157,3.2843487929312687e-07,-0.00027016695821657777,0.39093920588493347,0.0,0.0,-0.12501516938209534,-4.662562787416391e-05,-0.2314077615737915,-1.0,-0.35256803035736084,0.35256803035736084,0.3184926509857178,0.0,0.0,0.3459933400154114,True,0.6540066599845886
zero_steer,21,False,-3.3708198070526123,-0.10000590234994888,-0.00077969408736064,-2.1041178703308105,-0.10002313554286957,-1.504117727279663,-0.1000313013792038,0.3907683491706848,0.3013240098953247,0.3907683491706848,0.0,7.815366983413696,0.0,-8.909593452699482e-05,0.0003187423571944237,0.00011482321133371443,-0.10001245886087418,-0.10002738237380981,-0.10003446042537689,-0.000675368044167028,0.0006753680645488203,0.08961892873048782,-0.08954338729381561,-70.61145186607563,0.05035323277115822,5,0.42411983013153076,0.0,2.3914155917736934e-06,0.0,False,True,False,False,False,False,0.27487102150917053,0.00028835312696173787,-0.0002785676624625921,3.033871465163429e-08,-0.00012756173964589834,0.3907683491706848,0.0,0.0,-0.12501557171344757,-4.502453521126881e-05,-0.2558382451534271,-1.0,-0.357453316450119,0.357453316450119,0.323635071516037,0.0,0.0,0.3412226438522339,True,0.6587773561477661
zero_steer,22,False,-3.3617138862609863,-0.1000063344836235,-0.0007893843452913045,-2.0950117111206055,-0.1000237911939621,-1.495011806488037,-0.10003205388784409,0.3907335102558136,0.3012954592704773,0.3907335102558136,0.0,7.814670205116272,0.0,-9.53053095145151e-05,0.00031580933136865497,0.00011025201092706993,-0.10001281648874283,-0.10002798587083817,-0.100035160779953,-0.0006859141080420522,0.0006859141285531223,0.09814193844795227,-0.09813258051872253,-70.61146552645396,0.05035323277115822,5,0.4150139093399048,0.0,2.3904092358861817e-06,0.0,False,True,False,False,False,False,0.2758440673351288,0.00036786688724532723,-0.00034532148856669664,3.4428759931870445e-07,-0.00044624711154028773,0.3907335102558136,0.0,0.0,-0.1250160187482834,-4.572760735754855e-05,-0.2803788185119629,-1.0,-0.3623620867729187,0.3623620867729187,0.3288021981716156,0.0,0.0,0.336342453956604,True,0.663657546043396
zero_steer,23,False,-3.352578639984131,-0.1000063344836235,-0.0007532055307007695,-2.08587646484375,-0.10002298653125763,-1.4858765602111816,-0.10003087669610977,0.3907700479030609,0.30125004053115845,0.3907700479030609,0.0,7.815400958061218,0.0,-0.00016076824977062643,0.00036647843080572784,0.00010285509051755071,-0.1000128760933876,-0.10002721846103668,-0.10003401339054108,-0.0006488562984646415,0.0006488562794402242,0.10678849369287491,-0.10674872994422913,-70.61142454531894,0.05035323277115822,5,0.4058786630630493,0.0,2.48152559834125e-06,0.0,False,True,False,False,False,False,0.2767470180988312,0.0003515804710332304,-0.00039831394678913057,4.4118596775888363e-08,-0.00022483474458567798,0.3907700479030609,0.0,0.0,-0.12501609325408936,-4.3257085053483024e-05,-0.3049963712692261,-1.0,-0.36728405952453613,0.36728405952453613,0.3339832127094269,0.0,0.0,0.3314658999443054,True,0.6685341000556946
zero_steer,24,False,-3.3434195518493652,-0.10000663995742798,-0.0007848038059065901,-2.0767173767089844,-0.10002399235963821,-1.476717472076416,-0.10003221035003662,0.39075279235839844,0.3011643886566162,0.39075279235839844,0.0,7.815055847167969,0.0,-0.00020422272791620344,0.0004058375780005008,0.00010080742504214868,-0.10001282393932343,-0.10002800077199936,-0.1000351831316948,-0.0006861888851683147,0.0006861888687126338,0.11333070695400238,-0.0,-0.0007848038059065901,0.1304512321949005,13,0.39671969413757324,0.0,2.4517812562407926e-06,0.0,False,True,False,False,False,False,0.27744951844215393,0.00018405022274237126,-0.00018347895820625126,3.618860375809163e-07,-0.0002797555353026837,0.39075279235839844,0.0,0.0,-0.12501603364944458,-4.5745924580842257e-05,-0.0,-5.232025432633236e-05,-0.05629941448569298,0.05629941448569298,0.006630962248891592,0.0,0.0,0.6425361633300781,True,0.3574638068675995
zero_steer,25,False,-3.33424711227417,-0.10000711679458618,-0.0007860665404644495,-2.067544937133789,-0.10002449154853821,-1.4675450325012207,-0.10003272444009781,0.3538987636566162,0.25106218457221985,0.3538987636566162,0.0,7.077975273132324,0.0,-0.0003416302497498691,0.000559522770345211,0.00010894626029767096,-0.10001321136951447,-0.10002842545509338,-0.1000356376171112,-0.0006883328033417817,0.0006883328314870596,0.11792178452014923,-0.0,-0.0007860665404644495,0.1304512321949005,13,0.38754749298095703,0.0,2.595832256702124e-06,0.0,False,True,False,False,False,False,0.27813056111335754,5.634785338770598e-05,-1.0320137334929314e-05,3.092047222708061e-07,-0.00036229038960300386,0.3538987636566162,0.0,0.0,-0.12501651048660278,-4.5888853492215276e-05,-0.0,-5.240443715592846e-05,-0.056299734860658646,0.056299734860658646,0.006631299387663603,0.0,0.0,0.6926380395889282,True,0.3073619306087494
zero_steer,26,False,-3.325056314468384,-0.100007563829422,-0.0007175819503754207,-2.058354377746582,-0.10002342611551285,-1.4583542346954346,-0.10003094375133514,0.35230350494384766,0.24915377795696259,0.35230350494384766,0.0,7.046070098876953,0.0,-0.00044936753693036735,0.0006708814762532711,0.00011075696966145188,-0.1000136286020279,-0.10002733767032623,-0.10003383457660675,-0.0006202919316730307,0.0006202919175848365,0.12303575873374939,-0.0,-0.0007175819503754207,0.1304512321949005,13,0.3783566951751709,0.0,2.6266113763995236e-06,0.0,False,True,False,False,False,False,0.278355211019516,0.0005217210273258388,-0.0004929194692522287,1.1488808127069206e-07,-0.0002586374175734818,0.35230350494384766,0.0,0.0,-0.12501703202724457,-4.135279596084729e-05,-0.0,-4.7838795580901206e-05,-0.05629593878984451,0.05629593878984451,0.006627303548157215,0.0,0.0,0.6945502758026123,True,0.3054497241973877
zero_steer,27,False,-3.3158516883850098,-0.10000711679458618,-0.0006235993144583056,-2.049149513244629,-0.10002090781927109,-1.4491496086120605,-0.10002743452787399,0.352192223072052,0.2491389662027359,0.352192223072052,0.0,7.04384446144104,0.0,-0.0005469135940074921,0.0009179750340990722,0.00018553072004579008,-0.10001318156719208,-0.10002481192350388,-0.100030317902565,-0.0005259143003800253,0.000525914307218045,0.12861183285713196,-0.0,-0.0006235993144583056,0.1304512321949005,13,0.3691520690917969,0.0,2.5951851512218127e-06,0.0,False,True,False,False,False,False,0.27890416979789734,-1.9018841612705728e-06,9.40963946050033e-05,3.003513029398164e-07,-0.0005355121102184057,0.352192223072052,0.0,0.0,-0.1250164806842804,-3.506095163174905e-05,-0.0,-4.15732865803875e-05,-0.056290123611688614,0.056290123611688614,0.006621182430535555,0.0,0.0,0.6945708990097046,True,0.3054291009902954
zero_steer,28,False,-3.306638240814209,-0.10000889003276825,-0.000524518215800147,-2.039936065673828,-0.10002049058675766,-1.4399361610412598,-0.10002598166465759,0.35217177867889404,0.24907664954662323,0.35217177867889404,0.0,7.043435573577881,0.0,-0.0006261045346036553,0.001309651997871697,0.0003417737316340208,-0.10001495480537415,-0.10002438724040985,-0.100028857588768,-0.00042653747629202795,0.00042653747368603945,0.13121816515922546,-0.1000199168920517,-0.000524518215800147,0.2753758430480957,15,0.3599386215209961,0.0,2.6252648694935488e-06,0.0,False,True,False,False,False,False,0.27919402718544006,0.00038299939478747547,-0.00034017820144072175,2.9246072585920047e-07,-0.0005782039952464402,0.35217177867889404,0.0,0.0,-0.12501868605613708,-2.8435832064133137e-05,-0.2857711911201477,-3.496788121992722e-05,-0.11343949288129807,0.11343949288129807,0.06677841395139694,0.0,0.0,0.6374838352203369,True,0.3625161349773407
zero_steer,29,False,-3.2974209785461426,-0.1000087633728981,-0.0003498413856970481,-2.0307188034057617,-0.10001649707555771,-1.4307188987731934,-0.1000201627612114,0.3508438467979431,0.24784810841083527,0.3508438467979431,0.0,7.016876935958862,0.0,-0.0008211301756091416,0.0016094171442091465,0.00039414348430000246,-0.10001479089260101,-0.10002037137746811,-0.10002301633358002,-0.00025230272313765803,0.00025230273604393005,0.1254456490278244,-0.10001592338085175,-0.0003498413856970481,0.2753758430480957,15,0.3507213592529297,0.0,2.6258537673129467e-06,0.0,False,True,False,False,False,False,0.27914413809776306,0.00023233520914800465,-0.00028220179956406355,3.0690824814882944e-07,-0.00045456227962858975,0.3508438467979431,0.0,0.0,-0.12501849234104156,-1.682018228166271e-05,-0.2857597768306732,-2.332275835215114e-05,-0.1134268119931221,0.1134268119931221,0.06676506251096725,0.0,0.0,0.6387250423431396,True,0.36127492785453796
zero_steer,30,False,-3.2882027626037598,-0.10000930726528168,-0.0002906107608230319,-2.021500587463379,-0.10001573711633682,-1.4215006828308105,-0.10001877695322037,0.35078978538513184,0.2477651983499527,0.35078978538513184,0.0,7.015795707702637,0.0,-0.0010385928908362985,0.0019716823007911444,0.00046654470497742295,-0.10001545399427414,-0.10001968592405319,-0.10002169013023376,-0.0001912967816457633,0.00019129678548779339,0.12010601162910461,-0.10001516342163086,-0.0002906107608230319,0.2753758430480957,15,0.3415030241012573,0.0,2.5133308554359246e-06,0.0,False,True,False,False,False,False,0.2788301110267639,0.0002422669349471107,-0.0002730473061092198,2.476648717220087e-07,-0.00048443605192005634,0.35078978538513184,0.0,0.0,-0.12501931190490723,-1.2753118426189758e-05,-0.2857576310634613,-1.9374050680198707e-05,-0.1134231835603714,0.1134231835603714,0.06676124781370163,0.05664646625518799,0.0037817887496203184,0.6388115882873535,True,0.3611883819103241
zero_steer,31,False,-3.278987407684326,-0.10001085698604584,-1.6352772736091513e-05,-2.0122852325439453,-0.10001122206449509,-1.412285327911377,-0.10001139342784882,0.35081160068511963,0.2477625459432602,0.35081160068511963,0.0,7.016232013702393,0.0,-0.0012440013233572245,0.002618748228996992,0.0006873734528198838,-0.1000172421336174,-0.1000152975320816,-0.10001437366008759,8.823265227423624e-05,8.823265670798719e-05,0.11525546759366989,-0.10001064836978912,-1.6352772736091513e-05,0.2753758430480957,15,0.33228743076324463,0.0,2.3595671336806845e-06,0.0,False,True,False,False,False,False,0.2786656618118286,-9.335724462289363e-05,0.0001919525966513902,2.4619311034257407e-07,-3.3236181479878724e-05,0.35081160068511963,0.0,0.0,-0.1250215470790863,5.8821765378525015e-06,-0.28574472665786743,-1.09018480998202e-06,-0.11340517550706863,0.11340517550706863,0.06674228608608246,0.11808375269174576,0.007881179451942444,0.6388322710990906,True,0.3611677289009094
zero_steer,32,False,-3.269775629043579,-0.10001306980848312,0.00030888898945662904,-2.0030736923217773,-0.10000623762607574,-1.4030735492706299,-0.10000300407409668,0.35080185532569885,0.2477322369813919,0.35080185532569885,0.0,7.016037106513977,0.0,-0.001324050477705896,0.003359569236636162,0.001017759321257472,-0.10001944750547409,-0.10001030564308167,-0.10000597685575485,0.00041344272820366493,0.00041344272904098034,0.11096085608005524,-0.10000566393136978,0.00030888898945662904,0.2753758430480957,15,0.32307565212249756,0.0,2.390193913015537e-06,0.0,False,True,False,False,False,False,0.2784477174282074,-8.327283285325393e-05,-0.0005001502577215433,3.2560998874942015e-07,3.1890784157440066e-05,0.35080185532569885,0.0,0.0,-0.12502430379390717,2.756284811766818e-05,-0.2857304811477661,2.059259895759169e-05,-0.11338434368371964,0.11338434368371964,0.06672035902738571,0.17949560284614563,0.011976011097431183,0.6388834118843079,True,0.36111658811569214
zero_steer,33,False,-3.260573387145996,-0.10001138597726822,0.00043972651780158805,-1.9938713312149048,-0.10000166296958923,-1.3938713073730469,-0.09999705851078033,0.35079169273376465,0.2477760761976242,0.35079169273376465,0.0,7.015833854675293,0.0,-0.0016280419658869505,0.004002219066023827,0.001187088550068438,-0.10001774877309799,-0.10000571608543396,-0.10000001639127731,0.0005442502671239768,0.0005442503024823964,0.10729072242975235,-0.10000108927488327,0.00043972651780158805,0.2753758430480957,15,0.31387341022491455,0.0,2.4202288386732107e-06,0.0,False,True,False,False,False,False,0.27829688787460327,-0.0017287891823798418,0.0009717607754282653,2.7144909608978196e-07,-9.407909237779677e-05,0.35079169273376465,0.0,0.0,-0.12502218782901764,3.628335252869874e-05,-0.2857173979282379,2.9315100618987344e-05,-0.1133730411529541,0.1133730411529541,0.06670846790075302,0.24084389209747314,0.016066327691078186,0.6388508677482605,True,0.3611491322517395
zero_steer,34,False,-3.2513773441314697,-0.10001120716333389,0.0004479883828234756,-1.9846752882003784,-0.10000130534172058,-1.3846752643585205,-0.09999661147594452,0.3506442904472351,0.24767078459262848,0.3506442904472351,0.0,7.012885808944702,0.0,-0.0017618783749639988,0.0045503354631364346,0.0013942285440862179,-0.10001756250858307,-0.10000534355640411,-0.0999995544552803,0.0005527598119640183,0.000552759796846658,0.10431142896413803,-0.10000073164701462,0.0004479883828234756,0.2753758430480957,15,0.3046773672103882,0.0,2.3899324332887772e-06,0.0,False,True,False,False,False,False,0.27799901366233826,-0.0013599941739812493,0.0012073058169335127,6.478640557361359e-08,-0.00025668495800346136,0.3506442904472351,0.0,0.0,-0.12502194941043854,3.685065530589782e-05,-0.28571638464927673,2.9865892429370433e-05,-0.11337223649024963,0.11337223649024963,0.06670762598514557,0.3021508455276489,0.020155765116214752,0.6389569640159607,True,0.3610430359840393
zero_steer,35,False,-3.24219012260437,-0.10000991821289062,4.571012661643719e-05,-1.9754880666732788,-0.10000890493392944,-1.375488042831421,-0.10000842809677124,0.3506465256214142,0.24771757423877716,0.3506465256214142,0.0,7.012930512428284,0.0,-0.0023126720916479826,0.005000394769012928,0.0013438613386824727,-0.10001625120639801,-0.10001292824745178,-0.10001135617494583,0.00015006913928721066,0.00015006914327386767,0.10208592563867569,-0.10000833123922348,4.571012661643719e-05,0.2753758430480957,15,0.2954901456832886,0.0,2.392308488197159e-06,0.0,False,True,False,False,False,False,0.2775672674179077,-0.0018492877716198564,0.0016573771135881543,2.6614034709382395e-07,-0.0002585109614301473,0.3506465256214142,0.0,0.0,-0.12502031028270721,1.0004609066527337e-05,-0.28573811054229736,3.0473418064502766e-06,-0.11339962482452393,0.11339962482452393,0.06673645228147507,0.3633989691734314,0.02425195835530758,0.6388828158378601,True,0.3611171841621399
zero_steer,36,False,-3.2330169677734375,-0.10000432282686234,-0.0009790369977675803,-1.9663149118423462,-0.1000259667634964,-1.3663148880004883,-0.10003621876239777,0.3506101965904236,0.2476736158132553,0.3506101965904236,0.0,7.012203931808472,0.0,-0.0033304886892437935,0.00521630235016346,0.0009429068304598331,-0.10001061856746674,-0.10002996772527695,-0.10003913193941116,-0.00087507463171491,0.0008750746492296457,0.10066388547420502,-0.10002539306879044,-0.0009790369977675803,0.2753758430480957,15,0.28631699085235596,0.0,2.4527071218471974e-06,0.0,False,True,False,False,False,False,0.2771894037723541,6.499862502096221e-05,-0.00026225633337162435,3.510937460760033e-07,-0.0001135415950557217,0.3506101965904236,0.0,0.0,-0.12501327693462372,-5.8338308008387685e-05,-0.28578683733940125,-6.526913057314232e-05,-0.1134667918086052,0.1134667918086052,0.06680714339017868,0.4245533347129822,0.028363196179270744,0.6388596296310425,True,0.3611404001712799
zero_steer,37,False,-3.2238550186157227,-0.0999971255660057,-0.002563601073011702,-1.9571529626846313,-0.1000538021326065,-1.3571529388427734,-0.10008064657449722,0.3505880534648895,0.2477104812860489,0.3505880534648895,0.0,7.0117610692977905,0.0,-0.0043585761450231075,0.005326578393578529,0.0004840011242777109,-0.10000309348106384,-0.10005759447813034,-0.10008341073989868,-0.0024653797927839116,0.0024653798900544643,0.10007695853710175,-0.10005322843790054,-0.002563601073011702,0.2753758430480957,15,0.27715516090393066,0.0,2.4536509499739623e-06,0.0,False,True,False,False,False,False,0.27682098746299744,0.00030677320319227874,-0.0005354094319045544,3.414276363855606e-07,-0.00015152512060012668,0.3505880534648895,0.0,0.0,-0.1250038743019104,-0.0001643586583668366,-0.285866379737854,-0.00017090674373321235,-0.1135723665356636,0.1135723665356636,0.0669182762503624,0.4856322109699249,0.032497670501470566,0.6387171745300293,True,0.3612828552722931
zero_steer,38,False,-3.2147040367126465,-0.09999121725559235,-0.0040622570932734,-1.9480019807815552,-0.10008102655410767,-1.3480019569396973,-0.1001235693693161,0.35061976313591003,0.2477021962404251,0.35061976313591003,0.0,7.012395262718201,0.0,-0.005304865539073944,0.00548221729695797,8.867587894201279e-05,-0.09999708831310272,-0.10008474439382553,-0.10012626647949219,-0.003964941905340594,0.0039649419486522675,0.10032540559768677,-0.1000804528594017,-0.0040622570932734,0.2753758430480957,15,0.2680044174194336,0.0,2.595346359157702e-06,0.0,False,True,False,False,False,False,0.27651941776275635,0.0007973639294505119,-0.0009419311536476016,2.661582527707651e-07,-5.3744886827189475e-05,0.35061976313591003,0.0,0.0,-0.1249963641166687,-0.0002643294574227184,-0.2859441637992859,-0.0002708171377889812,-0.11367315798997879,0.11367315798997879,0.06702437251806259,0.5466371774673462,0.036638014018535614,0.6386246681213379,True,0.3613753616809845
zero_steer,39,False,-3.205563545227051,-0.09998419135808945,-0.005674436868974292,-1.9388614892959595,-0.10010963678359985,-1.3388614654541016,-0.10016906261444092,0.35061562061309814,0.2477065473794937,0.35061562061309814,0.0,7.012312412261963,0.0,-0.0061667487025260925,0.00558478944003582,-0.00029097963124513626,-0.09999004751443863,-0.10011334717273712,-0.10017175227403641,-0.005577158366627849,0.005577158648520708,0.101402148604393,-0.10010906308889389,-0.005674436868974292,0.2753758430480957,15,0.2588639259338379,0.0,2.6256664114043815e-06,0.0,False,True,False,False,False,False,0.27625489234924316,0.0011200831504538655,-0.0012400343548506498,3.1626805707674066e-07,-0.00020771128765773028,0.35061562061309814,0.0,0.0,-0.12498755753040314,-0.000371810543583706,-0.28602591156959534,-0.00037829577922821045,-0.11378082633018494,0.11378082633018494,0.0671377182006836,0.6075737476348877,0.040791116654872894,0.6385126113891602,True,0.36148738861083984
zero_steer,40,False,-3.196430206298828,-0.09997595846652985,-0.007454371076595391,-1.9297281503677368,-0.1001407653093338,-1.329728126525879,-0.10021882504224777,0.35070815682411194,0.2477412074804306,0.35070815682411194,0.0,7.014163136482239,0.0,-0.006872151046991348,0.005651460960507393,-0.0006103450432419777,-0.09998180717229843,-0.10014446079730988,-0.10022149235010147,-0.00735669403537892,0.007356693968176842,0.1032804325222969,-0.10014019161462784,-0.007454371076595391,0.2753758430480957,15,0.24973058700561523,0.0,2.5942597403627587e-06,0.0,False,True,False,False,False,False,0.2760789692401886,0.0002465376164764166,-0.0004820579488296062,3.230087486372213e-07,-5.153170786798e-05,0.35070815682411194,0.0,0.0,-0.12497726082801819,-0.0004904462839476764,-0.2861148416996002,-0.0004969580913893878,-0.11389916390180588,0.11389916390180588,0.06726227700710297,0.6684626936912537,0.0449623242020607,0.6383596658706665,True,0.3616403639316559
zero_steer,41,False,-3.1873016357421875,-0.09996936470270157,-0.00914139278352883,-1.9205995798110962,-0.10017146915197372,-1.3205995559692383,-0.100267194211483,0.35064998269081116,0.24777530133724213,0.35064998269081116,0.0,7.012999653816223,0.0,-0.0075273895636200905,0.0057547250762581825,-0.000886332243680954,-0.09997522830963135,-0.1001751720905304,-0.1002698689699173,-0.009043423925148113,0.009043424390256405,0.10591375827789307,-0.10017089545726776,-0.00914139278352883,0.2753758430480957,15,0.2406020164489746,0.0,2.6256757337250747e-06,0.0,False,True,False,False,False,False,0.27580487728118896,0.0004867740208283067,-0.0006531105609610677,2.6822422682926117e-07,-2.237999433418736e-05,0.35064998269081116,0.0,0.0,-0.12496903538703918,-0.0006028949283063412,-0.2862025797367096,-0.0006094261771067977,-0.1140127032995224,0.1140127032995224,0.06738179922103882,0.7293198108673096,0.049142882227897644,0.6382119655609131,True,0.3617880046367645
zero_steer,42,False,-3.1781835556030273,-0.09996303915977478,-0.010712219565766064,-1.911481499671936,-0.1001998707652092,-1.3114814758300781,-0.10031204670667648,0.3506844639778137,0.24781127274036407,0.3506844639778137,0.0,7.013689279556274,0.0,-0.008114829659461975,0.005918148905038834,-0.0010983403772115707,-0.09996886551380157,-0.10020354390144348,-0.10031469911336899,-0.010614690934421696,0.01061469130218029,0.10924233496189117,-0.10019929707050323,-0.010712219565766064,0.2753758430480957,15,0.23148393630981445,0.0,2.62626576841285e-06,0.0,False,True,False,False,False,False,0.2755175232887268,0.0010309464996680617,-0.0011054778005927801,3.37121718985145e-07,-0.00013203629350755364,0.3506844639778137,0.0,0.0,-0.12496107816696167,-0.0007076460751704872,-0.2862837016582489,-0.0007141479873098433,-0.11411821097135544,0.11411821097135544,0.06749285012483597,0.790107011795044,0.053326573222875595,0.6380705237388611,True,0.3619294762611389
zero_steer,43,False,-3.169074058532715,-0.09995659440755844,-0.01264089089759511,-1.9023720026016235,-0.10023605823516846,-1.3023719787597656,-0.100368432700634,0.3507385551929474,0.24789370596408844,0.3507385551929474,0.0,7.014771103858948,0.0,-0.008524669334292412,0.005980979185551405,-0.0012718450743705034,-0.09996253252029419,-0.1002398133277893,-0.10037115216255188,-0.012542016572241903,0.012542016804218292,0.11321214586496353,-0.1002354845404625,-0.01264089089759511,0.2753758430480957,15,0.2223743200302124,0.0,2.5183544494211674e-06,0.0,False,True,False,False,False,False,0.2754359245300293,7.682204159209505e-05,-0.00048672131379134953,1.7920352490818914e-07,0.0002757465117610991,0.3507385551929474,0.0,0.0,-0.12495316565036774,-0.000836134422570467,-0.2863871157169342,-0.0008427260327152908,-0.11424925923347473,0.11424925923347473,0.06763080507516861,0.8508378267288208,0.057542845606803894,0.6378570199012756,True,0.36214298009872437
zero_steer,44,False,-3.159968852996826,-0.09994938969612122,-0.014427010378453236,-1.8932669162750244,-0.10026834160089493,-1.2932668924331665,-0.10041942447423935,0.35068389773368835,0.24774499237537384,0.35068389773368835,0.0,7.013677954673767,0.0,-0.008952513337135315,0.00609266571700573,-0.0014299238100647926,-0.09995558857917786,-0.10027221590280533,-0.1004221960902214,-0.014321974542117803,0.014321974478662014,0.11774860322475433,-0.10026776790618896,-0.01442701204597989,0.2753758430480957,15,0.21326887607574463,0.0,2.358517349421163e-06,0.0,False,True,False,False,False,False,0.27518388628959656,0.0006844585877843201,-0.0007266388856805861,3.0613807666668436e-07,-1.6080657587735914e-05,0.35068389773368835,0.0,0.0,-0.12494448572397232,-0.0009547983063384891,-0.2864793539047241,-0.000961800804361701,-0.11436910182237625,0.11436910182237625,0.06775694340467453,0.9115407466888428,0.0617632158100605,0.6378859281539917,True,0.3621141016483307
zero_steer,45,False,-3.150869846343994,-0.09994323551654816,-0.016234824381064748,-1.8841679096221924,-0.10030215978622437,-1.2841678857803345,-0.10047216713428497,0.350819855928421,0.2477310746908188,0.350819855928421,0.0,7.01639711856842,0.0,-0.009282725863158703,0.006206648424267769,-0.001538038719445467,-0.099949412047863,-0.10030601918697357,-0.10047492384910583,-0.016129771869462788,0.01612977124750614,0.12279141694307327,-0.1003015860915184,-0.016234826048591403,0.2753758430480957,15,0.20416998863220215,0.0,2.3885286282165907e-06,0.0,False,True,False,False,False,False,0.27495384216308594,0.0008286053198389709,-0.0009513939148746431,3.9166380361166375e-07,-0.0001652345818001777,0.350819855928421,0.0,0.0,-0.12493676692247391,-0.0010753180831670761,-0.28657597303390503,-0.0010823217453435063,-0.11449181288480759,0.11449181288480759,0.0678861141204834,0.9722000360488892,0.06599888205528259,0.6377770900726318,True,0.3622228801250458
zero_steer,46,False,-3.1417787075042725,-0.0999351292848587,-0.018152309944106576,-1.8750767707824707,-0.10033643990755081,-1.2750767469406128,-0.10052653402090073,0.35082679986953735,0.24776099622249603,0.35082679986953735,0.0,7.016535997390747,0.0,-0.009575760923326015,0.006270085461437702,-0.0016528377309441566,-0.09994124621152878,-0.10034026205539703,-0.1005292683839798,-0.01804856143834713,0.018048562109470367,0.12827762961387634,-0.10033586621284485,-0.018152311611633228,0.2753758430480957,15,0.19507884979248047,0.0,2.39201654039789e-06,0.0,False,True,False,False,False,False,0.2747848927974701,0.0005273593124002218,-0.0005039648967795074,0.0,0.00016573118045926094,0.35082679986953735,0.0,0.0,-0.12492655962705612,-0.0012032374506816268,-0.286673903465271,-0.0012101541506126523,-0.1146201640367508,0.1146201640367508,0.06802123039960861,1.0,0.06802123039960861,0.6376188397407532,True,0.3623811602592468
zero_steer,47,False,-3.1326892375946045,-0.09992941468954086,-0.02005356713776301,-1.8659873008728027,-0.10037276148796082,-1.2659872770309448,-0.10058276355266571,0.3508213758468628,0.24783538281917572,0.3508213758468628,0.0,7.016427516937256,0.0,-0.009843388572335243,0.006383356638252735,-0.001730015967041254,-0.09993553906679153,-0.10037657618522644,-0.10058549046516418,-0.019949139948655863,0.019949140027165413,0.1321685016155243,-0.10037218779325485,-0.020053568805289662,0.4203006625175476,16,0.1859893798828125,0.0,2.42079522649874e-06,0.0,False,True,False,False,False,False,0.2747712731361389,0.0007574517512694001,-0.000830827746540308,2.08077167940246e-07,-9.884030441753566e-05,0.3508213758468628,0.0,0.0,-0.12491942197084427,-0.0013299426063895226,-0.28677767515182495,-0.0013369045918807387,-0.11475006490945816,0.11475006490945816,0.06815796345472336,1.0,0.06815796345472336,0.6374145746231079,True,0.3625854551792145
zero_steer,48,False,-3.123602867126465,-0.0999232679605484,-0.021892013604987104,-1.856900930404663,-0.10040725767612457,-1.2569009065628052,-0.10063651204109192,0.35076218843460083,0.24781011044979095,0.35076218843460083,0.0,7.015243768692017,0.0,-0.01006092969328165,0.00649652723222971,-0.0017822012305259705,-0.09992942959070206,-0.10041108727455139,-0.1006392389535904,-0.021786695956647343,0.02178669534623623,0.1264728307723999,-0.10040668398141861,-0.021892013604987104,0.4203006625175476,16,0.17690300941467285,0.0,2.391172301940969e-06,0.0,False,True,False,False,False,False,0.27457812428474426,0.0009341553086414933,-0.0010935470927506685,1.1768253926902617e-07,-0.0001870099949883297,0.35076218843460083,0.0,0.0,-0.12491178512573242,-0.0014524463331326842,-0.28687626123428345,-0.0014594675740227103,-0.1148749589920044,0.1148749589920044,0.06828943639993668,1.0,0.06828943639993668,0.6373149156570435,True,0.36268508434295654
zero_steer,49,False,-3.1145217418670654,-0.09991714358329773,-0.02384295975784472,-1.8478198051452637,-0.1004442647099495,-1.2478197813034058,-0.1006939485669136,0.35081058740615845,0.24781160056591034,0.35081058740615845,0.0,7.016211748123169,0.0,-0.010214455425739288,0.006610488053411245,-0.0018019836861640215,-0.09992324560880661,-0.10044805705547333,-0.10069664567708969,-0.023738480875411336,0.023738481104373932,0.121196448802948,-0.10044369101524353,-0.02384295975784472,0.4203006625175476,16,0.16782188415527344,0.0,2.3920306375657674e-06,0.0,False,True,False,False,False,False,0.2744888365268707,0.0007559312507510185,-0.0008411403396166861,2.3009047822597495e-07,-8.421427628491074e-05,0.35081058740615845,0.0,0.0,-0.12490405887365341,-0.0015825653681531549,-0.2869819700717926,-0.0015895306132733822,-0.11500796675682068,0.11500796675682068,0.06842944771051407,1.0,0.06842944771051407,0.6371804475784302,True,0.3628195524215698
zero_steer,50,False,-3.1054444313049316,-0.09991135448217392,-0.02580264208283654,-1.8387424945831299,-0.1004818007349968,-1.2387425899505615,-0.10075200349092484,0.3508203625679016,0.24782459437847137,0.3508203625679016,0.0,7.016407251358032,0.0,-0.010360383428633213,0.006708327680826187,-0.001826027873903513,-0.09991741925477982,-0.10048556327819824,-0.10075467824935913,-0.025698620102706033,0.025698620826005936,0.11639276891946793,-0.10048122704029083,-0.02580264208283654,0.4203006625175476,16,0.1587446928024292,0.0,2.3919130853755632e-06,0.0,False,True,False,False,False,False,0.2743373215198517,0.000944212544709444,-0.001199050690047443,3.476113192846242e-07,-0.00010923069203272462,0.3508203625679016,0.0,0.0,-0.12489677220582962,-0.0017132413340732455,-0.2870892286300659,-0.0017201760783791542,-0.11514198780059814,0.11514198780059814,0.06857051700353622,1.0,0.06857051700353622,0.6370334029197693,True,0.3629665970802307
zero_steer,51,False,-3.09637188911438,-0.09990556538105011,-0.027771142288768553,-1.8296699523925781,-0.10051953047513962,-1.2296700477600098,-0.10081034898757935,0.350803017616272,0.24779056012630463,0.350803017616272,0.0,7.0160603523254395,0.0,-0.010499917902052402,0.006827861536294222,-0.0018360281828790903,-0.09991161525249481,-0.10052327811717987,-0.10081300139427185,-0.027666871847166773,0.02766687236726284,0.11212173104286194,-0.10051895678043365,-0.027771142288768553,0.4203006625175476,16,0.14967215061187744,0.0,2.3906204660306685e-06,0.0,False,True,False,False,False,False,0.27420201897621155,0.0009988191304728389,-0.0011187446070834994,2.376556977878863e-07,-8.594600512878969e-05,0.350803017616272,0.0,0.0,-0.12488952279090881,-0.0018444580491632223,-0.2871970236301422,-0.0018514094408601522,-0.11527661234140396,0.11527661234140396,0.06871221959590912,1.0,0.06871221959590912,0.6369328498840332,True,0.3630671799182892
zero_steer,52,False,-3.087303638458252,-0.0999014750123024,-0.029909321669259806,-1.8206017017364502,-0.10056271404027939,-1.2206017971038818,-0.10087592154741287,0.35072124004364014,0.24770526587963104,0.35072124004364014,0.0,7.014424800872803,0.0,-0.010502380318939686,0.006917857564985752,-0.0017922613769769669,-0.0999075323343277,-0.10056646168231964,-0.10087856650352478,-0.029804621005781594,0.029804620891809464,0.10844980180263519,-0.10056214034557343,-0.029909321669259806,0.4203006625175476,16,0.1406038999557495,0.0,2.390686404396547e-06,0.0,False,True,False,False,False,False,0.27396246790885925,0.0008356671896763146,-0.000798773777205497,0.0,-0.00012887074262835085,0.35072124004364014,0.0,0.0,-0.12488441169261932,-0.0019869746174663305,-0.28732040524482727,-0.00199395464733243,-0.11542533338069916,0.11542533338069916,0.06886877864599228,1.0,0.06886877864599228,0.6368694305419922,True,0.3631305992603302
zero_steer,53,False,-3.078244209289551,-0.09989573061466217,-0.031963254268196524,-1.8115423917770386,-0.10060238093137741,-1.2115424871444702,-0.10093709826469421,0.35069793462753296,0.2477436065673828,0.35069793462753296,0.0,7.013958692550659,0.0,-0.010552194900810719,0.0069989487528800964,-0.001776623073965311,-0.0999017283320427,-0.10060608386993408,-0.10093972086906433,-0.03185948074953728,0.03185947984457016,0.10543131828308105,-0.10060180723667145,-0.03196325760324983,0.4203006625175476,16,0.1315445899963379,0.0,2.4210942228819476e-06,0.0,False,True,False,False,False,False,0.27376386523246765,0.0006027032504789531,-0.0008832149906083941,2.7143946113028505e-07,-0.00019396893912926316,0.35069793462753296,0.0,0.0,-0.12487716227769852,-0.0021239654161036015,-0.2874337434768677,-0.0021308837458491325,-0.1155661791563034,0.1155661791563034,0.06901703774929047,1.0,0.06901703774929047,0.6366901993751526,True,0.3633098006248474
zero_steer,54,False,-3.0691890716552734,-0.09989006072282791,-0.03402696190837216,-1.8024872541427612,-0.10064233094453812,-1.2024873495101929,-0.1009986624121666,0.3507309854030609,0.2477998286485672,0.3507309854030609,0.0,7.014619708061218,0.0,-0.010473341681063175,0.007108545396476984,-0.0016823981422930956,-0.09989631175994873,-0.10064617544412613,-0.10100136697292328,-0.033918022392142436,0.033918023109436035,0.1031239852309227,-0.10064175724983215,-0.03402696190837216,0.4203006625175476,16,0.12248945236206055,0.0,2.420840928607504e-06,0.0,False,True,False,False,False,False,0.27359336614608765,0.0009315582574345171,-0.0010277797700837255,3.877456151712977e-07,-6.518373265862465e-05,0.3507309854030609,0.0,0.0,-0.12487038969993591,-0.00226120138540864,-0.28754788637161255,-0.002268464071676135,-0.11570770293474197,0.11570770293474197,0.06916599720716476,1.0,0.06916599720716476,0.6364924907684326,True,0.36350753903388977
zero_steer,55,False,-3.0601389408111572,-0.0998864471912384,-0.036003651337696244,-1.793437123298645,-0.10068242251873016,-1.1934372186660767,-0.1010594516992569,0.350746214389801,0.2478342354297638,0.350746214389801,0.0,7.0149242877960205,0.0,-0.010513214394450188,0.007257016375660896,-0.0016280990093946457,-0.09989270567893982,-0.10068627446889877,-0.10106216371059418,-0.03589472182662644,0.0358947217464447,0.10157512873411179,-0.1006818488240242,-0.036003651337696244,0.4203006625175476,16,0.11343932151794434,0.0,2.424847480142489e-06,0.0,False,True,False,False,False,False,0.273669958114624,0.0008708519744686782,-0.001450651092454791,7.387204448150442e-08,-2.7958332793787122e-05,0.350746214389801,0.0,0.0,-0.12486588209867477,-0.0023929814342409372,-0.28766244649887085,-0.0024002434220165014,-0.11584541946649551,0.11584541946649551,0.06931096315383911,1.0,0.06931096315383911,0.6363203525543213,True,0.3636796474456787
zero_steer,56,False,-3.05108904838562,-0.09988293796777725,-0.037867272454798186,-1.7843873500823975,-0.10072011500597,-1.184387445449829,-0.10111665725708008,0.3507756292819977,0.24786140024662018,0.3507756292819977,0.0,7.015512585639954,0.0,-0.010521880351006985,0.007413411978632212,-0.0015542341861873865,-0.09988854825496674,-0.10072354972362518,-0.10111906379461288,-0.03776897509366686,0.037768974900245667,0.10081563144922256,-0.10071954131126404,-0.037867272454798186,0.4203006625175476,16,0.10438990592956543,0.0,2.5897982141032116e-06,0.0,False,True,False,False,False,False,0.2735479772090912,0.0011584380408748984,-0.0013214919017627835,4.154972828018799e-07,-3.028544597327709e-06,0.3507756292819977,0.0,0.0,-0.12486068904399872,-0.002517931628972292,-0.2877701222896576,-0.0025244848802685738,-0.11597521603107452,0.11597521603107452,0.0694475993514061,1.0,0.0694475993514061,0.6361633539199829,True,0.3638366162776947
zero_steer,57,False,-3.0420408248901367,-0.09987816959619522,-0.040199605298532344,-1.775339126586914,-0.10076690465211868,-1.1753392219543457,-0.10118787735700607,0.3507278859615326,0.2477996051311493,0.3507278859615326,0.0,7.014557719230652,0.0,-0.010431047528982162,0.007497438229620457,-0.0014668046496808529,-0.09988375753164291,-0.10077033191919327,-0.10119027644395828,-0.04010174149433075,0.04010174050927162,0.1008746325969696,-0.10076633095741272,-0.040199605298532344,0.4203006625175476,16,0.09534168243408203,0.0,2.622578904265538e-06,0.0,False,True,False,False,False,False,0.2734297513961792,0.0008406381239183247,-0.0007162500987760723,3.528753893533576e-07,-4.712457302957773e-05,0.3507278859615326,0.0,0.0,-0.12485469877719879,-0.0026734494604170322,-0.2879038155078888,-0.0026799736078828573,-0.11613712459802628,0.11613712459802628,0.06961802393198013,1.0,0.06961802393198013,0.636063277721405,True,0.36393672227859497
zero_steer,58,False,-3.032991409301758,-0.09987311065196991,-0.04237932610299902,-1.7662897109985352,-0.10081003606319427,-1.1662899255752563,-0.10125382989645004,0.3508886694908142,0.2478787750005722,0.3508886694908142,0.0,7.017773389816284,0.0,-0.010369258932769299,0.007604170590639114,-0.001382544171065092,-0.09987866878509521,-0.10081344097852707,-0.10125621408224106,-0.04228192920626023,0.04228192940354347,0.10173807293176651,-0.10080946236848831,-0.04237932943805233,0.4203006625175476,16,0.08629238605499268,0.0,2.624278522489476e-06,0.0,False,True,False,False,False,False,0.2735896706581116,0.0009646400576457381,-0.001275624381378293,9.832938019371795e-08,0.00017984100850299,0.3508886694908142,0.0,0.0,-0.12484833598136902,-0.0028187951538711786,-0.2880270481109619,-0.0028252885676920414,-0.11628774553537369,0.11628774553537369,0.06977657228708267,1.0,0.06977657228708267,0.6358335018157959,True,0.3641665279865265
zero_steer,59,False,-3.023942470550537,-0.09986917674541473,-0.04456001407292435,-1.7572407722473145,-0.1008543148636818,-1.1572409868240356,-0.10132094472646713,0.3509151041507721,0.24798288941383362,0.3509151041507721,0.0,7.018302083015442,0.0,-0.010347846895456314,0.0077614495530724525,-0.0012931986711919308,-0.0998755618929863,-0.10085819661617279,-0.10132364183664322,-0.044446762332770395,0.04444676265120506,0.1033903956413269,-0.10085374116897583,-0.04456001407292435,0.4203006625175476,16,0.07724297046661377,0.0,2.3310490178118926e-06,0.0,False,True,False,False,False,False,0.2736189663410187,0.0010889688273891807,-0.0013463463401421905,0.0,3.515237767715007e-05,0.3509151041507721,0.0,0.0,-0.12484445422887802,-0.0029631175566464663,-0.2881535589694977,-0.0029706675559282303,-0.11643952131271362,0.11643952131271362,0.0699363425374031,1.0,0.0699363425374031,0.6355775594711304,True,0.36442241072654724
zero_steer,60,False,-3.014911413192749,-0.0998680591583252,-0.045436672854959455,-1.7482097148895264,-0.10087258368730545,-1.1482099294662476,-0.1013483926653862,0.35082823038101196,0.24792085587978363,0.35082823038101196,0.0,7.016564607620239,0.0,-0.010316510684788227,0.0077876141294837,-0.0012644482776522636,-0.09987370669841766,-0.10087605565786362,-0.10135083645582199,-0.045338415514467795,0.04533841460943222,0.10576340556144714,-0.10087200999259949,-0.045436672854959455,0.4203006625175476,16,0.06821227073669434,0.0,2.518983592381119e-06,0.0,False,True,False,False,False,False,0.27240505814552307,0.0010282433358952403,-0.001331598381511867,4.0535101675232e-07,-0.00011564610758796334,0.35082823038101196,0.0,0.0,-0.12484213709831238,-0.0030225610826164484,-0.28820574283599854,-0.0030291115399450064,-0.11650136113166809,0.11650136113166809,0.07000143826007843,1.0,0.07000143826007843,0.6355777978897095,True,0.3644222021102905
zero_steer,61,False,-3.005894899368286,-0.09986322373151779,-0.0475844371786512,-1.739193320274353,-0.10091522336006165,-1.1391935348510742,-0.10141352564096451,0.35081005096435547,0.24790577590465546,0.35081005096435547,0.0,7.016201019287109,0.0,-0.010438448749482632,0.00792879331856966,-0.0012548277154564857,-0.0998687893152237,-0.10091860592365265,-0.10141588002443314,-0.047485669575003775,0.04748567193746567,0.10885340720415115,-0.10091464221477509,-0.0475844371786512,0.4203006625175476,16,0.05919599533081055,0.0,2.6218986022286117e-06,0.0,False,True,False,False,False,False,0.27273815870285034,0.0011064913123846054,-0.0012977923033758998,0.0,-0.0003620266215875745,0.35081005096435547,0.0,0.0,-0.12483598291873932,-0.003165711183100939,-0.28832754492759705,-0.003172295866534114,-0.11664986610412598,0.11664986610412598,0.07015775889158249,1.0,0.07015775889158249,0.6354443430900574,True,0.3645556569099426
zero_steer,62,False,-2.99686861038208,-0.09986034780740738,-0.05008549036911922,-1.730167031288147,-0.1009676456451416,-1.1301672458648682,-0.10149213671684265,0.3508736789226532,0.24805255234241486,0.3508736789226532,0.0,7.017473578453064,0.0,-0.0103909932076931,0.008008576929569244,-0.0011912081390619278,-0.09986583143472672,-0.10097096860408783,-0.1014944389462471,-0.04998796674035481,0.04998796805739403,0.11259567737579346,-0.10096706449985504,-0.05008548703406591,0.4203006625175476,16,0.05016970634460449,0.0,2.620217173898709e-06,0.0,False,True,False,False,False,False,0.27283722162246704,0.0009013463859446347,-0.0009625107632018626,2.1760442336926644e-07,0.0002966162865050137,0.3508736789226532,0.0,0.0,-0.12483228743076324,-0.0033325310796499252,-0.2884773313999176,-0.0033390324097126722,-0.11682603508234024,0.11682603508234024,0.07034318894147873,1.0,0.07034318894147873,0.6351214051246643,True,0.3648785948753357
zero_steer,63,False,-2.9878392219543457,-0.0998566746711731,-0.052340806826865524,-1.7211377620697021,-0.10101383179426193,-1.1211379766464233,-0.10156194120645523,0.35084477066993713,0.2480415552854538,0.35084477066993713,0.0,7.016895413398743,0.0,-0.010356125421822071,0.008160390891134739,-0.001097867265343666,-0.09986215084791183,-0.10101716220378876,-0.10156425833702087,-0.052243740100403994,0.05224373936653137,0.1169125884771347,-0.10101325064897537,-0.052340810161918834,0.4203006625175476,16,0.04114043712615967,0.0,2.6256552700942848e-06,0.0,False,True,False,False,False,False,0.27310627698898315,0.0011947618331760168,-0.0014634029939770699,0.0,2.9347014788072556e-05,0.35084477066993713,0.0,0.0,-0.12482769042253494,-0.0034829159267246723,-0.2886092960834503,-0.003489387221634388,-0.11698366701602936,0.11698366701602936,0.07050912827253342,1.0,0.07050912827253342,0.6349747776985168,True,0.36502522230148315
zero_steer,64,False,-2.9788050651550293,-0.09985346347093582,-0.05452052763133221,-1.7121036052703857,-0.10105881094932556,-1.112103819847107,-0.10162974894046783,0.3507784605026245,0.24794302880764008,0.3507784605026245,0.0,7.01556921005249,0.0,-0.010481190867722034,0.008322089910507202,-0.0010795504786074162,-0.09985905885696411,-0.10106220096349716,-0.10163209587335587,-0.05442084955813233,0.05442085117101669,0.1217489242553711,-0.101058229804039,-0.05452053096638551,0.4203006625175476,16,0.03210616111755371,0.0,2.478173882991541e-06,0.0,False,True,False,False,False,False,0.27298542857170105,0.0014225034974515438,-0.001347422250546515,3.099870866662968e-07,-0.00013651320477947593,0.3507784605026245,0.0,0.0,-0.12482382357120514,-0.0036280564963817596,-0.28873780369758606,-0.0036347019486129284,-0.11713634431362152,0.11713634431362152,0.07066984474658966,1.0,0.07066984474658966,0.634920597076416,True,0.3650793731212616
zero_steer,65,False,-2.9697682857513428,-0.09984978288412094,-0.056817949137062604,-1.7030668258666992,-0.10110592097043991,-1.1030670404434204,-0.10170091688632965,0.35066378116607666,0.24790218472480774,0.35066378116607666,0.0,7.013275623321533,0.0,-0.010449560359120369,0.00846969522535801,-0.0009899325668811798,-0.09985561668872833,-0.10110944509506226,-0.10170334577560425,-0.05671340188603645,0.05671340227127075,0.12704768776893616,-0.10110533982515335,-0.056817949137062604,0.4203006625175476,16,0.023069024085998535,0.0,2.3611871711182175e-06,0.0,False,True,False,False,False,False,0.2731315493583679,0.0011010841699317098,-0.0012919331202283502,2.999487094257347e-07,0.00024214974837377667,0.35066378116607666,0.0,0.0,-0.12481951713562012,-0.0037808935157954693,-0.2888724207878113,-0.003787863301113248,-0.11729691922664642,0.11729691922664642,0.07083886861801147,1.0,0.07083886861801147,0.634800910949707,True,0.36519908905029297
zero_steer,66,False,-2.9607295989990234,-0.09984740614891052,-0.059101840331531895,-1.6940281391143799,-0.10115403681993484,-1.0940284729003906,-0.10177294909954071,0.35068878531455994,0.24803994596004486,0.35068878531455994,0.0,7.013775706291199,0.0,-0.010424088686704636,0.008641750551760197,-0.0008911690674722195,-0.09985321760177612,-0.1011575385928154,-0.10177535563707352,-0.058997326431038805,0.05899732559919357,0.13275276124477386,-0.10115345567464828,-0.059101840331531895,0.4203006625175476,16,0.0140305757522583,0.0,2.390347390246461e-06,0.0,False,True,False,False,False,False,0.27335843443870544,0.0013365482445806265,-0.0015051828231662512,0.0,-9.694541950011626e-05,0.35068878531455994,0.0,0.0,-0.12481652200222015,-0.0039331549778580666,-0.28900986909866333,-0.003940122667700052,-0.1174580380320549,0.1174580380320549,0.07100845873355865,1.0,0.07100845873355865,0.6345020532608032,True,0.36549797654151917
zero_steer,67,False,-2.951687812805176,-0.09984414279460907,-0.06145372659279719,-1.6849864721298218,-0.10120276361703873,-1.0849868059158325,-0.10184630751609802,0.350888192653656,0.24807466566562653,0.350888192653656,0.0,7.01776385307312,0.0,-0.010356498882174492,0.00879303365945816,-0.0007817326113581657,-0.09984993934631348,-0.10120625048875809,-0.10184870660305023,-0.06134923937273055,0.06134923920035362,0.12899547815322876,-0.10120218247175217,-0.06145371992269059,0.5652253031730652,17,0.004988908767700195,0.0,2.420371174594038e-06,0.0,False,True,False,False,False,False,0.2733687162399292,0.001356612192466855,-0.001476419740356505,0.0,-6.035238766344264e-05,0.350888192653656,0.0,0.0,-0.12481242418289185,-0.004089949186891317,-0.28914910554885864,-0.0040969145484268665,-0.11762304604053497,0.11762304604053497,0.07118216156959534,1.0,0.07118216156959534,0.6343022584915161,True,0.3656977117061615
zero_steer,68,False,-2.9426448345184326,-0.09984064847230911,-0.06388464694730027,-1.6759434938430786,-0.10125301778316498,-1.0759438276290894,-0.10192201286554337,0.35090795159339905,0.24808834493160248,0.35090795159339905,0.0,7.018159031867981,0.0,-0.010312223806977272,0.008935139514505863,-0.0006885421462357044,-0.09984640777111053,-0.10125646740198135,-0.10192437469959259,-0.06378035983043195,0.06378035992383957,0.12363313138484955,-0.10125243663787842,-0.06388464694730027,0.5652253031730652,17,0.0,0.004054069519042969,2.4179214506148128e-06,0.0,False,True,False,False,False,False,0.2734317481517792,0.0013243108987808228,-0.0014662111643701792,0.0,-4.195088695269078e-05,0.35090795159339905,0.0,0.0,-0.12480801343917847,-0.004252023994922638,-0.28929269313812256,-0.0042589763179421425,-0.11779345571994781,0.11779345571994781,0.07136154174804688,1.0,0.07136154174804688,0.6341181993484497,True,0.3658818006515503
zero_steer,69,False,-2.933600425720215,-0.0998382493853569,-0.0663730636207931,-1.6668992042541504,-0.10130563378334045,-1.0668995380401611,-0.10200069099664688,0.35094597935676575,0.2481391280889511,0.35094597935676575,0.0,7.018919587135315,0.0,-0.010298803448677063,0.009078149683773518,-0.0006103268824517727,-0.09984403103590012,-0.10130909830331802,-0.1020030602812767,-0.06626835628720827,0.06626835465431213,0.11871958523988724,-0.1013050526380539,-0.06637307029089971,0.5652253031730652,17,0.0,0.013098359107971191,2.390838744759094e-06,0.0,False,True,False,False,False,False,0.27345743775367737,0.0014884083066135645,-0.001600834308192134,0.0,-0.00010621740511851385,0.35094597935676575,0.0,0.0,-0.1248050406575203,-0.004417890217155218,-0.2894430160522461,-0.004424871411174536,-0.11796923726797104,0.11796923726797104,0.07154656201601028,1.0,0.07154656201601028,0.6338916420936584,True,0.36610835790634155
zero_steer,70,False,-2.9245548248291016,-0.09983555227518082,-0.06879914147789634,-1.657853603363037,-0.10135657340288162,-1.0578540563583374,-0.10207703709602356,0.3508128523826599,0.24809716641902924,0.3508128523826599,0.0,7.016257047653198,0.0,-0.010345816612243652,0.009234283119440079,-0.0005557667464017868,-0.09984129667282104,-0.1013600081205368,-0.10207938402891159,-0.06869482101049497,0.0686948224902153,0.11430947482585907,-0.10135599225759506,-0.06879914147789634,0.5652253031730652,17,0.0,0.022143840789794922,2.449953171890229e-06,0.0,False,True,False,False,False,False,0.2733640670776367,0.002058441750705242,-0.001965990522876382,0.0,-2.773074447759427e-05,0.3508128523826599,0.0,0.0,-0.1248016208410263,-0.004579654894769192,-0.2895885705947876,-0.004586609546095133,-0.11814021319150925,0.11814021319150925,0.07172653824090958,1.0,0.07172653824090958,0.6337625980377197,True,0.3662373721599579
zero_steer,71,False,-2.91561222076416,-0.09983140975236893,-0.07138486833674201,-1.6489111185073853,-0.10140959918498993,-1.0489115715026855,-0.10215713828802109,0.3509249985218048,0.24819715321063995,0.3509249985218048,0.0,7.018499970436096,0.0,-0.010494532994925976,0.009321268647909164,-0.0005866321735084057,-0.09727329760789871,-0.10058245062828064,-0.10214989632368088,-0.14968011386517832,0.14968012273311615,0.11050833761692047,-0.10140901803970337,-0.07138486166663541,0.5652253031730652,17,0.0,0.026816368103027344,0.004372662398964167,0.0,False,True,False,False,False,False,0.2673130929470062,0.0015283847460523248,-0.0016494168667122722,1.2195960152894258e-07,-0.0004803825286217034,0.3509249985218048,0.0,0.0,-0.12159162014722824,-0.009978674352169037,-0.28974005579948425,-0.004758990835398436,-0.12020579725503922,0.12020579725503922,0.07390083372592926,1.0,0.07390083372592926,0.6315970420837402,True,0.36840295791625977
zero_steer,72,False,-2.906806468963623,-0.09983155876398087,-0.07404995612404942,-1.6401054859161377,-0.10146866738796234,-1.040105938911438,-0.10224411636590958,0.35102346539497375,0.24833567440509796,0.35102346539497375,0.0,7.020469307899475,0.0,-0.0105852410197258,0.009461106732487679,-0.0005620671436190605,-0.09256430715322495,-0.09913139790296555,-0.10224203020334244,-0.2970451137668397,0.29704511165618896,0.10736984759569168,-0.10146808624267578,-0.07404995612404942,0.5652253031730652,17,0.0,0.02770054340362549,0.012477931566536427,0.0,False,True,False,False,False,False,0.26596924662590027,0.0015752528561279178,-0.0018274500034749508,5.989564844099959e-09,1.3119037248543464e-05,0.35102346539497375,0.0,0.0,-0.11570538580417633,-0.019803008064627647,-0.28990882635116577,-0.0049366638995707035,-0.12388870120048523,0.12388870120048523,0.07777758687734604,1.0,0.07777758687734604,0.6277756094932556,True,0.3722243905067444
zero_steer,73,False,-2.8980398178100586,-0.09982697665691376,-0.07644951363726597,-1.6313388347625732,-0.10151712596416473,-1.031339406967163,-0.1023177057504654,0.351363867521286,0.2488085925579071,0.351363867521286,0.0,7.02727735042572,0.0,-0.010734396055340767,0.009605550207197666,-0.0005644229240715504,-0.0876547321677208,-0.09761972725391388,-0.10233985632658005,-0.45074376676215233,0.45074376463890076,0.10487830638885498,-0.10151654481887817,-0.07644951363726597,0.5652253031730652,17,0.0,0.02862238883972168,0.020536912605166435,0.0,False,True,False,False,False,False,0.2646324336528778,0.0016281455755233765,-0.0017529864562675357,5.244248413305286e-08,9.349157335236669e-05,0.351363867521286,0.0,0.0,-0.10956841707229614,-0.030049584805965424,-0.290047287940979,-0.00509663438424468,-0.1277170181274414,0.1277170181274414,0.08180738985538483,1.0,0.08180738985538483,0.6234743595123291,True,0.3765256106853485
zero_steer,74,False,-2.8893113136291504,-0.09982361644506454,-0.07891672604184136,-1.6226104497909546,-0.1015683189034462,-1.0226110219955444,-0.10239472985267639,0.35171276330947876,0.24915748834609985,0.35171276330947876,0.0,7.034255266189575,0.0,-0.010878830216825008,0.009755956009030342,-0.0005614371038973331,-0.08248806744813919,-0.09602969884872437,-0.10244397073984146,-0.6125300841062741,0.6125301122665405,0.10308370739221573,-0.10156773775815964,-0.07891672604184136,0.5652253031730652,17,0.0,0.029591679573059082,0.028542935848236084,0.0,False,True,False,False,False,False,0.26350656151771545,0.001575491507537663,-0.0016870825784280896,4.1006774864627005e-08,2.6311035981052555e-06,0.35171276330947876,0.0,0.0,-0.10311008244752884,-0.040835339576005936,-0.2901935577392578,-0.005261114798486233,-0.13174660503864288,0.13174660503864288,0.08604906499385834,1.0,0.08604906499385834,0.6190959215164185,True,0.38090407848358154
zero_steer,75,False,-2.8806183338165283,-0.09982023388147354,-0.08138659314884804,-1.613917589187622,-0.10161953419446945,-1.013918161392212,-0.10247181355953217,0.3520025610923767,0.24961891770362854,0.3520025610923767,0.0,7.040051221847534,0.0,-0.01103966124355793,0.009891639463603497,-0.0005740108899772167,-0.07748576998710632,-0.09449344873428345,-0.1025494933128357,-0.769318944133768,0.7693189382553101,0.10201006382703781,-0.10161895304918289,-0.08138659314884804,0.5652253031730652,17,0.0,0.03052997589111328,0.03651397302746773,0.0,False,True,False,False,False,False,0.2625788450241089,0.001614502863958478,-0.0017042821273207664,7.895231846077877e-08,1.2709450857073534e-05,0.3520025610923767,0.0,0.0,-0.0968572124838829,-0.0512879304587841,-0.2903398871421814,-0.005425772629678249,-0.13565655052661896,0.13565655052661896,0.09016479551792145,1.0,0.09016479551792145,0.6147245168685913,True,0.3852754831314087
zero_steer,76,False,-2.8719499111175537,-0.09981711208820343,-0.08408712588268812,-1.6052491664886475,-0.10167612135410309,-1.0052498579025269,-0.10255667567253113,0.3523326516151428,0.2500793933868408,0.3523326516151428,0.0,7.0466530323028564,0.0,-0.011142157018184662,0.01001742109656334,-0.0005623679608106613,-0.07224198430776596,-0.09288577735424042,-0.10266414284706116,-0.9338067080163356,0.9338067173957825,0.10167642682790756,-0.10167554020881653,-0.08408712588268812,0.5652253031730652,17,0.0,0.03151571750640869,0.044441550970077515,0.0,False,True,False,False,False,False,0.261870801448822,0.0011837774654850364,-0.0014662293251603842,2.539840870952048e-08,8.830446313368157e-05,0.3523326516151428,0.0,0.0,-0.0903024822473526,-0.06225378066301346,-0.29050156474113464,-0.005605808459222317,-0.1397642195224762,0.1397642195224762,0.09448865801095963,1.0,0.09448865801095963,0.6101564168930054,True,0.389843612909317
zero_steer,77,False,-2.863306760787964,-0.0998154878616333,-0.08692656358670935,-1.5966062545776367,-0.10173727571964264,-0.9966068267822266,-0.102647565305233,0.3528011739253998,0.2505631446838379,0.3528011739253998,0.0,7.056023478507996,0.0,-0.011227899231016636,0.010119334794580936,-0.0005542822182178497,-0.06725648790597916,-0.0913567766547203,-0.10277238488197327,-1.090175884935844,1.0901758670806885,0.10208295285701752,-0.10173669457435608,-0.08692656358670935,0.5652253031730652,17,0.0,0.03245198726654053,0.05234110355377197,0.0,False,False,False,False,False,False,0.2611415386199951,0.0011640206212177873,-0.0014361930079758167,2.8682887176501026e-08,6.772822234779596e-05,0.3528011739253998,0.0,0.0,-0.0840706080198288,-0.07267839461565018,-0.2906762659549713,-0.0057951039634644985,-0.1436775028705597,0.1436775028705597,0.09860790520906448,1.0,0.09860790520906448,0.6057593822479248,True,0.3942406475543976
zero_steer,78,False,-2.854684352874756,-0.09981361031532288,-0.08948865825783105,-1.5879838466644287,-0.10179203748703003,-0.9879845380783081,-0.10272915661334991,0.35329073667526245,0.25115543603897095,0.35329073667526245,0.0,7.065814733505249,0.0,-0.011374429799616337,0.010239500552415848,-0.0005674646236002445,-0.06246210262179375,-0.08988804370164871,-0.10287890583276749,-1.2406337465721178,1.2406337261199951,0.10320450365543365,-0.10179145634174347,-0.08948865825783105,0.5652253031730652,17,0.0,0.033351898193359375,0.06022379547357559,0.0,False,False,False,False,False,False,0.26052528619766235,0.0017464490374550223,-0.0018279935466125607,0.0,-0.0002822499955072999,0.35329073667526245,0.0,0.0,-0.07807762920856476,-0.0827089175581932,-0.2908327281475067,-0.0059659103862941265,-0.14743904769420624,0.14743904769420624,0.10256742686033249,1.0,0.10256742686033249,0.6014055013656616,True,0.3985944986343384
zero_steer,79,False,-2.846078872680664,-0.0998113751411438,-0.09233973529788908,-1.579378604888916,-0.10185282677412033,-0.9793792963027954,-0.10281980782747269,0.35365402698516846,0.25148075819015503,0.35365402698516846,0.0,7.073080539703369,0.0,-0.011473247781395912,0.010339170694351196,-0.0005670385435223579,-0.05769382417201996,-0.08842813968658447,-0.10298608988523483,-1.3903185161717109,1.390318512916565,0.10502597689628601,-0.10185224562883377,-0.09233973529788908,0.5652253031730652,17,0.0,0.03424978256225586,0.06807613372802734,0.0,False,False,False,False,False,False,0.26006001234054565,0.0017823721282184124,-0.0018083491595461965,1.0603962863342531e-07,-0.00010012379789259285,0.35365402698516846,0.0,0.0,-0.07211728394031525,-0.09268789738416672,-0.2910064160823822,-0.00615598214790225,-0.1511906534433365,0.1511906534433365,0.10651648789644241,1.0,0.10651648789644241,0.5973286032676697,True,0.4026713967323303
zero_steer,80,False,-2.8374860286712646,-0.09981071203947067,-0.095045830900643,-1.570785641670227,-0.1019119992852211,-0.970786452293396,-0.10290731489658356,0.35403454303741455,0.2518554925918579,0.35403454303741455,0.0,7.080690860748291,0.0,-0.011576835997402668,0.01046070922166109,-0.0005580633878707886,-0.05265218764543533,-0.08688607066869736,-0.1031016856431961,-1.5486640723605858,1.5486640930175781,0.10750199854373932,-0.10191141813993454,-0.095045830900643,0.5652253031730652,17,0.0,0.0351947546005249,0.07590510696172714,0.0,False,False,False,False,False,False,0.25974783301353455,0.0017967744497582316,-0.0018708450952544808,2.25005543086354e-08,5.508591129910201e-06,0.35403454303741455,0.0,0.0,-0.06581523269414902,-0.10324426740407944,-0.2911754846572876,-0.006336388643831015,-0.15515252947807312,0.15515252947807312,0.11068688333034515,1.0,0.11068688333034515,0.5929919481277466,True,0.40700802206993103
zero_steer,81,False,-2.828901767730713,-0.09981018304824829,-0.09777994762127118,-1.5622014999389648,-0.10197191685438156,-0.9622023105621338,-0.102995865046978,0.35442209243774414,0.25236356258392334,0.35442209243774414,0.0,7.088441848754883,0.0,-0.011649475432932377,0.010580252856016159,-0.0005346112884581089,-0.047676779329776764,-0.08536578714847565,-0.1032179668545723,-1.7050091301745876,1.70500910282135,0.11058925837278366,-0.101971335709095,-0.09777994762127118,0.5652253031730652,17,0.0,0.03613078594207764,0.08371601998806,0.0,False,False,False,False,False,False,0.2595131993293762,0.0017486305441707373,-0.0020296357106417418,1.1682242728738856e-07,0.00015519600128754973,0.35442209243774414,0.0,0.0,-0.059595972299575806,-0.11366727203130722,-0.2913466691970825,-0.00651866290718317,-0.1590675264596939,0.1590675264596939,0.11480792611837387,1.0,0.11480792611837387,0.588568925857544,True,0.41143107414245605
zero_steer,82,False,-2.8203258514404297,-0.09981003403663635,-0.10054035123205464,-1.5536257028579712,-0.10203278809785843,-0.9536266326904297,-0.10308564454317093,0.35466623306274414,0.25276756286621094,0.35466623306274414,0.0,7.093324661254883,0.0,-0.011738474480807781,0.010705046355724335,-0.0005167140625417233,-0.042669616639614105,-0.08384023606777191,-0.10334157943725586,-1.862568254113559,1.8625682592391968,0.11423664540052414,-0.10203220695257187,-0.10054035123205464,0.5652253031730652,17,0.0,0.037072062492370605,0.09151119738817215,0.0,False,False,False,False,False,False,0.25932982563972473,0.0018077567219734192,-0.0018410049378871918,1.0231303804175695e-07,-2.1104668121552095e-05,0.35466623306274414,0.0,0.0,-0.05333702266216278,-0.12417121231555939,-0.2915205955505371,-0.006702689919620752,-0.16301696002483368,0.16301696002483368,0.11896523088216782,1.0,0.11896523088216782,0.5842154622077942,True,0.4157845377922058
zero_steer,83,False,-2.811758041381836,-0.09981074929237366,-0.10322751707224558,-1.545058012008667,-0.1020929142832756,-0.9450589418411255,-0.10317391157150269,0.35512080788612366,0.25327813625335693,0.35512080788612366,0.0,7.102416157722473,0.0,-0.011819345876574516,0.010825042612850666,-0.0004971516318619251,-0.03759530186653137,-0.08229422569274902,-0.10346680879592896,-2.022252313936345,2.022252321243286,0.11838921904563904,-0.10209233313798904,-0.10322751707224558,0.5652253031730652,17,0.0,0.038027405738830566,0.09928625822067261,0.0,False,False,False,False,False,False,0.2590296268463135,0.0018596653826534748,-0.001856233342550695,6.245443984198573e-08,5.496684752870351e-05,0.35512080788612366,0.0,0.0,-0.046994127333164215,-0.13481682538986206,-0.2916923761367798,-0.006881834473460913,-0.16701701283454895,0.16701701283454895,0.12317580729722977,1.0,0.12317580729722977,0.5797048807144165,True,0.4202951490879059
zero_steer,84,False,-2.8031952381134033,-0.09981244057416916,-0.1062903233064674,-1.5364954471588135,-0.10216231644153595,-0.936496376991272,-0.10327538847923279,0.35552075505256653,0.25373873114585876,0.35552075505256653,0.0,7.110415101051331,0.0,-0.01184812281280756,0.010916583240032196,-0.00046576978638768196,-0.03258982300758362,-0.08077333122491837,-0.10359646379947662,-2.1799746153634563,2.1799745559692383,0.12300412356853485,-0.10216173529624939,-0.106290329976574,0.5652253031730652,17,0.0,0.03896808624267578,0.10704761743545532,0.0,False,False,False,False,False,False,0.2589360177516937,0.002042487496510148,-0.0020195955876260996,1.1990776149772842e-09,-2.0160288840997964e-05,0.35552075505256653,0.0,0.0,-0.04073727875947952,-0.14533163607120514,-0.2918906807899475,-0.007086021825671196,-0.17098388075828552,0.17098388075828552,0.12735146284103394,1.0,0.12735146284103394,0.5752773880958557,True,0.4247226119041443
zero_steer,85,False,-2.794630527496338,-0.09981250762939453,-0.10918753080384945,-1.527930736541748,-0.10222643613815308,-0.9279317855834961,-0.10336984694004059,0.35593268275260925,0.2542148232460022,0.35593268275260925,0.0,7.118653655052185,0.0,-0.01191498339176178,0.011023661121726036,-0.00044566113501787186,-0.027278244495391846,-0.07915657758712769,-0.10372985154390335,-2.3472303667680245,2.3472304344177246,0.12802311778068542,-0.10222584754228592,-0.10918752413374284,0.5652253031730652,17,0.0,0.03996777534484863,0.11478838324546814,0.0,False,False,False,False,False,False,0.2590351402759552,0.0020588524639606476,-0.0020088644232600927,8.449082855577217e-08,-2.8567526896949857e-05,0.35593268275260925,0.0,0.0,-0.03409780561923981,-0.1564820259809494,-0.2920738458633423,-0.007279168348759413,-0.17517705261707306,0.17517705261707306,0.13176532089710236,1.0,0.13176532089710236,0.5706081390380859,True,0.42939186096191406
zero_steer,86,False,-2.786066770553589,-0.09981654584407806,-0.112211830512604,-1.5193672180175781,-0.102297343313694,-0.9193682670593262,-0.10347241908311844,0.35624462366104126,0.2546364665031433,0.35624462366104126,0.0,7.124892473220825,0.0,-0.011985542252659798,0.011159718967974186,-0.00041291164234280586,-0.021912626922130585,-0.07752785086631775,-0.1038711816072464,-2.5164105239712438,2.5164105892181396,0.13340811431407928,-0.10229675471782684,-0.112211830512604,0.5652253031730652,17,0.0,0.040978074073791504,0.12251445651054382,0.0,False,False,False,False,False,False,0.25907081365585327,0.002110919216647744,-0.00216523464769125,0.0,-7.710660429438576e-05,0.35624462366104126,0.0,0.0,-0.02739078365266323,-0.1677606999874115,-0.29227644205093384,-0.0074807885102927685,-0.17942722141742706,0.17942722141742706,0.1362391859292984,1.0,0.1362391859292984,0.5659363269805908,True,0.4340636730194092
zero_steer,87,False,-2.7774980068206787,-0.09981679171323776,-0.11512957526824237,-1.5107985734939575,-0.10236208885908127,-0.9107997417449951,-0.10356771945953369,0.3567761182785034,0.255190372467041,0.3567761182785034,0.0,7.135522365570068,0.0,-0.01203747745603323,0.011266465298831463,-0.0003855060786008835,-0.016405850648880005,-0.07585649937391281,-0.10401654988527298,-2.690074700364576,2.6900746822357178,0.13040857017040253,-0.10236150026321411,-0.11512956192802914,0.7101499438285828,18,0.0,0.042015910148620605,0.13023102283477783,0.0,False,False,False,False,False,False,0.25909531116485596,0.0020285381469875574,-0.001994549063965678,2.452588532264599e-08,-5.9491700085345656e-05,0.3567761182785034,0.0,0.0,-0.020507313311100006,-0.17933830618858337,-0.29246142506599426,-0.00767530407756567,-0.18378262221813202,0.18378262221813202,0.1408238261938095,1.0,0.1408238261938095,0.5610269904136658,True,0.43897300958633423
zero_steer,88,False,-2.7689332962036133,-0.09981947392225266,-0.11830537310846029,-1.5022339820861816,-0.10243498533964157,-0.9022352695465088,-0.10367387533187866,0.35720258951187134,0.2557597756385803,0.35720258951187134,0.0,7.144051790237427,0.0,-0.012095676735043526,0.011381832882761955,-0.0003569219261407852,-0.011033177375793457,-0.07423087954521179,-0.10416579246520996,-2.8597613587834343,2.8597614765167236,0.12534219026565552,-0.10243439674377441,-0.11830537310846029,0.7101499438285828,18,0.0,0.04302620887756348,0.137938991189003,0.0,False,False,False,False,False,False,0.2589627802371979,0.0016835208516567945,-0.0016962590161710978,2.2507588681719426e-08,-9.993845742428675e-05,0.35720258951187134,0.0,0.0,-0.013791471719741821,-0.19065076112747192,-0.29266971349716187,-0.00788702443242073,-0.18805339932441711,0.18805339932441711,0.1453193724155426,1.0,0.1453193724155426,0.5561867952346802,True,0.44381317496299744
zero_steer,89,False,-2.760370969772339,-0.09982207417488098,-0.12132910585815287,-1.4936716556549072,-0.1025044322013855,-0.8936730623245239,-0.10377498716115952,0.3576274514198303,0.2562596797943115,0.3576274514198303,0.0,7.1525490283966064,0.0,-0.012153439223766327,0.011492780409753323,-0.00033032940700650215,-0.005812212824821472,-0.07265451550483704,-0.10431577265262604,-3.0248323034272446,3.024832248687744,0.12066992372274399,-0.10250384360551834,-0.12132910585815287,0.7101499438285828,18,0.0,0.04401111602783203,0.14564236998558044,0.0,False,False,False,False,False,False,0.2589629292488098,0.002302610082551837,-0.002143931807950139,0.0,0.0001626810699235648,0.3576274514198303,0.0,0.0,-0.00726526603102684,-0.20165549218654633,-0.29286813735961914,-0.008088607341051102,-0.1922089159488678,0.1922089159488678,0.14969360828399658,1.0,0.14969360828399658,0.5515314340591431,True,0.4484685957431793
zero_steer,90,False,-2.75180721282959,-0.09982431679964066,-0.12456550828704144,-1.4851081371307373,-0.10257822275161743,-0.885109543800354,-0.10388267040252686,0.358039915561676,0.2567298412322998,0.358039915561676,0.0,7.1607983112335205,0.0,-0.012179567478597164,0.011582113802433014,-0.0002987268380820751,-0.0005941241979598999,-0.07107819616794586,-0.10446447134017944,-3.1898005817900934,3.189800500869751,0.1164439395070076,-0.10257763415575027,-0.12456550828704144,0.7101499438285828,18,0.0,0.04499328136444092,0.15333499014377594,0.0,False,False,False,False,False,False,0.2591013014316559,0.00223530107177794,-0.0020774859003722668,2.0797735089672642e-08,-8.123496809275821e-05,0.358039915561676,0.0,0.0,-0.0007426552474498749,-0.21265336871147156,-0.2930789589881897,-0.00830436684191227,-0.19636736810207367,0.19636736810207367,0.1540709286928177,1.0,0.1540709286928177,0.5469027757644653,True,0.45309722423553467
zero_steer,91,False,-2.743241310119629,-0.09982632100582123,-0.1276264735718385,-1.4765424728393555,-0.10264790058135986,-0.8765438795089722,-0.10398440062999725,0.35842686891555786,0.25722959637641907,0.35842686891555786,0.0,7.168537378311157,0.0,-0.012212365865707397,0.011686369776725769,-0.0002629980444908142,0.00463239848613739,-0.06950230151414871,-0.10461774468421936,-3.355196173862891,3.355196237564087,0.11270664632320404,-0.1026473119854927,-0.1276264735718385,0.7101499438285828,18,0.0,0.04597890377044678,0.16102160513401031,0.0,False,False,False,False,False,False,0.2590125799179077,0.0022199642844498158,-0.0021424966398626566,9.604942619034773e-09,4.123243343201466e-06,0.35842686891555786,0.0,0.0,0.005790498107671738,-0.22367973625659943,-0.2932780385017395,-0.008508431725203991,-0.2005336433649063,0.2005336433649063,0.1584564745426178,1.0,0.1584564745426178,0.5422367453575134,True,0.4577632546424866
zero_steer,92,False,-2.7346765995025635,-0.09982722997665405,-0.13073745131600742,-1.4679778814315796,-0.10271758586168289,-0.8679794073104858,-0.10408666729927063,0.35879528522491455,0.2576385736465454,0.35879528522491455,0.0,7.175905704498291,0.0,-0.0122200483456254,0.011789542622864246,-0.0002152528613805771,0.00989648699760437,-0.06791968643665314,-0.1047789677977562,-3.522018635141986,3.5220186710357666,0.1095135435461998,-0.10271699726581573,-0.13073745131600742,0.7101499438285828,18,0.0,0.04697215557098389,0.16869701445102692,0.0,False,False,False,False,False,False,0.25884750485420227,0.0020076860673725605,-0.001769656897522509,0.0,-0.0027289576828479767,0.35879528522491455,0.0,0.0,0.012370608747005463,-0.23480123281478882,-0.2934771478176117,-0.008715829811990261,-0.2047397643327713,0.2047397643327713,0.1628839671611786,1.0,0.1628839671611786,0.5376216769218445,True,0.4623783230781555
zero_steer,93,False,-2.7261157035827637,-0.09983131289482117,-0.13390307057353645,-1.4594171047210693,-0.10279165208339691,-0.8594187498092651,-0.10419388115406036,0.3592608571052551,0.2582400441169739,0.3592608571052551,0.0,7.1852171421051025,0.0,-0.01227762270718813,0.011895740404725075,-0.00019094115123152733,0.015201762318611145,-0.06632716208696365,-0.10494504868984222,-3.6902876024212437,3.6902875900268555,0.10691812634468079,-0.10279106348752975,-0.13390308391374967,0.7101499438285828,18,0.0,0.04797184467315674,0.17635658383369446,0.0,False,False,False,False,False,False,0.25881266593933105,0.0016879163449630141,-0.0015465973410755396,0.0,-0.0036576776765286922,0.3592608571052551,0.0,0.0,0.01900220289826393,-0.2460191696882248,-0.2936887741088867,-0.008926872164011002,-0.20898711681365967,0.20898711681365967,0.16735486686229706,1.0,0.16735486686229706,0.5327728390693665,True,0.46722716093063354
zero_steer,94,False,-2.7175521850585938,-0.09983303397893906,-0.13702134541433816,-1.4508538246154785,-0.10286231338977814,-0.8508554697036743,-0.1042971983551979,0.359555721282959,0.25871241092681885,0.359555721282959,0.0,7.19111442565918,0.0,-0.012313858605921268,0.012004815973341465,-0.00015452131628990173,0.02054797112941742,-0.06471528112888336,-0.10510201007127762,-3.8595674376976628,3.859567403793335,0.10495491325855255,-0.10286172479391098,-0.13702133207412495,0.7101499438285828,18,0.0,0.04898059368133545,0.18400166928768158,0.0,False,False,False,False,False,False,0.2588783800601959,0.00160126609262079,-0.001878321636468172,0.0,-0.002506394637748599,0.359555721282959,0.0,0.0,0.025684963911771774,-0.25730448961257935,-0.29389065504074097,-0.009134755469858646,-0.21325118839740753,0.21325118839740753,0.17184336483478546,1.0,0.17184336483478546,0.5280364155769348,True,0.4719635844230652
zero_steer,95,False,-2.708989381790161,-0.09983844310045242,-0.14024147278309504,-1.4422911405563354,-0.10293891280889511,-0.8422929048538208,-0.10440751910209656,0.3599262237548828,0.2590610980987549,0.3599262237548828,0.0,7.198524475097656,0.0,-0.012360852211713791,0.01212133839726448,-0.00011975690722465515,0.025898173451423645,-0.06311392039060593,-0.10527639091014862,-4.029539256514369,4.029539108276367,0.10367010533809662,-0.10293832421302795,-0.14024147278309504,0.7101499438285828,18,0.0,0.04999041557312012,0.1916390359401703,0.0,False,False,False,False,False,False,0.25871193408966064,0.0021227484103292227,-0.001480512204580009,0.0,-0.0022830392699688673,0.3599262237548828,0.0,0.0,0.032372716814279556,-0.26863595843315125,-0.2941094934940338,-0.009349431842565536,-0.21754701435565948,0.21754701435565948,0.17636528611183167,1.0,0.17636528611183167,0.5233919024467468,True,0.4766080975532532
zero_steer,96,False,-2.7004315853118896,-0.09984288364648819,-0.1434153362923957,-1.4337334632873535,-0.1030135229229927,-0.8337353467941284,-0.10451536625623703,0.3602440655231476,0.2593955993652344,0.3602440655231476,0.0,7.204881310462952,0.0,-0.012391745112836361,0.012249781750142574,-7.098168134689331e-05,0.03124605119228363,-0.06151507794857025,-0.10545336455106735,-4.1995537640133875,4.199553966522217,0.10308115184307098,-0.10301293432712555,-0.1434153496326089,0.7101499438285828,18,0.0,0.05100059509277344,0.19926223158836365,0.0,False,False,False,False,False,False,0.25860512256622314,0.0016986308619379997,-0.002094903262332082,0.0,-0.0027035849634557962,0.3602440655231476,0.0,0.0,0.03905756399035454,-0.27997025847435,-0.294322669506073,-0.0095610236749053,-0.22184361517429352,0.22184361517429352,0.18088802695274353,1.0,0.18088802695274353,0.5187608003616333,True,0.4812391996383667
zero_steer,97,False,-2.6918792724609375,-0.09984637051820755,-0.1466923463303341,-1.4251813888549805,-0.10308945178985596,-0.8251832723617554,-0.10462561249732971,0.3606334328651428,0.2598474621772766,0.3606334328651428,0.0,7.2126686573028564,0.0,-0.012354595586657524,0.012342238798737526,-6.1783939599990845e-06,0.03659933805465698,-0.059917181730270386,-0.10563427954912186,-4.36989526681892,4.3698954582214355,0.10320201516151428,-0.1030888631939888,-0.1466923463303341,0.7101499438285828,18,0.0,0.052013397216796875,0.20686782896518707,0.0,False,False,False,False,False,False,0.258651465177536,0.0021813823841512203,-0.0020907048601657152,0.0,1.3785185728920624e-05,0.3606334328651428,0.0,0.0,0.04574917256832123,-0.2913263440132141,-0.2945396304130554,-0.0097794895991683,-0.22615307569503784,0.22615307569503784,0.1854242980480194,1.0,0.1854242980480194,0.5139994621276855,True,0.48600053787231445
zero_steer,98,False,-2.683328628540039,-0.09985174238681793,-0.14971998776250092,-1.4166308641433716,-0.1031617671251297,-0.816632866859436,-0.10472963005304337,0.3610033392906189,0.26022982597351074,0.3610033392906189,0.0,7.220066785812378,0.0,-0.012421814724802971,0.012470157817006111,2.417154610157013e-05,0.04194869101047516,-0.0583222359418869,-0.10581766068935394,-4.540229939435283,4.540229797363281,0.10402444750070572,-0.10316117852926254,-0.14971997442228768,0.7101499438285828,18,0.0,0.05302560329437256,0.2144649624824524,0.0,False,False,False,False,False,False,0.25836852192878723,0.0022936302702873945,-0.002182324882596731,1.0444279219257169e-08,4.83059739053715e-06,0.3610033392906189,0.0,0.0,0.05243586376309395,-0.30268198251724243,-0.2947462201118469,-0.009981331415474415,-0.23045773804187775,0.23045773804187775,0.18995551764965057,1.0,0.18995551764965057,0.5093124508857727,True,0.4906875491142273
zero_steer,99,False,-2.6747827529907227,-0.09985864162445068,-0.1530736373254036,-1.4080852270126343,-0.10324280709028244,-0.8080873489379883,-0.10484579205513,0.3613879680633545,0.26064449548721313,0.3613879680633545,0.0,7.22775936126709,0.0,-0.012431611306965351,0.01257624663412571,7.231766358017921e-05,0.047327920794487,-0.056717872619628906,-0.1060013696551323,-4.711533218253319,4.711533069610596,0.10554305464029312,-0.10324221849441528,-0.1530736373254036,0.7101499438285828,18,0.0,0.05403900146484375,0.2220430225133896,0.0,False,False,False,False,False,False,0.25854653120040894,0.0023775033187121153,-0.0024411140475422144,4.825763966209706e-08,2.651662362040952e-05,0.3613879680633545,0.0,0.0,0.05915990099310875,-0.3141022026538849,-0.2949777841567993,-0.01020490936934948,-0.23479658365249634,0.23479658365249634,0.19452272355556488,1.0,0.19452272355556488,0.5045589208602905,True,0.4954410791397095
zero_steer,100,False,-2.6662354469299316,-0.09986293315887451,-0.1563829840401938,-1.3995380401611328,-0.10332026332616806,-0.7995402812957764,-0.10495790094137192,0.3618430495262146,0.2611870765686035,0.3618430495262146,0.0,7.236860990524292,0.0,-0.012427924200892448,0.0126868337392807,0.00012945476919412613,0.05274336040019989,-0.055105626583099365,-0.10619055479764938,-4.884165395751745,4.884165287017822,0.10771727561950684,-0.1033196747303009,-0.15638297069998058,0.7101499438285828,18,0.0,0.05506408214569092,0.22960799932479858,0.0,False,False,False,False,False,False,0.2583872675895691,0.0023006778210401535,-0.002229182282462716,5.5742738425124116e-08,-3.0408918973989785e-06,0.3618430495262146,0.0,0.0,0.06592920422554016,-0.32561102509498596,-0.29519906640052795,-0.010425531305372715,-0.23916806280612946,0.23916806280612946,0.1991242915391922,1.0,0.1991242915391922,0.4996448755264282,True,0.5003551244735718
zero_steer,101,False,-2.657686710357666,-0.09986896067857742,-0.159757030789114,-1.3909895420074463,-0.10340088605880737,-0.7909919023513794,-0.10507385432720184,0.3622727394104004,0.2616814374923706,0.3622727394104004,0.0,7.245454788208008,0.0,-0.012453046627342701,0.012788611464202404,0.00016778241842985153,0.05815255641937256,-0.05349777638912201,-0.1063833013176918,-5.05675787277562,5.056757926940918,0.11051499843597412,-0.10340029746294022,-0.15975701744890075,0.7101499438285828,18,0.0,0.05608785152435303,0.23716305196285248,0.0,False,False,False,False,False,False,0.25849440693855286,0.0023713712580502033,-0.002246250631287694,7.5381080932857e-08,6.527333607664332e-05,0.3622727394104004,0.0,0.0,0.0726906955242157,-0.33711719512939453,-0.29542943835258484,-0.010650468058884144,-0.24354374408721924,0.24354374408721924,0.2037302702665329,1.0,0.2037302702665329,0.49477481842041016,True,0.5052251815795898
zero_steer,102,False,-2.6491451263427734,-0.09987706691026688,-0.1626022714858871,-1.3824481964111328,-0.10347189754247665,-0.7824505567550659,-0.10517466068267822,0.3625470697879791,0.2621098756790161,0.3625470697879791,0.0,7.2509413957595825,0.0,-0.012513193301856518,0.01290829572826624,0.0001975512132048607,0.0635274350643158,-0.05189879238605499,-0.10657282918691635,-5.228239590285722,5.2282395362854,0.11387543380260468,-0.1034713089466095,-0.1626022714858871,0.7101499438285828,18,0.0,0.057102084159851074,0.24471189081668854,0.0,False,False,False,False,False,False,0.2581401467323303,0.0021505362819880247,-0.0020631083752959967,0.0,-0.0020272897090762854,0.3625470697879791,0.0,0.0,0.07940929383039474,-0.3485493063926697,-0.29563233256340027,-0.010840151458978653,-0.24787676334381104,0.24787676334381104,0.20829133689403534,1.0,0.20829133689403534,0.49001336097717285,True,0.5099866390228271
zero_steer,103,False,-2.6406073570251465,-0.09988425672054291,-0.16592044942183068,-1.3739105463027954,-0.1035524383187294,-0.7739130258560181,-0.10528995096683502,0.3629797101020813,0.262572705745697,0.3629797101020813,0.0,7.259594202041626,0.0,-0.01255811844021082,0.013033467344939709,0.00023767445236444473,0.06880119442939758,-0.0503365695476532,-0.10676871240139008,-5.396847505702541,5.396847724914551,0.1177673190832138,-0.10355184227228165,-0.16592044942183068,0.7101499438285828,18,0.0,0.05810046195983887,0.2522461712360382,0.0,False,False,False,False,False,False,0.25792062282562256,0.0018869847990572453,-0.0023041730746626854,0.0,-0.0020819257479161024,0.3629797101020813,0.0,0.0,0.08600149303674698,-0.35978981852531433,-0.2958624064922333,-0.01106136292219162,-0.2521575391292572,0.2521575391292572,0.21279741823673248,1.0,0.21279741823673248,0.48526978492736816,True,0.5147302150726318
zero_steer,104,False,-2.6320784091949463,-0.09989296644926071,-0.1689866707506375,-1.3653818368911743,-0.10362893342971802,-0.7653844356536865,-0.10539855808019638,0.36326369643211365,0.2630217671394348,0.36326369643211365,0.0,7.265273928642273,0.0,-0.01264444924890995,0.013150178827345371,0.0002528647892177105,0.07414956390857697,-0.04875534772872925,-0.10697182267904282,-5.5680248529077545,5.5680251121521,0.1221248209476471,-0.10362833738327026,-0.1689866707506375,0.7101499438285828,18,0.0,0.05911123752593994,0.25976312160491943,0.0,False,False,False,False,False,False,0.25768187642097473,0.0020982560236006975,-0.002113943686708808,0.0,-0.0030938507989048958,0.36326369643211365,0.0,0.0,0.09268695116043091,-0.37120166420936584,-0.29608097672462463,-0.011265777982771397,-0.2564982771873474,0.2564982771873474,0.21736662089824677,1.0,0.21736662089824677,0.4804799556732178,True,0.5195200443267822
zero_steer,105,False,-2.623561143875122,-0.09990516304969788,-0.17154325591369823,-1.3568646907806396,-0.10369765758514404,-0.7568674087524414,-0.10549405217170715,0.36357176303863525,0.2635173201560974,0.36357176303863525,0.0,7.271435260772705,0.0,-0.012700602412223816,0.013188272714614868,0.00024383515119552612,0.07913240790367126,-0.04727889597415924,-0.10715626180171967,-5.727400913887656,5.727400779724121,0.12689359486103058,-0.10369706153869629,-0.17154325591369823,0.7101499438285828,18,0.0,0.060056328773498535,0.267284095287323,0.0,False,False,False,False,False,False,0.25738325715065,0.0024810940958559513,-0.0023262042086571455,4.1359143665431475e-08,8.471368346363306e-06,0.36357176303863525,0.0,0.0,0.09891550987958908,-0.3818267285823822,-0.29627731442451477,-0.011436216533184052,-0.26053091883659363,0.26053091883659363,0.22161149978637695,1.0,0.22161149978637695,0.47595179080963135,True,0.5240482091903687
zero_steer,106,False,-2.615048408508301,-0.09991268813610077,-0.174953521341518,-1.3483521938323975,-0.10378057509660721,-0.7483550310134888,-0.10561268031597137,0.3639586567878723,0.263907790184021,0.3639586567878723,0.0,7.279173135757446,0.0,-0.012720836326479912,0.013315455988049507,0.00029730983078479767,0.08434486389160156,-0.045740678906440735,-0.107358418405056,-5.894453680607827,5.894453525543213,0.13204841315746307,-0.10377997905015945,-0.174953521341518,0.7101499438285828,18,0.0,0.06104326248168945,0.2747683823108673,0.0,False,False,False,False,False,False,0.2574482262134552,0.0024325274862349033,-0.002336140489205718,2.448365066243241e-08,1.1196968443982769e-05,0.3639586567878723,0.0,0.0,0.10543107986450195,-0.39296358823776245,-0.29651424288749695,-0.011663568206131458,-0.26478147506713867,0.26478147506713867,0.22608576714992523,1.0,0.22608576714992523,0.47131073474884033,True,0.5286892652511597
