Su2050/forklift_sim/outputs/exp83_single_point_steer_diag/exp83_force_steering_guidance_v3_seed42_point_y0_yawneg4_normal_steps.csv
mode,step,done,root_x,root_y,root_yaw_deg,fork_center_x,fork_center_y,tip_x,tip_y,raw_drive,raw_steer,applied_drive,applied_steer,drive_target_rad_s,steer_target_rad,left_steer_joint_pos_rad,right_steer_joint_pos_rad,mean_steer_joint_pos_rad,root_y_signed_m,center_y_signed_m,tip_y_signed_m,yaw_err_signed_deg,yaw_err_abs_deg,d_traj_m,d_traj_signed_m,yaw_traj_signed_deg,traj_s_norm,traj_closest_idx,dist_front_m,insert_depth_m,pallet_disp_xy_m,hold_counter,inserted,push_free,hold_entry,clean_insert_ready,dirty_insert,success,policy_vx_r,policy_vy_r,policy_yaw_rate,policy_lift_pos,policy_lift_vel,policy_prev_drive,policy_prev_steer,policy_prev_lift,policy_y_err_obs,policy_yaw_err_obs,policy_d_traj_signed_obs,policy_yaw_traj_err_obs,steer_target_cmd,steer_target_abs,steer_guidance_gate,steer_enforce_gate,steer_penalty_gate,steer_match,steer_wrong_sign,steer_shortfall
normal,0,False,-3.5,0.0,-3.9999995421277097,-2.2363834381103516,-0.08836066722869873,-1.6378450393676758,-0.13021454215049744,nan,nan,nan,nan,nan,nan,0.0,0.0,0.0,0.0,-0.08836066722869873,-0.13021454215049744,-3.999999115240887,3.9999990463256836,0.0,0.0,-6.173086552043443,0.0,0,0.5578449964523315,0.0,0.0,0.0,False,True,False,False,False,False,0.0,0.0,0.0,0.0,0.0,0.0,0.0,0.0,0.0,-0.26666659116744995,0.0,-0.41153910756111145,-0.2725875973701477,0.2725875973701477,0.23430274426937103,0.0,0.0,0.7274124026298523,False,0.2725875973701477
normal,1,False,-3.4997806549072266,-0.00019943714141845703,-4.017668387736887,-2.236191511154175,-0.0889497697353363,-1.6376659870147705,-0.1309882253408432,0.36196601390838623,0.2636678218841553,0.36196601390838623,0.2636678218841553,7.239320278167725,0.15820069313049315,0.03448191285133362,0.03420737013220787,0.034344643354415894,-0.0001994350750464946,-0.0889497622847557,-0.130988210439682,-4.017668387736887,4.0176682472229,0.0006195786991156638,-0.0005959145491942763,-6.1907553976526195,0.0,0,0.5576659440994263,0.0,6.125415552560298e-08,0.0,False,True,False,False,False,False,-0.0010016800370067358,0.0007344212499447167,-0.012543557211756706,0.0,1.1173466191394255e-05,0.36196601390838623,0.2636678218841553,0.0,-0.00024929383653216064,-0.267844557762146,-0.0017026130808517337,-0.4127170145511627,-0.27408406138420105,0.27408406138420105,0.23587797582149506,0.0,0.0,0.4622480869293213,True,0.5377519130706787
normal,2,False,-3.49916672706604,-0.0005109086632728577,-4.045239726982112,-2.2356204986572266,-0.08986927568912506,-1.637115240097046,-0.13219574093818665,0.3891245722770691,0.29651445150375366,0.3891245722770691,0.29651445150375366,7.782491445541382,0.17790867090225218,0.0687151551246643,0.06824404746294022,0.06847959756851196,-0.0005109065677970648,-0.08986926823854446,-0.13219572603702545,-4.045239726982112,4.0452399253845215,0.0016905550146475434,-0.001536344992928207,-6.218326310011022,0.0,0,0.5571151971817017,0.0,6.125415552560298e-08,0.0,False,True,False,False,False,False,-0.002016460057348013,0.0009561418555676937,-0.01653057150542736,0.0,5.56079248781316e-06,0.3891245722770691,0.29651445150375366,0.0,-0.000638633209746331,-0.2696826457977295,-0.004389557056128979,-0.41455507278442383,-0.2764253318309784,0.2764253318309784,0.23834246397018433,0.0,0.0,0.42706024646759033,True,0.5729397535324097
normal,3,False,-3.498783588409424,-0.0006077885627746582,-4.053327097846231,-2.2352499961853027,-0.09014450758695602,-1.6367506980895996,-0.13255545496940613,0.3916352391242981,0.29956942796707153,0.3916352391242981,0.29956942796707153,7.832704782485962,0.17974165678024293,0.0762622132897377,0.08510197699069977,0.08068209886550903,-0.0006077864672988653,-0.09014450013637543,-0.13255544006824493,-4.053327097846231,4.0533270835876465,0.0021134749986231327,-0.0018254074966534972,-6.226414107761964,0.0,0,0.5567506551742554,0.0,6.125415552560298e-08,0.0,False,True,False,False,False,False,0.027836386114358902,0.003533615730702877,-0.0031761464197188616,4.273623744666111e-06,-0.0011486222501844168,0.3916352391242981,0.29956942796707153,0.0,-0.0007597330841235816,-0.2702217996120453,-0.005215450190007687,-0.415094256401062,-0.27712273597717285,0.27712273597717285,0.23907656967639923,0.0,0.0,0.4233078360557556,True,0.5766921639442444
normal,4,False,-3.497218608856201,-0.0006988123059272766,-4.057438444839756,-2.2336912155151367,-0.0903262123465538,-1.6351951360702515,-0.13278010487556458,0.3918343484401703,0.2998092770576477,0.3918343484401703,0.2998092770576477,7.836686968803406,0.17988556623458862,0.07661079615354538,0.10568687319755554,0.09114883840084076,-0.0006988102104514837,-0.0903262048959732,-0.13278008997440338,-4.057438444839756,4.057438373565674,0.0033333811443299055,-0.002066071145236492,-6.230525027868665,0.0,0,0.5551949739456177,0.0,6.125415552560298e-08,0.0,False,True,False,False,False,False,0.05969357490539551,0.004453439265489578,-0.0024854191578924656,5.1205729505454656e-06,-0.0005132830701768398,0.3918343484401703,0.2998092770576477,0.0,-0.0008735127630643547,-0.2704958915710449,-0.005903060548007488,-0.41536831855773926,-0.27755433320999146,0.27755433320999146,0.23953089118003845,0.0,0.0,0.42263638973236084,True,0.5773636102676392
normal,5,False,-3.4946017265319824,-0.0008500665426254272,-4.0645064099702495,-2.231085777282715,-0.0906333178281784,-1.6325947046279907,-0.1331610381603241,0.3918681740760803,0.29992911219596863,0.3918681740760803,0.29992911219596863,7.8373634815216064,0.17995746731758117,0.07671447843313217,0.12290491163730621,0.0998096913099289,-0.0008499343530274928,-0.09063324332237244,-0.13316097855567932,-4.064508971291188,4.06450891494751,0.005764559842646122,-0.002471721498295665,-6.237593419885982,0.0,0,0.5525946617126465,0.0,3.641417123390056e-08,0.0,False,True,False,False,False,False,0.09113003313541412,0.005518356338143349,-0.003328068880364299,5.7360061873623636e-06,-0.0010766946943476796,0.3918681740760803,0.29992911219596863,0.0,-0.0010624179849401116,-0.2709672749042511,-0.007062061689794064,-0.4158395528793335,-0.2782887816429138,0.2782887816429138,0.24030399322509766,0.0,0.0,0.42178213596343994,True,0.5782178640365601
normal,6,False,-3.490978479385376,-0.00106014683842659,-4.074273153596544,-2.227477550506592,-0.09105877578258514,-1.6289939880371094,-0.1336885243654251,0.3920091390609741,0.30003005266189575,0.3920091390609741,0.30003005266189575,7.840182781219482,0.18001803159713745,0.0768546536564827,0.13813437521457672,0.10749451816082001,-0.0010598512599244714,-0.09105857461690903,-0.13368836045265198,-4.074277849351598,4.074277877807617,0.006224404089152813,-0.0015055446419864893,-21.41954324659898,0.01185582671314478,1,0.5489941835403442,0.0,2.709583668547566e-07,0.0,False,True,False,False,False,False,0.12060780823230743,0.007357856258749962,-0.0043811071664094925,4.9736822802515235e-06,-0.0008154008537530899,0.3920091390609741,0.30003005266189575,0.0,-0.0013248140458017588,-0.271618515253067,-0.004301556386053562,-1.0,-0.4243090748786926,0.4243090748786926,0.3940095603466034,0.0,0.0,0.2756608724594116,True,0.7243391275405884
normal,7,False,-3.4864673614501953,-0.0013229846954345703,-4.0864509539998535,-2.2229857444763184,-0.09159016609191895,-1.6245110034942627,-0.1343471109867096,0.40937381982803345,0.3244175314903259,0.40937381982803345,0.3244175314903259,8.187476396560669,0.19465051889419555,0.07693395018577576,0.15296734869480133,0.11495064944028854,-0.0013228276511654258,-0.0915900394320488,-0.13434699177742004,-4.0864518077735,4.086452007293701,0.003858223557472229,-0.0033517510164529085,-21.431721473889112,0.01185582671314478,1,0.5445111989974976,0.0,2.522081388178776e-07,0.0,False,True,False,False,False,False,0.14509738981723785,0.006878210231661797,-0.004691799636930227,5.10353902427596e-06,-0.0025992970913648605,0.40937381982803345,0.3244175314903259,0.0,-0.0016535345930606127,-0.2724301218986511,-0.009576431475579739,-1.0,-0.4260282516479492,0.4260282516479492,0.39581921696662903,0.0,0.0,0.24955421686172485,True,0.7504457831382751
normal,8,False,-3.4812357425689697,-0.0016297847032546997,-4.100615058791168,-2.217776298522949,-0.09220930933952332,-1.6193122863769531,-0.13511420786380768,0.4108161926269531,0.3262343406677246,0.4108161926269531,0.3262343406677246,8.216323852539062,0.19574060440063476,0.07728525996208191,0.16494791209697723,0.12111658602952957,-0.0016295837704092264,-0.09220915287733078,-0.13511407375335693,-4.1006171932252835,4.100617408752441,0.006203826516866684,-0.005495644174516201,-21.445885578680425,0.01185582671314478,1,0.539312481880188,0.0,2.779334522529098e-07,0.0,False,True,False,False,False,False,0.16486318409442902,0.009612559340894222,-0.007008831948041916,3.793602672885754e-06,-0.0001686903415247798,0.4108161926269531,0.3262343406677246,0.0,-0.002036979654803872,-0.27337446808815,-0.015701841562986374,-1.0,-0.42802655696868896,0.42802655696868896,0.39792269468307495,0.0,0.0,0.24573910236358643,True,0.7542608976364136
normal,9,False,-3.4754252433776855,-0.0019714832305908203,-4.116483722667223,-2.21199107170105,-0.09290093183517456,-1.6135388612747192,-0.1359715759754181,0.41107261180877686,0.3264297842979431,0.41107261180877686,0.3264297842979431,8.221452236175537,0.19585787057876586,0.07752561569213867,0.17417995631694794,0.1258527934551239,-0.0019713814835995436,-0.0929008424282074,-0.13597148656845093,-4.116484149554046,4.11648416519165,0.008638155646622181,-0.006514312699437141,-38.33817624526715,0.021627316251397133,2,0.5335390567779541,0.0,2.505702525468223e-07,0.0,False,True,False,False,False,False,0.18075776100158691,0.00958169437944889,-0.006811148952692747,4.073301170137711e-06,-0.0005669023375958204,0.41107261180877686,0.3264297842979431,0.0,-0.0024642269127070904,-0.2744322717189789,-0.018612323328852654,-1.0,-0.4294736981391907,0.4294736981391907,0.3994460105895996,0.0,0.0,0.2440965175628662,True,0.7559034824371338
normal,10,False,-3.4691452980041504,-0.0023413486778736115,-4.133585235688465,-2.2057383060455322,-0.09364789724349976,-1.6072990894317627,-0.13689716160297394,0.4110785722732544,0.3263835906982422,0.4110785722732544,0.3263835906982422,8.221571445465088,0.1958301544189453,0.07790539413690567,0.1812826544046402,0.12959402799606323,-0.0023411863949149847,-0.09364776313304901,-0.1368970423936844,-4.133586516348935,4.133586406707764,0.010688947513699532,-0.010648095980286598,-38.355275623854276,0.021627316251397133,2,0.5272992849349976,0.0,2.8111364258620597e-07,0.0,False,True,False,False,False,False,0.19395770132541656,0.010489372536540031,-0.008646412752568722,3.979042958235368e-06,-0.00035814003786072135,0.4110785722732544,0.3263835906982422,0.0,-0.002926483051851392,-0.27557241916656494,-0.030423132702708244,-1.0,-0.4327690601348877,0.4327690601348877,0.40291479229927063,0.0,0.0,0.24084734916687012,True,0.7591526508331299
normal,11,False,-3.4624786376953125,-0.002736832946538925,-4.15192429360995,-2.199100971221924,-0.0944477766752243,-1.6006754636764526,-0.1378885805606842,0.4110076427459717,0.3263976573944092,0.4110076427459717,0.3263976573944092,8.220152854919434,0.1958385944366455,0.07819345593452454,0.18673783540725708,0.1324656456708908,-0.0027366909198462963,-0.09444765746593475,-0.13788846135139465,-4.151925147383596,4.151925086975098,0.015596321783959866,-0.015041885897517204,-38.373614681775756,0.021627316251397133,2,0.5206756591796875,0.0,2.5452956720073416e-07,0.0,False,True,False,False,False,False,0.20477887988090515,0.010347411036491394,-0.007969406433403492,4.046554295200622e-06,-0.0006980313919484615,0.4110076427459717,0.3263976573944092,0.0,-0.003420863766223192,-0.27679499983787537,-0.04297681897878647,-1.0,-0.43627992272377014,0.43627992272377014,0.4066104590892792,0.0,0.0,0.23732244968414307,True,0.7626775503158569
normal,12,False,-3.455461025238037,-0.0030894018709659576,-4.183490012859163,-2.192134141921997,-0.09549635648727417,-1.5937327146530151,-0.13926684856414795,0.4110558331012726,0.32639598846435547,0.4110558331012726,0.32639598846435547,8.221116662025452,0.1958375930786133,0.08870429545640945,0.18945080041885376,0.1390775442123413,-0.0030892223585397005,-0.09549621492624283,-0.1392667293548584,-4.183491720406456,4.1834917068481445,0.019868532195687294,-0.01883890852332115,-53.275847771409225,0.0304144024848938,3,0.51373291015625,0.0,2.780449221972958e-07,0.0,False,True,False,False,False,False,0.2167527973651886,0.018296994268894196,-0.02337242290377617,1.9714203517651185e-05,-0.001356382854282856,0.4110558331012726,0.32639598846435547,0.0,-0.0038615278899669647,-0.2788994312286377,-0.05382545292377472,-1.0,-0.4399864673614502,0.4399864673614502,0.4105120599269867,0.0,0.0,0.23361754417419434,True,0.7663824558258057
normal,13,False,-3.448164463043213,-0.003492634743452072,-4.220403343341674,-2.1848974227905273,-0.09671347588300705,-1.586524248123169,-0.14086948335170746,0.41133594512939453,0.32667744159698486,0.41133594512939453,0.32667744159698486,8.22671890258789,0.1960064649581909,0.10340452194213867,0.19025461375713348,0.14682957530021667,-0.003492488758638501,-0.0967133492231369,-0.1408693641424179,-4.220404197115321,4.220404148101807,0.025230038911104202,-0.025104593485593796,-53.31275811368397,0.0304144024848938,3,0.5065244436264038,0.0,2.552171451952745e-07,0.0,False,True,False,False,False,False,0.22322313487529755,0.011598355136811733,-0.016511594876646996,8.243364391091745e-08,0.0014539699768647552,0.41133594512939453,0.32667744159698486,0.0,-0.0043656108900904655,-0.2813602685928345,-0.07172740995883942,-1.0,-0.44535887241363525,0.44535887241363525,0.4161672294139862,0.0,0.0,0.22796368598937988,True,0.7720363140106201
normal,14,False,-3.440706729888916,-0.003873787820339203,-4.254306694834325,-2.177495002746582,-0.09784212708473206,-1.5791481733322144,-0.14235219359397888,0.4110836386680603,0.32644468545913696,0.4110836386680603,0.32644468545913696,8.221672773361206,0.19586681127548217,0.1092848926782608,0.1927725076675415,0.15102869272232056,-0.0038736199494451284,-0.09784200042486191,-0.14235208928585052,-4.254308829268441,4.254308700561523,0.031476639211177826,-0.03143756836652756,-53.3466665878185,0.0304144024848938,3,0.4991483688354492,0.0,2.7484847464620543e-07,0.0,False,True,False,False,False,False,0.2284897416830063,0.013925277628004551,-0.01767091453075409,2.6344287107349373e-07,0.0011319605400785804,0.4110836386680603,0.32644468545913696,0.0,-0.004842024762183428,-0.28362059593200684,-0.08982162922620773,-1.0,-0.45062971115112305,0.45062971115112305,0.42171549797058105,0.0,0.0,0.22292560338974,True,0.77707439661026
normal,15,False,-3.4329540729522705,-0.004402052611112595,-4.309284168124227,-2.169833183288574,-0.09958243370056152,-1.5715292692184448,-0.1446666270494461,0.41103172302246094,0.3264785408973694,0.41103172302246094,0.3264785408973694,8.220634460449219,0.19588712453842164,0.1225762814283371,0.19389814138412476,0.15823721885681152,-0.004401971120387316,-0.09958233684301376,-0.14466652274131775,-4.309284168124227,4.309284210205078,0.03871788829565048,-0.03678562864661217,-63.88497228842034,0.039061952382326126,4,0.4915294647216797,0.0,2.65319272330089e-07,0.0,False,True,False,False,False,False,0.23808790743350983,0.02294224128127098,-0.02573872171342373,0.0003150429984088987,-0.0035140872932970524,0.41103172302246094,0.3264785408973694,0.0,-0.005502463784068823,-0.28728559613227844,-0.1051018014550209,-1.0,-0.45631393790245056,0.45631393790245056,0.42769888043403625,0.0,0.0,0.21720755100250244,True,0.7827924489974976
normal,16,False,-3.4251718521118164,-0.0048016756772994995,-4.348110378461165,-2.1621155738830566,-0.10083799064159393,-1.563842535018921,-0.14632759988307953,0.4112982153892517,0.32688069343566895,0.4112982153892517,0.32688069343566895,8.225964307785034,0.19612841606140136,0.12616665661334991,0.19489046931266785,0.16052857041358948,-0.004801761358976364,-0.10083802789449692,-0.14632761478424072,-4.348108670913872,4.348108768463135,0.04503833130002022,-0.04407564550638199,-63.92380191385187,0.039061952382326126,4,0.48384273052215576,0.0,3.023760086762195e-07,0.0,False,True,False,False,False,False,0.2391931116580963,0.0172661654651165,-0.01984221860766411,2.7157532258570427e-06,0.000346616143360734,0.4112982153892517,0.32688069343566895,0.0,-0.006002201698720455,-0.2898738980293274,-0.12593041360378265,-1.0,-0.4623507261276245,0.4623507261276245,0.4340533912181854,0.0,0.0,0.21076858043670654,True,0.7892314195632935
normal,17,False,-3.4171864986419678,-0.0052522048354148865,-4.399846073216249,-2.154217481613159,-0.10242897272109985,-1.555985689163208,-0.14845877885818481,0.41109585762023926,0.3267310857772827,0.41109585762023926,0.3267310857772827,8.221917152404785,0.19603865146636962,0.13565634191036224,0.19569382071495056,0.1656750738620758,-0.005252223927527666,-0.10242894291877747,-0.14845873415470123,-4.399843511895311,4.399843692779541,0.052117448300123215,-0.051691122353076935,-63.975533766625546,0.039061952382326126,4,0.47598588466644287,0.0,2.6036056510747585e-07,0.0,False,True,False,False,False,False,0.24331149458885193,0.04520454630255699,-0.0026896032504737377,1.8014303350355476e-05,-0.04257449880242348,0.41109585762023926,0.3267310857772827,0.0,-0.006565279792994261,-0.293322890996933,-0.14768892526626587,-1.0,-0.4691493511199951,0.4691493511199951,0.4412098526954651,0.0,0.0,0.20411956310272217,True,0.7958804368972778
normal,18,False,-3.409273624420166,-0.00548475980758667,-4.443760347598023,-2.1463794708251953,-0.10362948477268219,-1.5481832027435303,-0.15011779963970184,0.4115355610847473,0.32736122608184814,0.4115355610847473,0.32736122608184814,8.230711221694946,0.1964167356491089,0.14269620180130005,0.19575077295303345,0.16922348737716675,-0.005484659690409899,-0.10362939536571503,-0.15011771023273468,-4.443760774484846,4.443760871887207,0.05917719379067421,-0.0590570792555809,-64.01945188298872,0.039061952382326126,4,0.46818339824676514,0.0,2.7648056288853695e-07,0.0,False,True,False,False,False,False,0.2505919337272644,0.0084567591547966,-0.016034597530961037,0.0,-0.016680091619491577,0.4115355610847473,0.32736122608184814,0.0,-0.006855824496597052,-0.29625070095062256,-0.16873452067375183,-1.0,-0.4753512442111969,0.4753512442111969,0.4477381408214569,0.0,0.0,0.19728755950927734,True,0.8027124404907227
normal,19,False,-3.400679349899292,-0.005939938127994537,-4.489161895671567,-2.1378633975982666,-0.1050853505730629,-1.5397040843963623,-0.15204766392707825,0.4111659526824951,0.3268834352493286,0.4111659526824951,0.3268834352493286,8.223319053649902,0.19613006114959716,0.14996838569641113,0.19768384099006653,0.17382611334323883,-0.005939836148172617,-0.10508526116609573,-0.15204758942127228,-4.489162322558391,4.489162445068359,0.06714614480733871,-0.0671369805932045,-64.0648521504018,0.039061952382326126,4,0.45970427989959717,0.0,3.0505341896969185e-07,0.0,False,True,False,False,False,False,0.25210410356521606,0.030276231467723846,-0.03150482848286629,0.0,0.00056716229300946,0.4111659526824951,0.3268834352493286,0.0,-0.007424795068800449,-0.29927748441696167,-0.1918199509382248,-1.0,-0.48214930295944214,0.48214930295944214,0.4548940062522888,0.0,0.0,0.19096726179122925,True,0.8090327382087708
normal,20,False,-3.392204761505127,-0.00652603805065155,-4.5477149729919715,-2.129490852355957,-0.1069619432091713,-1.5313798189163208,-0.15453551709651947,0.4112579822540283,0.32706236839294434,0.4112579822540283,0.32706236839294434,8.225159645080566,0.1962374210357666,0.15364482998847961,0.1991174966096878,0.1763811707496643,-0.006526123266667128,-0.10696197301149368,-0.15453553199768066,-4.547712838557856,4.547712802886963,0.07533968985080719,-0.07530615478754044,-64.12340736215631,0.039061952382326126,4,0.4513798952102661,0.0,1.9090890646111802e-07,0.0,False,True,False,False,False,False,0.25271695852279663,0.01857864111661911,-0.023866495117545128,5.26146286574658e-05,-0.000760466733481735,0.4112579822540283,0.32706236839294434,0.0,-0.008157653734087944,-0.30318084359169006,-0.21516044437885284,-1.0,-0.4896295666694641,0.4896295666694641,0.46276795864105225,0.0,0.0,0.18330806493759155,True,0.8166919350624084
normal,21,False,-3.3839058876037598,-0.00696602463722229,-4.594336990492832,-2.121273994445801,-0.10842937231063843,-1.5232019424438477,-0.15648961067199707,0.4111769497394562,0.3268928527832031,0.4111769497394562,0.3268928527832031,8.223538994789124,0.19613571166992186,0.1543077826499939,0.20084956288337708,0.17757867276668549,-0.006966267246752977,-0.10842947661876678,-0.15648965537548065,-4.594331014077309,4.59433126449585,0.08328557014465332,-0.08313391357660294,-64.17002340324166,0.039061952382326126,4,0.4432021379470825,0.0,2.923307249602658e-07,0.0,False,True,False,False,False,False,0.25465014576911926,0.023718655109405518,-0.025035731494426727,2.9365717182372464e-06,0.00048563117161393166,0.4111769497394562,0.3268928527832031,0.0,-0.008707834407687187,-0.3062887191772461,-0.23752547800540924,-1.0,-0.49632659554481506,0.49632659554481506,0.46981745958328247,0.0,0.0,0.1767805814743042,True,0.8232194185256958
normal,22,False,-3.375420331954956,-0.007374517619609833,-4.645031935173136,-2.1128787994384766,-0.10995499789714813,-1.514849305152893,-0.1585443913936615,0.4112122654914856,0.3269544839859009,0.4112122654914856,0.3269544839859009,8.224245309829712,0.19617269039154053,0.15697892010211945,0.20149368047714233,0.1792362928390503,-0.007374803069978952,-0.10995513200759888,-0.15854446589946747,-4.645025531870789,4.645025730133057,0.09119898080825806,-0.09035742282867432,-70.16160194696025,0.047984909266233444,5,0.43484950065612793,0.0,2.865018586817314e-07,0.0,False,True,False,False,False,False,0.2561873495578766,0.012686595320701599,-0.023494312539696693,7.203693530755118e-05,-0.0010086254915222526,0.4112122654914856,0.3269544839859009,0.0,-0.009218503721058369,-0.3096683621406555,-0.25816407799720764,-1.0,-0.502833366394043,0.502833366394043,0.47666671872138977,0.0,0.0,0.17021214962005615,True,0.8297878503799438
normal,23,False,-3.3669369220733643,-0.007891479879617691,-4.6992858352978395,-2.1044929027557373,-0.11166742444038391,-1.5065099000930786,-0.16082307696342468,0.41108351945877075,0.32684648036956787,0.41108351945877075,0.32684648036956787,8.221670389175415,0.19610788822174072,0.16082894802093506,0.202500119805336,0.18166452646255493,-0.007891417481005192,-0.11166734993457794,-0.1608230173587799,-4.699284981524194,4.69928503036499,0.09925181418657303,-0.0986981987953186,-70.21585413953765,0.047984909266233444,5,0.426510214805603,0.0,3.083605122355948e-07,0.0,False,True,False,False,False,False,0.25742772221565247,0.029687099158763885,-0.030362045392394066,0.0,0.017505258321762085,0.41108351945877075,0.32684648036956787,0.0,-0.009864271618425846,-0.3132856488227844,-0.28199484944343567,-1.0,-0.5101903676986694,0.5101903676986694,0.4844109117984772,0.0,0.0,0.1629631519317627,True,0.8370368480682373
normal,24,False,-3.3583197593688965,-0.008325822651386261,-4.749913758746913,-2.095968008041382,-0.11321725696325302,-1.4980286359786987,-0.16290128231048584,0.41112375259399414,0.326870322227478,0.41112375259399414,0.326870322227478,8.222475051879883,0.1961221933364868,0.1626828908920288,0.20288541913032532,0.18278415501117706,-0.008325767703354359,-0.11321719735860825,-0.16290120780467987,-4.749912904973267,4.749912738800049,0.10742589831352234,-0.10709808766841888,-70.26647950166578,0.047984909266233444,5,0.4180288314819336,0.0,2.7732281182579754e-07,0.0,False,True,False,False,False,False,0.2608669698238373,0.025435451418161392,-0.027370624244213104,3.2754649055277696e-06,-0.0016785806510597467,0.41112375259399414,0.326870322227478,0.0,-0.010407209396362305,-0.3166608512401581,-0.30599454045295715,-1.0,-0.517380952835083,0.517380952835083,0.4919799566268921,0.0,0.0,0.15574872493743896,True,0.844251275062561
normal,25,False,-3.3495993614196777,-0.008892767131328583,-4.812473595789175,-2.087362766265869,-0.11516246199607849,-1.4894781112670898,-0.16549932956695557,0.41122180223464966,0.32707923650741577,0.41122180223464966,0.32707923650741577,8.224436044692993,0.19624754190444946,0.16724978387355804,0.20394104719161987,0.18559542298316956,-0.008892900310456753,-0.11516250669956207,-0.16549932956695557,-4.812469326920944,4.812469482421875,0.11592581123113632,-0.11573492735624313,-70.32904403446311,0.047984909266233444,5,0.4094783067703247,0.0,2.3392757952933607e-07,0.0,False,True,False,False,False,False,0.26679983735084534,0.022192751988768578,-0.021905312314629555,0.00026491362950764596,-0.0032483870163559914,0.41122180223464966,0.32707923650741577,0.0,-0.011116125620901585,-0.320831298828125,-0.3306712210178375,-1.0,-0.5252872705459595,0.5252872705459595,0.5003023743629456,0.0,0.0,0.14763349294662476,True,0.8523665070533752
normal,26,False,-3.3409523963928223,-0.00935504212975502,-4.86830911159356,-2.07882022857666,-0.11685474961996078,-1.4809846878051758,-0.1677742451429367,0.4111030697822571,0.3270077109336853,0.4111030697822571,0.3270077109336853,8.222061395645142,0.19620462656021118,0.16992391645908356,0.20435048639774323,0.1871372014284134,-0.009354991838335991,-0.11685468256473541,-0.16777417063713074,-4.868308257819914,4.8683085441589355,0.12430132925510406,-0.12420990318059921,-70.38487400073879,0.047984909266233444,5,0.4009850025177002,0.0,3.398309047497605e-07,0.0,False,True,False,False,False,False,0.2620331943035126,0.006468221545219421,-0.023183969780802727,0.0,0.003840426215901971,0.4111030697822571,0.3270077109336853,0.0,-0.011693740263581276,-0.32455387711524963,-0.354885458946228,-1.0,-0.5327571034431458,0.5327571034431458,0.5081653594970703,0.0,0.0,0.14023518562316895,True,0.859764814376831
normal,27,False,-3.3323397636413574,-0.009825523942708969,-4.925034259537339,-2.070314407348633,-0.11857475340366364,-1.4725297689437866,-0.1700861006975174,0.4109409749507904,0.3267088532447815,0.4109409749507904,0.3267088532447815,8.218819499015808,0.1960253119468689,0.17385873198509216,0.20334602892398834,0.18860238790512085,-0.009825656190514565,-0.11857479810714722,-0.1700861006975174,-4.925029990669108,4.92503023147583,0.13269856572151184,-0.13266295194625854,-70.44159872179574,0.047984909266233444,5,0.3925299644470215,0.0,2.32907368058477e-07,0.0,False,True,False,False,False,False,0.25905242562294006,0.02899167686700821,-0.029496928676962852,8.587951742811128e-05,-0.0018399793189018965,0.4109409749507904,0.3267088532447815,0.0,-0.012282069772481918,-0.32833531498908997,-0.3790370225906372,-1.0,-0.5402566194534302,0.5402566194534302,0.5160595774650574,0.0,0.0,0.13303452730178833,True,0.8669654726982117
normal,28,False,-3.3237576484680176,-0.010337214916944504,-4.982130372130415,-2.0618414878845215,-0.12034401297569275,-1.4641082286834717,-0.17245103418827057,0.41131120920181274,0.3270723223686218,0.41131120920181274,0.3270723223686218,8.226224184036255,0.19624339342117308,0.1750306636095047,0.20399519801139832,0.1895129382610321,-0.010337164625525475,-0.12034394592046738,-0.1724509596824646,-4.982129945243591,4.98213005065918,0.13830502331256866,-0.0,-4.982130372130415,0.12531575560569763,13,0.3841085433959961,0.0,3.392298992821452e-07,0.0,False,True,False,False,False,False,0.26178035140037537,0.02666991762816906,-0.027370324358344078,1.7353646626361297e-06,0.0025939051993191242,0.41131120920181274,0.3270723223686218,0.0,-0.01292145624756813,-0.3321419954299927,-0.0,-0.33214202523231506,-0.30019286274909973,0.30019286274909973,0.2633609175682068,0.0,0.0,0.37273478507995605,True,0.627265214920044
normal,29,False,-3.315089464187622,-0.010818421840667725,-5.0402689423455636,-2.053285598754883,-0.12210564315319061,-1.4556055068969727,-0.17481917142868042,0.3926507234573364,0.30052417516708374,0.3926507234573364,0.30052417516708374,7.8530144691467285,0.18031450510025024,0.17488610744476318,0.2044554352760315,0.18967077136039734,-0.010818557813763618,-0.1221056878566742,-0.17481917142868042,-5.040265100364155,5.040265083312988,0.14420439302921295,-0.0,-5.0402689423455636,0.12531575560569763,13,0.3756057024002075,0.0,2.3016173145151697e-07,0.0,False,True,False,False,False,False,0.2656070590019226,0.023144466802477837,-0.023406708613038063,1.01143186839181e-05,0.003785347566008568,0.3926507234573364,0.30052417516708374,0.0,-0.013523196801543236,-0.3360176682472229,-0.0,-0.3360179364681244,-0.3038969039916992,0.3038969039916992,0.2672598958015442,0.0,0.0,0.39557892084121704,True,0.604421079158783
normal,30,False,-3.306335687637329,-0.011328618973493576,-5.097356090315353,-2.0446431636810303,-0.12387299537658691,-1.4470161199569702,-0.17718200385570526,0.3911037743091583,0.29850488901138306,0.3911037743091583,0.29850488901138306,7.8220754861831665,0.17910293340682984,0.17594459652900696,0.20242296159267426,0.18918377161026,-0.011328676715493202,-0.12387300282716751,-0.17718198895454407,-5.09735438276806,5.097354412078857,0.15043379366397858,-0.0,-5.097356517202176,0.12531575560569763,13,0.3670163154602051,0.0,2.503552423149813e-07,0.0,False,True,False,False,False,False,0.26513293385505676,0.023060377687215805,-0.03176163136959076,1.8440035773892305e-06,-0.0003376426757313311,0.3911037743091583,0.29850488901138306,0.0,-0.014160845428705215,-0.3398236334323883,-0.0,-0.33982375264167786,-0.3075551390647888,0.3075551390647888,0.2711106836795807,0.0,0.0,0.3939399719238281,True,0.6060600280761719
normal,31,False,-3.297541856765747,-0.01204260066151619,-5.165303239065463,-2.0359838008880615,-0.1260831356048584,-1.438420295715332,-0.18010082840919495,0.3912820816040039,0.2987860441207886,0.3912820816040039,0.2987860441207886,7.825641632080078,0.17927162647247313,0.17616267502307892,0.2014726847410202,0.18881767988204956,-0.012042729184031487,-0.12608318030834198,-0.18010082840919495,-5.165299397084055,5.165299415588379,0.14985094964504242,-0.1260824203491211,-5.165303239065463,0.27109628915786743,15,0.3584204912185669,0.0,2.3184614406090986e-07,0.0,False,True,False,False,False,False,0.27031853795051575,0.028461147099733353,-0.03030405193567276,0.0,0.0006608031690120697,0.3912820816040039,0.2987860441207886,0.0,-0.015053411945700645,-0.3443532884120941,-0.3602354824542999,-0.3443535566329956,-0.3840162456035614,0.3840162456035614,0.35159605741500854,0.0,0.0,0.31719768047332764,True,0.6828023195266724
normal,32,False,-3.288661003112793,-0.012559927999973297,-5.223604880047046,-2.027219533920288,-0.1278841197490692,-1.4297113418579102,-0.18250983953475952,0.39019399881362915,0.29786401987075806,0.39019399881362915,0.29786401987075806,7.803879976272583,0.17871841192245483,0.17708414793014526,0.20146572589874268,0.18927493691444397,-0.012560028582811356,-0.1278841495513916,-0.18250983953475952,-5.22360274561293,5.223602771759033,0.14686724543571472,-0.12788338959217072,-5.223604880047046,0.27109628915786743,15,0.349711537361145,0.0,3.0263763051152637e-07,0.0,False,True,False,False,False,False,0.2704663574695587,0.02701687626540661,-0.03126431256532669,1.1786204368036124e-06,-0.00021692882000934333,0.39019399881362915,0.29786401987075806,0.0,-0.01570003479719162,-0.3482401669025421,-0.365381121635437,-0.34824031591415405,-0.3887792229652405,0.3887792229652405,0.3566097021102905,0.0019230444449931383,0.0006857762928120792,0.31335675716400146,True,0.6866432428359985
normal,33,False,-3.2796292304992676,-0.013099901378154755,-5.281794676680969,-2.018305540084839,-0.12970513105392456,-1.4208531379699707,-0.18493765592575073,0.3903123140335083,0.2979879379272461,0.3903123140335083,0.2979879379272461,7.806246280670166,0.17879276275634765,0.17803481221199036,0.2014995664358139,0.18976718187332153,-0.013099849224090576,-0.12970507144927979,-0.18493758141994476,-5.281793822907323,5.28179407119751,0.14432945847511292,-0.12970438599586487,-5.281794249794146,0.27109628915786743,15,0.34085333347320557,0.0,2.765956992334395e-07,0.0,False,True,False,False,False,False,0.2711286246776581,0.028705473989248276,-0.030181409791111946,1.1752013762134084e-07,-0.001379835419356823,0.3903123140335083,0.2979879379272461,0.0,-0.01637481153011322,-0.3521195948123932,-0.37058398127555847,-0.3521196246147156,-0.39355963468551636,0.39355963468551636,0.3616417348384857,0.06097773462533951,0.022052094340324402,0.30845242738723755,True,0.6915475726127625
normal,34,False,-3.2706422805786133,-0.013664379715919495,-5.342106527712651,-2.009442090988159,-0.13159728050231934,-1.412048101425171,-0.18745867908000946,0.3904539942741394,0.29824739694595337,0.3904539942741394,0.29824739694595337,7.809079885482788,0.17894843816757203,0.17941460013389587,0.2014140486717224,0.19041432440280914,-0.013664322905242443,-0.13159720599651337,-0.1874586045742035,-5.342106100825828,5.342106342315674,0.14241406321525574,-0.13159652054309845,-5.342106527712651,0.27109628915786743,15,0.33204829692840576,0.0,2.5574266260264267e-07,0.0,False,True,False,False,False,False,0.2727700173854828,0.030001230537891388,-0.03150717914104462,3.0498713385895826e-06,0.0004209181934129447,0.3904539942741394,0.29824739694595337,0.0,-0.017080403864383698,-0.3561404049396515,-0.3759900629520416,-0.3561404347419739,-0.39851975440979004,0.39851975440979004,0.3668628931045532,0.11967797577381134,0.043905407190322876,0.3032328486442566,True,0.6967671513557434
normal,35,False,-3.261646270751953,-0.014219239354133606,-5.402446553274659,-2.0005710124969482,-0.1334802806377411,-1.4032361507415771,-0.18997077643871307,0.3906327784061432,0.29857850074768066,0.3906327784061432,0.29857850074768066,7.812655568122864,0.1791471004486084,0.1799611747264862,0.2011297047138214,0.1905454397201538,-0.014219215139746666,-0.1334802359342575,-0.1899707317352295,-5.4024461263878365,5.402446269989014,0.1410449892282486,-0.1334795206785202,-5.402446553274659,0.27109628915786743,15,0.32323622703552246,0.0,1.5911719231098687e-07,0.0,False,True,False,False,False,False,0.272957444190979,0.0307517908513546,-0.023452499881386757,0.0,-0.005785883869975805,0.3906327784061432,0.29857850074768066,0.0,-0.01777401939034462,-0.3601630628108978,-0.38137006759643555,-0.3601630926132202,-0.4034707844257355,0.4034707844257355,0.37207451462745667,0.17842510342597961,0.06638743728399277,0.29795074462890625,True,0.7020492553710938
normal,36,False,-3.252681255340576,-0.01479329913854599,-5.461482866478842,-1.991729497909546,-0.1353536695241928,-1.3944532871246338,-0.1924596130847931,0.3908187747001648,0.29882073402404785,0.3908187747001648,0.29882073402404785,7.816375494003296,0.1792924404144287,0.18003623187541962,0.1994338035583496,0.1897350251674652,-0.01479346677660942,-0.13535374402999878,-0.19245964288711548,-5.461479024497433,5.461479187011719,0.14024856686592102,-0.13535289466381073,-5.461482866478842,0.27109628915786743,15,0.31445348262786865,0.0,2.2321775361433538e-07,0.0,False,True,False,False,False,False,0.2688644826412201,0.028460344299674034,-0.04002835601568222,0.0,0.0109927449375391,0.3908187747001648,0.29882073402404785,0.0,-0.01849183440208435,-0.36409860849380493,-0.3867225646972656,-0.36409884691238403,-0.40835005044937134,0.40835005044937134,0.3772105872631073,0.2369767427444458,0.08939013630151749,0.2928292155265808,True,0.7071707844734192
normal,37,False,-3.243640899658203,-0.015408750623464584,-5.523159047797233,-1.982819676399231,-0.13732638955116272,-1.3856052160263062,-0.19507524371147156,0.39105644822120667,0.2990357279777527,0.39105644822120667,0.2990357279777527,7.821128964424133,0.1794214367866516,0.18108618259429932,0.1996648907661438,0.19037553668022156,-0.015408717095851898,-0.13732634484767914,-0.19507518410682678,-5.523158194023587,5.523158073425293,0.140115886926651,-0.13732559978961945,-5.523159047797233,0.27109628915786743,15,0.30560553073883057,0.0,3.0746736001674435e-07,0.0,False,True,False,False,False,False,0.27244195342063904,0.029538791626691818,-0.031951047480106354,3.576350025014108e-07,-0.0015233238227665424,0.39105644822120667,0.2990357279777527,0.0,-0.019260896369814873,-0.3682105541229248,-0.3923588693141937,-0.3682106137275696,-0.4134652614593506,0.4134652614593506,0.3825950026512146,0.2959630787372589,0.11323399841785431,0.28749901056289673,True,0.7125009894371033
normal,38,False,-3.2346410751342773,-0.016205817461013794,-5.592461989097591,-1.973968267440796,-0.1396484076976776,-1.376824140548706,-0.19811959564685822,0.3912380337715149,0.29946112632751465,0.3912380337715149,0.29946112632751465,7.824760675430298,0.17967667579650878,0.18238845467567444,0.19928380846977234,0.1908361315727234,-0.016205767169594765,-0.13964834809303284,-0.19811952114105225,-5.592461562210768,5.592461585998535,0.14093071222305298,-0.13964760303497314,-5.592461989097591,0.27109628915786743,15,0.2968243360519409,0.0,2.765935107618134e-07,0.0,False,True,False,False,False,False,0.2779095768928528,0.02459208108484745,-0.023919271305203438,0.00037219104706309736,-0.006376071833074093,0.3912380337715149,0.29946112632751465,0.0,-0.02025720849633217,-0.3728307783603668,-0.3989931643009186,-0.3728308081626892,-0.4193323850631714,0.4193323850631714,0.3887709379196167,0.35450437664985657,0.1378210037946701,0.28120648860931396,True,0.718793511390686
normal,39,False,-3.225390672683716,-0.01677195355296135,-5.652642785874574,-1.964848279953003,-0.14153863489627838,-1.3677657842636108,-0.20063699781894684,0.39139944314956665,0.2996421456336975,0.39139944314956665,0.2996421456336975,7.827988862991333,0.1797852873802185,0.18276792764663696,0.1997271627187729,0.19124755263328552,-0.016772102564573288,-0.14153867959976196,-0.20063699781894684,-5.652638090119519,5.652637958526611,0.1418808251619339,-0.1415378302335739,-5.652642785874574,0.27109628915786743,15,0.2877659797668457,0.0,2.3430560247561516e-07,0.0,False,True,False,False,False,False,0.2736019790172577,0.03297201916575432,-0.03418800234794617,0.0001881512434920296,-0.005836267024278641,0.39139944314956665,0.2996421456336975,0.0,-0.020965129137039185,-0.37684252858161926,-0.4043938219547272,-0.3768428564071655,-0.4242841303348541,0.4242841303348541,0.39398330450057983,0.41489341855049133,0.16346107423305511,0.276073694229126,True,0.723926305770874
normal,40,False,-3.2167062759399414,-0.017357200384140015,-5.710341662661902,-1.9562900066375732,-0.14339323341846466,-1.3592674732208252,-0.20309284329414368,0.39192694425582886,0.30024048686027527,0.39192694425582886,0.30024048686027527,7.838538885116577,0.18014429211616514,0.18297135829925537,0.19948871433734894,0.19123002886772156,-0.01735728606581688,-0.14339326322078705,-0.20309284329414368,-5.710338674454141,5.710338592529297,0.14339902997016907,-0.143392413854599,-5.710341662661902,0.27109628915786743,15,0.27926766872406006,0.0,2.4998652747854067e-07,0.0,False,True,False,False,False,False,0.27386474609375,0.029002539813518524,-0.030593745410442352,2.0967013369954657e-06,7.3895062087103724e-06,0.39192694425582886,0.30024048686027527,0.0,-0.021696608513593674,-0.38068923354148865,-0.4096926152706146,-0.38068944215774536,-0.4290797710418701,0.4290797710418701,0.3990313410758972,0.47154882550239563,0.18816275894641876,0.2706797122955322,True,0.7293202877044678
normal,41,False,-3.2075417041778564,-0.017971165478229523,-5.770963006640351,-1.947259545326233,-0.1453407108783722,-1.3503004312515259,-0.20567196607589722,0.3920411467552185,0.30037569999694824,0.3920411467552185,0.30037569999694824,7.84082293510437,0.18022541999816893,0.18384896218776703,0.20054107904434204,0.19219502806663513,-0.01797126978635788,-0.1453407257795334,-0.20567195117473602,-5.770959164658942,5.770959377288818,0.14554668962955475,-0.14533987641334534,-5.770963006640351,0.27109628915786743,15,0.27030062675476074,0.0,2.3121053516206302e-07,0.0,False,True,False,False,False,False,0.27419793605804443,0.02865005098283291,-0.0326450914144516,3.94222610111683e-07,0.00105943251401186,0.3920411467552185,0.30037569999694824,0.0,-0.02246408723294735,-0.38473060727119446,-0.4152567982673645,-0.38473087549209595,-0.43411701917648315,0.43411701917648315,0.4043337106704712,0.5313290953636169,0.21483425796031952,0.2655072808265686,True,0.7344927191734314
normal,42,False,-3.1986846923828125,-0.01858774945139885,-5.829074256098819,-1.9385323524475098,-0.1472354531288147,-1.341634750366211,-0.20817212760448456,0.3922633230686188,0.3006943464279175,0.3922633230686188,0.3006943464279175,7.8452664613723755,0.18041660785675048,0.1843835562467575,0.20032203197479248,0.1923528015613556,-0.018587704747915268,-0.14723537862300873,-0.2081720530986786,-5.829073829211996,5.829073905944824,0.14815352857112885,-0.14723460376262665,-5.829074682985642,0.27109628915786743,15,0.26163506507873535,0.0,3.3811372190939437e-07,0.0,False,True,False,False,False,False,0.27328944206237793,0.029784392565488815,-0.03136945888400078,4.809949132322799e-06,6.286217831075191e-05,0.3922633230686188,0.3006943464279175,0.0,-0.02323463186621666,-0.38860490918159485,-0.4206703007221222,-0.3886049687862396,-0.4389774203300476,0.4389774203300476,0.40944990515708923,0.5890995264053345,0.24120675027370453,0.2603282332420349,True,0.7396717667579651
normal,43,False,-3.189466953277588,-0.019367031753063202,-5.88950478166733,-1.9294509887695312,-0.14934372901916504,-1.332617998123169,-0.21090993285179138,0.3924811780452728,0.3010218143463135,0.3924811780452728,0.3010218143463135,7.8496235609054565,0.18061308860778807,0.18542413413524628,0.1982555091381073,0.1918398141860962,-0.01936715468764305,-0.14934375882148743,-0.2109099179506302,-5.889500939685922,5.889501094818115,0.15151339769363403,-0.149342879652977,-5.88950478166733,0.27109628915786743,15,0.2526181936264038,0.0,2.3200786358756886e-07,0.0,False,True,False,False,False,False,0.2736456096172333,0.02935628779232502,-0.03324808180332184,0.0,0.0009308925364166498,0.3924811780452728,0.3010218143463135,0.0,-0.02420894429087639,-0.3926333785057068,-0.42669394612312317,-0.3926336467266083,-0.44418808817863464,0.44418808817863464,0.41493484377861023,0.6492120027542114,0.26938068866729736,0.2547900676727295,True,0.7452099323272705
normal,44,False,-3.1804513931274414,-0.019973795861005783,-5.9473949037514195,-1.9205673933029175,-0.15122352540493011,-1.3237968683242798,-0.2133927196264267,0.3926205039024353,0.30122172832489014,0.3926205039024353,0.30122172832489014,7.852410078048706,0.18073303699493407,0.18581053614616394,0.19884034991264343,0.1923254430294037,-0.019973745569586754,-0.15122345089912415,-0.21339264512062073,-5.947394049977773,5.947393894195557,0.15509407222270966,-0.15122266113758087,-5.947394476864596,0.27109628915786743,15,0.2437971830368042,0.0,3.387174274394056e-07,0.0,False,True,False,False,False,False,0.273377925157547,0.03025813400745392,-0.03478230535984039,0.0001184790744446218,-0.10225097090005875,0.3926205039024353,0.30122172832489014,0.0,-0.02496718242764473,-0.39649292826652527,-0.4320647418498993,-0.39649295806884766,-0.4490211606025696,0.4490211606025696,0.42002227902412415,0.7080187201499939,0.2973836362361908,0.24975711107254028,True,0.7502428889274597
normal,45,False,-3.171459913253784,-0.020646456629037857,-6.005628669728125,-1.9117100238800049,-0.15317663550376892,-1.3150030374526978,-0.2159523367881775,0.3940768241882324,0.3031495213508606,0.3940768241882324,0.3031495213508606,7.881536483764648,0.18188971281051636,0.1866494119167328,0.19894908368587494,0.19279924035072327,-0.020646577700972557,-0.1531766653060913,-0.2159523218870163,-6.005624827746717,6.005624771118164,0.15917636454105377,-0.15317575633525848,-6.005628669728125,0.27109628915786743,15,0.23500323295593262,0.0,2.3132911053380667e-07,0.0,False,True,False,False,False,False,0.2723545730113983,0.039749450981616974,-0.03487494960427284,0.0,-0.015255839563906193,0.3940768241882324,0.3031495213508606,0.0,-0.025808222591876984,-0.40037497878074646,-0.4376450181007385,-0.40037524700164795,-0.45395341515541077,0.45395341515541077,0.42521411180496216,0.766645073890686,0.3259882926940918,0.24289703369140625,True,0.7571029663085938
normal,46,False,-3.161868095397949,-0.021286115050315857,-6.0682905327211145,-1.902263879776001,-0.15519395470619202,-1.3056257963180542,-0.21862220764160156,0.3933796286582947,0.3021745979785919,0.3933796286582947,0.3021745979785919,7.8675925731658936,0.18130475878715516,0.1865217685699463,0.1986495852470398,0.19258567690849304,-0.021286064758896828,-0.15519388020038605,-0.2186221331357956,-6.068290105834291,6.0682902336120605,0.16390936076641083,-0.15519306063652039,-6.0682905327211145,0.27109628915786743,15,0.2256261110305786,0.0,3.3833018164841633e-07,0.0,False,True,False,False,False,False,0.27221953868865967,0.022576019167900085,-0.03362836688756943,0.00037467930815182626,-0.00255310395732522,0.3933796286582947,0.3021745979785919,0.0,-0.026607580482959747,-0.4045526683330536,-0.4434087574481964,-0.404552698135376,-0.45916518568992615,0.45916518568992615,0.4307002127170563,0.8291592001914978,0.35711905360221863,0.23866021633148193,True,0.7613397836685181
normal,47,False,-3.1533801555633545,-0.021993514150381088,-6.128194279949888,-1.8939166069030762,-0.15721821784973145,-1.2973452806472778,-0.22127023339271545,0.39304018020629883,0.3018744885921478,0.39304018020629883,0.3018744885921478,7.860803604125977,0.1811246931552887,0.1869722455739975,0.1989884227514267,0.1929803341627121,-0.021993614733219147,-0.15721824765205383,-0.22127021849155426,-6.128191291742126,6.1281914710998535,0.16866762936115265,-0.15721732378005981,-6.128194706836711,0.27109628915786743,15,0.2173454761505127,0.0,2.295775942684486e-07,0.0,False,True,False,False,False,False,0.2739400267601013,0.03168746829032898,-0.03265116363763809,8.05289346317295e-06,0.001196322264149785,0.39304018020629883,0.3018744885921478,0.0,-0.027492018416523933,-0.4085460901260376,-0.4491923749446869,-0.4085462987422943,-0.46425604820251465,0.46425604820251465,0.43605899810791016,0.8843634128570557,0.3856346309185028,0.23386943340301514,True,0.7661305665969849
normal,48,False,-3.1443428993225098,-0.022667132318019867,-6.188944116862097,-1.8850233554840088,-0.1592271625995636,-1.288520336151123,-0.22391167283058167,0.3933250606060028,0.3021889328956604,0.3933250606060028,0.3021889328956604,7.866501212120056,0.18131335973739623,0.1873684972524643,0.19800277054309845,0.19268563389778137,-0.022667057812213898,-0.15922708809375763,-0.2239115983247757,-6.18894454374892,6.1889448165893555,0.17392539978027344,-0.15922625362873077,-6.18894454374892,0.27109628915786743,15,0.2085205316543579,0.0,3.0691424512951926e-07,0.0,False,True,False,False,False,False,0.27187684178352356,0.03236221522092819,-0.032125324010849,6.894463240314508e-07,-0.0003701259847730398,0.3933250606060028,0.3021889328956604,0.0,-0.028333822265267372,-0.41259628534317017,-0.45493215322494507,-0.41259628534317017,-0.4693690538406372,0.4693690538406372,0.4414411187171936,0.9431964159011841,0.41636568307876587,0.2284420132637024,True,0.7715579867362976
normal,49,False,-3.1357390880584717,-0.02340077981352806,-6.25101644915235,-1.87656831741333,-0.16132502257823944,-1.2801356315612793,-0.2266557365655899,0.39355039596557617,0.30256375670433044,0.39355039596557617,0.30256375670433044,7.871007919311523,0.18153825402259827,0.18770703673362732,0.19822092354297638,0.19296398758888245,-0.023400867357850075,-0.16132505238056183,-0.2266557365655899,-6.251014314718234,6.251014232635498,0.1793803721666336,-0.16132409870624542,-6.251016876039173,0.27109628915786743,15,0.20013582706451416,0.0,2.7440214012131037e-07,0.0,False,True,False,False,False,False,0.2677769958972931,0.03207079693675041,-0.03922460973262787,1.9485394204821205e-06,0.0013087908737361431,0.39355039596557617,0.30256375670433044,0.0,-0.029251083731651306,-0.4167342782020569,-0.46092599630355835,-0.4167344570159912,-0.47464457154273987,0.47464457154273987,0.44699427485466003,0.9990944266319275,0.44658949971199036,0.2227916717529297,True,0.7772083282470703
normal,50,False,-3.1259191036224365,-0.024125635623931885,-6.306547167765022,-1.866882562637329,-0.16327017545700073,-1.2705135345458984,-0.22917892038822174,0.3938300311565399,0.30292564630508423,0.3938300311565399,0.30292564630508423,7.876600623130798,0.18175538778305053,0.18716824054718018,0.19641262292861938,0.19179043173789978,-0.024125611409544945,-0.16327014565467834,-0.22917889058589935,-6.3065467408782,6.306546688079834,0.1849479228258133,-0.16326923668384552,-6.306547167765022,0.41687700152397156,16,0.19051384925842285,0.0,3.315646210921841e-07,0.0,False,True,False,False,False,False,0.26661768555641174,0.019186843186616898,-0.03401315584778786,0.0004594465426634997,-0.014242606237530708,0.3938300311565399,0.30292564630508423,0.0,-0.030157014727592468,-0.42043644189834595,-0.46648353338241577,-0.42043647170066833,-0.47944167256355286,0.47944167256355286,0.4520438611507416,1.0,0.4520438611507416,0.21763265132904053,True,0.7823673486709595
normal,51,False,-3.117887496948242,-0.02480776607990265,-6.362765174162928,-1.8589880466461182,-0.16518759727478027,-1.2626839876174927,-0.2316814512014389,0.39408206939697266,0.30317986011505127,0.39408206939697266,0.30317986011505127,7.881641387939453,0.18190791606903076,0.18751558661460876,0.1964956820011139,0.19200563430786133,-0.024807708337903023,-0.1651875227689743,-0.23168137669563293,-6.362765174162928,6.362765312194824,0.18310122191905975,-0.16518665850162506,-6.362765174162928,0.41687700152397156,16,0.18268418312072754,0.0,2.1997713872679014e-07,0.0,False,True,False,False,False,False,0.26874664425849915,0.028814107179641724,-0.026763733476400375,1.2253273098394857e-06,-0.0022067492827773094,0.39408206939697266,0.30317986011505127,0.0,-0.03100963495671749,-0.4241843521595001,-0.4719618856906891,-0.4241843521595001,-0.484239399433136,0.484239399433136,0.45709410309791565,1.0,0.45709410309791565,0.21258074045181274,True,0.7874192595481873
normal,52,False,-3.1088504791259766,-0.025552790611982346,-6.41799792577306,-1.8500869274139404,-0.16714611649513245,-1.2538472414016724,-0.23421478271484375,0.39407458901405334,0.30335450172424316,0.39407458901405334,0.30335450172424316,7.881491780281067,0.1820127010345459,0.18725372850894928,0.1955171823501587,0.1913854479789734,-0.025552721694111824,-0.16714604198932648,-0.23421470820903778,-6.41799792577306,6.41799783706665,0.18124569952487946,-0.16714516282081604,-6.41799792577306,0.41687700152397156,16,0.17384755611419678,0.0,3.0556623187294463e-07,0.0,False,True,False,False,False,False,0.2634299099445343,0.03531484678387642,-0.02716698683798313,2.2598587747779675e-05,-0.0017427306156605482,0.39407458901405334,0.30335450172424316,0.0,-0.03194090351462364,-0.42786651849746704,-0.47755762934684753,-0.42786651849746704,-0.48903775215148926,0.48903775215148926,0.46214500069618225,1.0,0.46214500069618225,0.20760774612426758,True,0.7923922538757324
normal,53,False,-3.1001718044281006,-0.02644713595509529,-6.48208302943435,-1.8415675163269043,-0.16944830119609833,-1.2454031705856323,-0.2371838092803955,0.3943063020706177,0.3035973012447357,0.3943063020706177,0.3035973012447357,7.8861260414123535,0.18215838074684143,0.18803918361663818,0.19691409170627594,0.19247663021087646,-0.026446906849741936,-0.1694481372833252,-0.23718367516994476,-6.48208559075529,6.482085704803467,0.1802866905927658,-0.16944733262062073,-6.48208302943435,0.41687700152397156,16,0.1654033660888672,0.0,2.520224882118782e-07,0.0,False,True,False,False,False,False,0.26513123512268066,0.05865323171019554,-0.02976754494011402,0.0003799515252467245,-0.2009580135345459,0.3943063020706177,0.3035973012447357,0.0,-0.03305863216519356,-0.4321390390396118,-0.484135240316391,-0.4321388602256775,-0.49463891983032227,0.49463891983032227,0.46804097294807434,1.0,0.46804097294807434,0.20176374912261963,True,0.7982362508773804
normal,54,False,-3.0914225578308105,-0.027145937085151672,-6.542638632842038,-1.832970142364502,-0.17147725820541382,-1.236877679824829,-0.23984280228614807,0.3970732092857361,0.3072512447834015,0.3970732092857361,0.3072512447834015,7.941464185714722,0.18435074687004088,0.18862442672252655,0.19684988260269165,0.1927371621131897,-0.027145957574248314,-0.17147722840309143,-0.2398427426815033,-6.542636071521098,6.542635917663574,0.17947225272655487,-0.17147627472877502,-6.542638632842038,0.41687700152397156,16,0.15687787532806396,0.0,2.61413106272812e-07,0.0,False,True,False,False,False,False,0.26619434356689453,0.029626203700900078,-0.03261534869670868,1.0659503004717408e-06,-0.0001700904977042228,0.3970732092857361,0.3072512447834015,0.0,-0.03393244743347168,-0.43617573380470276,-0.48993223905563354,-0.4361759126186371,-0.49976545572280884,0.49976545572280884,0.4734373390674591,1.0,0.4734373390674591,0.19298326969146729,True,0.8070167303085327
normal,55,False,-3.082583427429199,-0.027891915291547775,-6.603436707965259,-1.8242847919464111,-0.17355851829051971,-1.2282652854919434,-0.24255655705928802,0.3948497772216797,0.30437275767326355,0.3948497772216797,0.30437275767326355,7.896995544433594,0.18262365460395813,0.1892029047012329,0.19675861299037933,0.19298076629638672,-0.027891824021935463,-0.17355844378471375,-0.24255648255348206,-6.603437134852083,6.603437423706055,0.17911924421787262,-0.17355751991271973,-6.603436707965259,0.41687700152397156,16,0.14826548099517822,0.0,3.0530236472259276e-07,0.0,False,True,False,False,False,False,0.26698851585388184,0.028789201751351357,-0.032626327127218246,1.6854669127042143e-07,-3.192294389009476e-05,0.3948497772216797,0.30437275767326355,0.0,-0.03486477956175804,-0.4402291476726532,-0.4958786368370056,-0.4402291178703308,-0.5049627423286438,0.5049627423286438,0.47890815138816833,1.0,0.47890815138816833,0.19066452980041504,True,0.809335470199585
normal,56,False,-3.0737648010253906,-0.028623685240745544,-6.661980393775554,-1.8156156539916992,-0.17557591199874878,-1.2196669578552246,-0.24518293142318726,0.3947426676750183,0.3043535351753235,0.3947426676750183,0.3043535351753235,7.894853353500366,0.1826121211051941,0.1886332631111145,0.19732242822647095,0.19297784566879272,-0.028623631224036217,-0.175575852394104,-0.24518287181854248,-6.661980393775554,6.661980628967285,0.17915181815624237,-0.1755749136209488,-6.661980393775554,0.41687700152397156,16,0.13966715335845947,0.0,3.045614960228704e-07,0.0,False,True,False,False,False,False,0.2663801908493042,0.030704274773597717,-0.030986979603767395,0.0,0.0004633941571228206,0.3947426676750183,0.3043535351753235,0.0,-0.03577953949570656,-0.4441320300102234,-0.501642644405365,-0.4441320300102234,-0.5099823474884033,0.5099823474884033,0.4841919541358948,1.0,0.4841919541358948,0.1856641173362732,True,0.8143358826637268
normal,57,False,-3.0649218559265137,-0.02936340868473053,-6.720728131487303,-1.8069241046905518,-0.17760559916496277,-1.2110470533370972,-0.24782361090183258,0.39486902952194214,0.3046063482761383,0.39486902952194214,0.3046063482761383,7.897380590438843,0.18276380896568298,0.18900658190250397,0.19777993857860565,0.1933932602405548,-0.029363511130213737,-0.17760562896728516,-0.24782361090183258,-6.720725143279542,6.720725059509277,0.17963479459285736,-0.1776045858860016,-6.720728131487303,0.41687700152397156,16,0.13104712963104248,0.0,1.580685733415521e-07,0.0,False,True,False,False,False,False,0.26727521419525146,0.034358181059360504,-0.033023346215486526,4.36665413872106e-06,-0.000803385628387332,0.39486902952194214,0.3046063482761383,0.0,-0.03670438751578331,-0.44804835319519043,-0.5074416995048523,-0.44804853200912476,-0.5150254368782043,0.5150254368782043,0.4895004630088806,1.0,0.4895004630088806,0.18036818504333496,True,0.819631814956665
normal,58,False,-3.0560293197631836,-0.03018037974834442,-6.781059619312849,-1.798188328742981,-0.17974713444709778,-1.2023855447769165,-0.25059255957603455,0.3951719403266907,0.3050028383731842,0.3951719403266907,0.3050028383731842,7.9034388065338135,0.18300170302391053,0.1895322948694229,0.19689354300498962,0.19321292638778687,-0.03018033131957054,-0.1797470897436142,-0.25059249997138977,-6.781059192426026,6.781059265136719,0.1806650161743164,-0.1797461062669754,-6.781059619312849,0.41687700152397156,16,0.12238574028015137,0.0,2.1741185207702074e-07,0.0,False,True,False,False,False,False,0.26777541637420654,0.0268692709505558,-0.027170317247509956,6.231525912880898e-05,-0.0032701147720217705,0.3951719403266907,0.3050028383731842,0.0,-0.03772541508078575,-0.45207059383392334,-0.5135602951049805,-0.4520706236362457,-0.5202692151069641,0.5202692151069641,0.4950202405452728,1.0,0.4950202405452728,0.1747279167175293,True,0.8252720832824707
normal,59,False,-3.047179937362671,-0.03098035603761673,-6.841570826490931,-1.7894976139068604,-0.18187543749809265,-1.1937700510025024,-0.25335007905960083,0.3952493965625763,0.3050941228866577,0.3952493965625763,0.3050941228866577,7.904987931251526,0.18305647373199463,0.18946154415607452,0.19703556597232819,0.19324855506420135,-0.030980395153164864,-0.18187540769577026,-0.25335001945495605,-6.841568265169992,6.841568470001221,0.18212324380874634,-0.18187439441680908,-6.841570826490931,0.41687700152397156,16,0.1137702465057373,0.0,2.409762203114951e-07,0.0,False,True,False,False,False,False,0.2680075168609619,0.031890902668237686,-0.029881631955504417,4.1005336242960766e-05,0.0021239041816443205,0.3952493965625763,0.3050941228866577,0.0,-0.03872549533843994,-0.4561045467853546,-0.5196411609649658,-0.45610472559928894,-0.5255063772201538,0.5255063772201538,0.5005330443382263,1.0,0.5005330443382263,0.16939949989318848,True,0.8306005001068115
normal,60,False,-3.0383822917938232,-0.031752075999975204,-6.903330250739833,-1.7808635234832764,-0.18400272727012634,-1.1852132081985474,-0.2561194598674774,0.3954230546951294,0.3054141700267792,0.3954230546951294,0.3054141700267792,7.908461093902588,0.1832485020160675,0.19040441513061523,0.19657103717327118,0.1934877336025238,-0.0317518413066864,-0.18400254845619202,-0.2561193108558655,-6.903332812060771,6.903332710266113,0.1840047538280487,-0.18400166928768158,-6.903330250739833,0.41687700152397156,16,0.10521340370178223,0.0,2.576023803158023e-07,0.0,False,True,False,False,False,False,0.2689118981361389,0.0338299423456192,-0.03401469066739082,4.903479748463724e-06,-0.0004267849726602435,0.3954230546951294,0.3054141700267792,0.0,-0.039689801633358,-0.46022218465805054,-0.5257190465927124,-0.4602220058441162,-0.5308007001876831,0.5308007001876831,0.5061060190200806,1.0,0.5061060190200806,0.16378509998321533,True,0.8362149000167847
normal,61,False,-3.0291426181793213,-0.032676730304956436,-6.968154722378777,-1.771796703338623,-0.18635007739067078,-1.1762285232543945,-0.25914067029953003,0.39578065276145935,0.3058507442474365,0.39578065276145935,0.3058507442474365,7.915613055229187,0.1835104465484619,0.190420463681221,0.19633464515209198,0.1933775544166565,-0.03267650306224823,-0.18634989857673645,-0.2591405212879181,-6.968157283699716,6.9681572914123535,0.18653054535388947,-0.18634900450706482,-6.968154722378777,0.41687700152397156,16,0.0962287187576294,0.0,2.536892225180054e-07,0.0,False,True,False,False,False,False,0.27026113867759705,0.04041486978530884,-0.034346677362918854,0.0002511954808142036,-0.009624621830880642,0.39578065276145935,0.3058507442474365,0.0,-0.04084562882781029,-0.46454381942749023,-0.5324257612228394,-0.4645436406135559,-0.5364875793457031,0.5364875793457031,0.5120921730995178,1.0,0.5120921730995178,0.15766167640686035,True,0.8423383235931396
normal,62,False,-3.0204362869262695,-0.033292368054389954,-7.021064782784281,-1.763232946395874,-0.18812672793865204,-1.1677321195602417,-0.2614672780036926,0.3961156904697418,0.30634385347366333,0.3961156904697418,0.30634385347366333,7.922313809394836,0.18380631208419798,0.19145679473876953,0.19695119559764862,0.19420400261878967,-0.03329233080148697,-0.18812666833400726,-0.26146721839904785,-7.0210639290106345,7.021063804626465,0.18887244164943695,-0.18812565505504608,-7.021065209671105,0.41687700152397156,16,0.08773231506347656,0.0,2.5567493366907e-07,0.0,False,True,False,False,False,False,0.27219024300575256,0.031232193112373352,-0.03127605468034744,2.089145164063666e-05,-0.0014951055636629462,0.3961156904697418,0.30634385347366333,0.0,-0.04161541163921356,-0.468070924282074,-0.537501871585846,-0.46807101368904114,-0.5409712791442871,0.5409712791442871,0.5168119072914124,1.0,0.5168119072914124,0.15268486738204956,True,0.8473151326179504
normal,63,False,-3.0115606784820557,-0.03427089750766754,-7.087090940830325,-1.7545366287231445,-0.1905539333820343,-1.1591206789016724,-0.2645806670188904,0.39614033699035645,0.3063622713088989,0.39614033699035645,0.3063622713088989,7.922806739807129,0.18381736278533936,0.19150108098983765,0.19689220190048218,0.1941966414451599,-0.034270990639925,-0.1905539482831955,-0.264580637216568,-7.087087952622563,7.087088108062744,0.19224771857261658,-0.19055284559726715,-7.087091367717148,0.41687700152397156,16,0.07912075519561768,0.0,1.706118126776346e-07,0.0,False,True,False,False,False,False,0.2727554440498352,0.04338015243411064,-0.012844552285969257,0.00015259925567079335,-0.10525685548782349,0.39614033699035645,0.3063622713088989,0.0,-0.04283873736858368,-0.47247251868247986,-0.5444366931915283,-0.47247275710105896,-0.5468047261238098,0.5468047261238098,0.5229523777961731,1.0,0.5229523777961731,0.14683300256729126,True,0.8531669974327087
normal,64,False,-3.0024895668029785,-0.035101842135190964,-7.150398256699881,-1.7456388473510742,-0.192773699760437,-1.150305151939392,-0.2674582898616791,0.3974149823188782,0.3080037832260132,0.3974149823188782,0.3080037832260132,7.9482996463775635,0.18480226993560792,0.19177359342575073,0.19758334755897522,0.19467847049236298,-0.03510187566280365,-0.19277368485927582,-0.2674582600593567,-7.150396549152588,7.150396823883057,0.19581212103366852,-0.19277259707450867,-7.150398256699881,0.41687700152397156,16,0.0703052282333374,0.0,1.1353704820749044e-07,0.0,False,True,False,False,False,False,0.2703114151954651,0.03164103254675865,-0.03128986805677414,2.6832140065380372e-05,0.0004701423167716712,0.3974149823188782,0.3080037832260132,0.0,-0.04387734457850456,-0.4766930937767029,-0.550778865814209,-0.47669321298599243,-0.5522761344909668,0.5522761344909668,0.52871173620224,1.0,0.52871173620224,0.13972008228302002,True,0.86027991771698
normal,65,False,-2.9933247566223145,-0.03592640534043312,-7.212718183347547,-1.7366464138031006,-0.19496524333953857,-1.1413942575454712,-0.2702973186969757,0.3966372311115265,0.30686527490615845,0.3966372311115265,0.30686527490615845,7.93274462223053,0.18411916494369507,0.1925695538520813,0.19756095111370087,0.19506525993347168,-0.03592631220817566,-0.1949651837348938,-0.27029725909233093,-7.212719037121192,7.212718963623047,0.19972726702690125,-0.19496412575244904,-7.212718183347547,0.41687700152397156,16,0.061394572257995605,0.0,3.00197285696413e-07,0.0,False,True,False,False,False,False,0.2692691385746002,0.0327184796333313,-0.03136711195111275,0.00020996603416278958,-0.004148281645029783,0.3966372311115265,0.30686527490615845,0.0,-0.044907890260219574,-0.48084792494773865,-0.5570403933525085,-0.48084786534309387,-0.5576695203781128,0.5576695203781128,0.5343889594078064,1.0,0.5343889594078064,0.13546520471572876,True,0.8645347952842712
normal,66,False,-2.984753131866455,-0.03679696097970009,-7.2762884615001475,-1.7282519340515137,-0.19722998142242432,-1.133083701133728,-0.2732224464416504,0.39669424295425415,0.3071075677871704,0.39669424295425415,0.3071075677871704,7.933884859085083,0.18426454067230225,0.1928279995918274,0.1968890279531479,0.19485852122306824,-0.033654868602752686,-0.19510474801063538,-0.271578848361969,-7.32265946954901,7.322659492492676,0.20390567183494568,-0.19722884893417358,-7.2762884615001475,0.41687700152397156,16,0.0563349723815918,0.0,0.0031163727398961782,0.0,False,True,False,False,False,False,0.26417237520217896,0.02964641898870468,-0.033401306718587875,5.205988600209821e-07,0.0011461558751761913,0.39669424295425415,0.3071075677871704,0.0,-0.04206858575344086,-0.4881772994995117,-0.5635110139846802,-0.4850859045982361,-0.5633998513221741,0.5633998513221741,0.5404208898544312,1.0,0.5404208898544312,0.12949258089065552,True,0.8705074191093445
normal,67,False,-2.9760684967041016,-0.03764547407627106,-7.336019319565556,-1.7197351455688477,-0.1993882954120636,-1.124646544456482,-0.2760011851787567,0.3967583477497101,0.3073292374610901,0.3967583477497101,0.3073292374610901,7.935166954994202,0.18439754247665405,0.19297388195991516,0.19718365371227264,0.1950787603855133,-0.02913600578904152,-0.1936800628900528,-0.2716198265552521,-7.463790814595337,7.4637908935546875,0.2082967609167099,-0.19938714802265167,-7.336019319565556,0.41687700152397156,16,0.05714249610900879,0.0,0.012029912322759628,0.0,False,True,False,False,False,False,0.26249465346336365,0.026173170655965805,-0.02949461154639721,0.0,-0.004368540830910206,0.3967583477497101,0.3073292374610901,0.0,-0.036420006304979324,-0.49758604168891907,-0.5696775913238525,-0.489067941904068,-0.569061279296875,0.569061279296875,0.5463802814483643,1.0,0.5463802814483643,0.12360948324203491,True,0.8763905167579651
normal,68,False,-2.9675240516662598,-0.038545019924640656,-7.4002333430474305,-1.7113728523254395,-0.2016957700252533,-1.116370439529419,-0.27897554636001587,0.39710670709609985,0.30771273374557495,0.39710670709609985,0.30771273374557495,7.942134141921997,0.18462764024734496,0.19219818711280823,0.19684305787086487,0.19452062249183655,-0.02648565173149109,-0.19366323947906494,-0.2728504240512848,-7.583944941153263,7.583944797515869,0.21305131912231445,-0.20169462263584137,-7.4002333430474305,0.41687700152397156,16,0.057840585708618164,0.0,0.020738044753670692,0.0,False,True,False,False,False,False,0.26011791825294495,0.033296238631010056,-0.03452003747224808,0.00010029873374151066,-0.126374751329422,0.39710670709609985,0.30771273374557495,0.0,-0.03310706466436386,-0.5055963397026062,-0.576270341873169,-0.4933488965034485,-0.5750452280044556,0.5750452280044556,0.552679181098938,1.0,0.552679181098938,0.11724203824996948,True,0.8827579617500305
normal,69,False,-2.9589505195617676,-0.03937436640262604,-7.459557804857222,-1.702968955039978,-0.20382565259933472,-1.1080468893051147,-0.28172147274017334,0.39891892671585083,0.31009018421173096,0.39891892671585083,0.31009018421173096,7.978378534317017,0.18605411052703857,0.19282110035419464,0.19656161963939667,0.19469135999679565,-0.021958138793706894,-0.19229163229465485,-0.2729737162590027,-7.727977409049553,7.727977275848389,0.2178960144519806,-0.2038244903087616,-7.459558658630868,0.41687700152397156,16,0.05866384506225586,0.0,0.029524080455303192,0.0,False,True,False,False,False,False,0.2584196925163269,0.032513637095689774,-0.03292440250515938,7.234026497826562e-07,-0.00011911574983969331,0.39891892671585083,0.31009018421173096,0.0,-0.027447674423456192,-0.5151984691619873,-0.5823556780815125,-0.49730390310287476,-0.580800473690033,0.580800473690033,0.5587373375892639,1.0,0.5587373375892639,0.10910934209823608,True,0.8908906579017639
normal,70,False,-2.9508707523345947,-0.040160171687603,-7.5151956720625,-1.6950494050979614,-0.20583102107048035,-1.100203275680542,-0.28430449962615967,0.3978891968727112,0.30877238512039185,0.3978891968727112,0.30877238512039185,7.957783937454224,0.1852634310722351,0.19392669200897217,0.1969609260559082,0.19544380903244019,-0.01683364063501358,-0.1905190646648407,-0.27278879284858704,-7.881010358724628,7.88101053237915,0.22267241775989532,-0.20582984387874603,-7.5151956720625,0.41687700152397156,16,0.05971574783325195,0.0,0.03798563405871391,0.0,False,True,False,False,False,False,0.2572023868560791,0.030364295467734337,-0.04045731574296951,3.853393991448684e-06,0.008389370515942574,0.3978891968727112,0.30877238512039185,0.0,-0.021042050793766975,-0.525400698184967,-0.5880852937698364,-0.5010130405426025,-0.5864676237106323,0.5864676237106323,0.5647027492523193,1.0,0.5647027492523193,0.10475999116897583,True,0.8952400088310242
normal,71,False,-2.941699266433716,-0.04095969721674919,-7.542199678719792,-1.6859562397003174,-0.20722240209579468,-1.0911470651626587,-0.28597623109817505,0.39812690019607544,0.3090561628341675,0.39812690019607544,0.3090561628341675,7.962538003921509,0.18543369770050047,0.1931460201740265,0.19596844911575317,0.19455723464488983,-0.013685012236237526,-0.18942764401435852,-0.2726718485355377,-7.9749613183054455,7.974961280822754,0.22247479856014252,-0.20722121000289917,-7.542199678719792,0.5626575350761414,17,0.060056209564208984,0.0,0.0470527820289135,0.0,False,True,False,False,False,False,0.2591554820537567,0.02283060923218727,-0.031106427311897278,0.00010025779192801565,-0.007878468371927738,0.39812690019607544,0.3090561628341675,0.0,-0.01710626482963562,-0.5316640734672546,-0.5920606255531311,-0.5028132796287537,-0.5899173021316528,0.5899173021316528,0.5683339834213257,1.0,0.5683339834213257,0.10102653503417969,True,0.8989734649658203
normal,72,False,-2.9332284927368164,-0.04179102182388306,-7.5998020790850935,-1.6776530742645264,-0.20931613445281982,-1.0829235315322876,-0.2886679172515869,0.39832645654678345,0.3093550205230713,0.39832645654678345,0.3093550205230713,7.966529130935669,0.18561301231384278,0.1928040236234665,0.19680581986904144,0.19480492174625397,-0.009728798642754555,-0.18856503069400787,-0.2732745409011841,-8.116280493553948,8.116280555725098,0.22156649827957153,-0.20931494235992432,-7.5998020790850935,0.5626575350761414,17,0.060880184173583984,0.0,0.05568290874361992,0.0,False,False,False,False,False,False,0.2592008411884308,0.020354755222797394,-0.0331089124083519,5.485072688315995e-05,-0.002612846437841654,0.39832645654678345,0.3093550205230713,0.0,-0.012160997837781906,-0.5410853624343872,-0.5980427265167236,-0.5066534876823425,-0.5958281755447388,0.5958281755447388,0.5745559930801392,1.0,0.5745559930801392,0.09481680393218994,True,0.9051831960678101
normal,73,False,-2.9248037338256836,-0.04265142232179642,-7.657347276616098,-1.6693973541259766,-0.21143747866153717,-1.0747476816177368,-0.29138654470443726,0.3985903859138489,0.3097473680973053,0.3985903859138489,0.3097473680973053,7.9718077182769775,0.18584842085838318,0.19257226586341858,0.19727884232997894,0.19492554664611816,-0.004619475454092026,-0.18697917461395264,-0.27335768938064575,-8.277300495689706,8.277300834655762,0.22102674841880798,-0.21143627166748047,-7.657348130389744,0.5626575350761414,17,0.06181454658508301,0.0,0.06429460644721985,0.0,False,False,False,False,False,False,0.25468990206718445,0.04862963780760765,-0.027538150548934937,5.728790256398497e-06,-0.0021871153730899096,0.3985903859138489,0.3097473680973053,0.0,-0.005774344317615032,-0.5518200397491455,-0.6041036248207092,-0.5104898810386658,-0.601938009262085,0.601938009262085,0.5809873938560486,1.0,0.5809873938560486,0.08831465244293213,True,0.9116853475570679
normal,74,False,-2.916048288345337,-0.04365701228380203,-7.696432180367849,-1.660757303237915,-0.21329939365386963,-1.066162347793579,-0.29365408420562744,0.3990955948829651,0.3103710412979126,0.3990955948829651,0.3103710412979126,7.981911897659302,0.18622262477874754,0.19281329214572906,0.19542069733142853,0.1941169947385788,0.00022315233945846558,-0.18522821366786957,-0.27307116985321045,-8.418642722826657,8.4186429977417,0.22046656906604767,-0.21329817175865173,-7.696432180367849,0.5626575350761414,17,0.06257474422454834,0.0,0.07314316928386688,0.0,False,False,False,False,False,False,0.2484101802110672,0.03784789890050888,-0.021569401025772095,0.00035145418951287866,-0.023153960704803467,0.3990955948829651,0.3103710412979126,0.0,0.00027894042432308197,-0.5612428188323975,-0.6094233393669128,-0.513095498085022,-0.6069086790084839,0.6069086790084839,0.5862196683883667,1.0,0.5862196683883667,0.08272027969360352,True,0.9172797203063965
normal,75,False,-2.9079205989837646,-0.044349297881126404,-7.74765518404836,-1.6527817249298096,-0.21511389315128326,-1.0582588911056519,-0.2960001230239868,0.3994896411895752,0.3108706772327423,0.3994896411895752,0.3108706772327423,7.989792823791504,0.18652240633964537,0.19592887163162231,0.19601330161094666,0.19597108662128448,0.004404578357934952,-0.18402814865112305,-0.2732832431793213,-8.554986959038452,8.554986953735352,0.22035671770572662,-0.21511265635490417,-7.74765518404836,0.5626575350761414,17,0.06341028213500977,0.0,0.08145783096551895,0.0,False,False,False,False,False,False,0.2548731863498688,0.057180121541023254,-0.007247861009091139,0.0,-0.01797529123723507,0.3994896411895752,0.3108706772327423,0.0,0.00550572294741869,-0.5703324675559998,-0.6146076321601868,-0.5165103673934937,-0.6122145652770996,0.6122145652770996,0.5918048024177551,1.0,0.5918048024177551,0.07691478729248047,True,0.9230852127075195
normal,76,False,-2.8993983268737793,-0.044946637004613876,-7.797085263071742,-1.6444072723388672,-0.2167939841747284,-1.0499544143676758,-0.298193097114563,0.39975491166114807,0.3111950755119324,0.39975491166114807,0.3111950755119324,7.995098233222961,0.1867170453071594,0.19714570045471191,0.1951524168252945,0.1961490511894226,0.009102907031774521,-0.18244673311710358,-0.2731782793998718,-8.697587648529979,8.697587966918945,0.22034646570682526,-0.2167927473783493,-7.797086116845389,0.5626575350761414,17,0.0642319917678833,0.0,0.09012044966220856,0.0,False,False,False,False,False,False,0.25823310017585754,0.030819401144981384,-0.03301247954368591,7.20562866263208e-07,-0.001479697646573186,0.39975491166114807,0.3111950755119324,0.0,0.011378633789718151,-0.5798391699790955,-0.6194078922271729,-0.5198057293891907,-0.6173869371414185,0.6173869371414185,0.5972493886947632,1.0,0.5972493886947632,0.07141798734664917,True,0.9285820126533508
normal,77,False,-2.8908920288085938,-0.04582883417606354,-7.857032979643298,-1.6360814571380615,-0.21898916363716125,-1.041714072227478,-0.3010101914405823,0.4000537395477295,0.311496376991272,0.4000537395477295,0.311496376991272,8.00107479095459,0.18689782619476317,0.19732776284217834,0.19522452354431152,0.19627614319324493,0.01502656564116478,-0.18044176697731018,-0.2730294466018677,-8.876944147266283,8.876944541931152,0.2211838811635971,-0.21898791193962097,-7.857032125869652,0.5626575350761414,17,0.0652536153793335,0.0,0.09879403561353683,0.0,False,False,False,False,False,False,0.2562139928340912,0.03154585510492325,-0.03249720484018326,3.425806653467589e-06,3.81287100026384e-05,0.4000537395477295,0.311496376991272,0.0,0.01878320798277855,-0.5917962789535522,-0.6256797909736633,-0.5238021612167358,-0.6238932609558105,0.6238932609558105,0.6040982007980347,1.0,0.6040982007980347,0.06461036205291748,True,0.9353896379470825
normal,78,False,-2.882385492324829,-0.046723607927560806,-7.914898342291646,-1.6277503967285156,-0.22115112841129303,-1.0334662199020386,-0.3037723898887634,0.4004192352294922,0.3120022416114807,0.4004192352294922,0.3120022416114807,8.008384704589844,0.18720134496688842,0.197380930185318,0.19589580595493317,0.19663837552070618,0.020599085837602615,-0.17868834733963013,-0.2730850577354431,-9.051826018322581,9.051826477050781,0.22231824696063995,-0.22114986181259155,-7.914898342291646,0.5626575350761414,17,0.06623995304107666,0.0,0.10742773860692978,0.0,False,False,False,False,False,False,0.2545163631439209,0.029551705345511436,-0.029659893363714218,4.3280000681988895e-05,-0.0029934500344097614,0.4004192352294922,0.3120022416114807,0.0,0.025748856365680695,-0.6034550666809082,-0.6318567395210266,-0.5276598930358887,-0.6303533315658569,0.6303533315658569,0.6108982563018799,1.0,0.6108982563018799,0.057644426822662354,True,0.9423555731773376
normal,79,False,-2.874096632003784,-0.047579772770404816,-7.9736558984003265,-1.6196410655975342,-0.22329384088516235,-1.0254418849945068,-0.30652451515197754,0.4008220136165619,0.31248360872268677,0.4008220136165619,0.31248360872268677,8.016440272331238,0.18749016523361206,0.19738993048667908,0.19625116884708405,0.19682055711746216,0.02649315446615219,-0.1767122596502304,-0.2729647755622864,-9.231325097257809,9.231325149536133,0.2237733155488968,-0.22329255938529968,-7.9736558984003265,0.5626575350761414,17,0.06728434562683105,0.0,0.11588305979967117,0.0,False,False,False,False,False,False,0.25380340218544006,0.032443493604660034,-0.03311342000961304,2.24327254727541e-06,-0.0006890129880048335,0.4008220136165619,0.31248360872268677,0.0,0.03311644494533539,-0.6154216527938843,-0.637978732585907,-0.5315770506858826,-0.6368304491043091,0.6368304491043091,0.6177162528038025,1.0,0.6177162528038025,0.05068594217300415,True,0.9493140578269958
normal,80,False,-2.865712881088257,-0.04862280562520027,-8.036458634044948,-1.6114507913589478,-0.22571182250976562,-1.0173431634902954,-0.30959373712539673,0.4012839198112488,0.31315410137176514,0.4012839198112488,0.31315410137176514,8.025678396224976,0.18789246082305908,0.19673191010951996,0.19719558954238892,0.19696375727653503,0.03228079527616501,-0.17498715221881866,-0.27316397428512573,-9.417540813468097,9.417540550231934,0.22580398619174957,-0.22571052610874176,-8.036458634044948,0.5626575350761414,17,0.06834530830383301,0.0,0.12439873069524765,0.0,False,False,False,False,False,False,0.2544163465499878,0.031773507595062256,-0.03158703073859215,1.3145432831151993e-06,-0.00037119394983164966,0.4012839198112488,0.31315410137176514,0.0,0.04035099595785141,-0.6278360486030579,-0.6448872089385986,-0.5357639193534851,-0.6438749432563782,0.6438749432563782,0.6251315474510193,1.0,0.6251315474510193,0.04297095537185669,True,0.9570290446281433
normal,81,False,-2.857360363006592,-0.04953571408987045,-8.09442986462543,-1.6032780408859253,-0.2278936803340912,-1.0092556476593018,-0.3123766779899597,0.40168729424476624,0.31362637877464294,0.40168729424476624,0.31362637877464294,8.033745884895325,0.18817582726478577,0.1965521275997162,0.19787244498729706,0.19721227884292603,0.03815435990691185,-0.17303287982940674,-0.2730661630630493,-9.597289194308031,9.597289085388184,0.2279001921415329,-0.22789236903190613,-8.094430718399078,0.5626575350761414,17,0.06937611103057861,0.0,0.13288648426532745,0.0,False,False,False,False,False,False,0.2540169954299927,0.029610788449645042,-0.03145117685198784,2.9856839773856336e-06,0.000380971934646368,0.40168729424476624,0.31362637877464294,0.0,0.04769295081496239,-0.6398192644119263,-0.6511210799217224,-0.5396286845207214,-0.6503810286521912,0.6503810286521912,0.6319800615310669,1.0,0.6319800615310669,0.03599262237548828,True,0.9640073776245117
normal,82,False,-2.8490195274353027,-0.05044014751911163,-8.153913128333427,-1.595123052597046,-0.23009997606277466,-1.0011886358261108,-0.315199613571167,0.40194517374038696,0.31404876708984375,0.40194517374038696,0.31404876708984375,8.03890347480774,0.18842926025390624,0.19719994068145752,0.1981750875711441,0.19768750667572021,0.044338107109069824,-0.17090484499931335,-0.2728591561317444,-9.783393919944306,9.783393859863281,0.23031185567378998,-0.2300986647605896,-8.153913128333427,0.5626575350761414,17,0.07044053077697754,0.0,0.14136333763599396,0.0,False,False,False,False,False,False,0.2532344162464142,0.02721254900097847,-0.028943626210093498,1.1769056982302573e-06,-3.3007352612912655e-05,0.40194517374038696,0.31404876708984375,0.0,0.05542263388633728,-0.6522262692451477,-0.6574247479438782,-0.5435941815376282,-0.657019317150116,0.657019317150116,0.6389676928520203,1.0,0.6389676928520203,0.028931915760040283,True,0.9710680842399597
normal,83,False,-2.8404972553253174,-0.051330432295799255,-8.21143783529692,-1.5867817401885986,-0.23224909603595734,-0.9929330348968506,-0.3179450035095215,0.4022926986217499,0.31443899869918823,0.4022926986217499,0.31443899869918823,8.045853972434998,0.18866339921951295,0.19731047749519348,0.19804058969020844,0.19767552614212036,0.04903337359428406,-0.1696920096874237,-0.2732958495616913,-9.943274988035965,9.943275451660156,0.23296254873275757,-0.23224776983261108,-8.21143783529692,0.5626575350761414,17,0.07132136821746826,0.0,0.14993542432785034,0.0,False,False,False,False,False,False,0.25404709577560425,0.030281327664852142,-0.030540596693754196,0.00012701761443167925,-0.001580423559062183,0.4022926986217499,0.31443899869918823,0.0,0.06129171699285507,-0.6628850102424622,-0.6635650992393494,-0.5474292039871216,-0.6633203029632568,0.6633203029632568,0.6456003189086914,1.0,0.6456003189086914,0.02224069833755493,True,0.9777593016624451
normal,84,False,-2.832350254058838,-0.05221681296825409,-8.26685201380688,-1.5788103342056274,-0.23434793949127197,-0.9850448369979858,-0.3206181526184082,0.40267109870910645,0.31500330567359924,0.40267109870910645,0.31500330567359924,8.053421974182129,0.18900198340415955,0.19680610299110413,0.1978176385164261,0.1973118782043457,0.05426471307873726,-0.16807512938976288,-0.2733910381793976,-10.10929981128605,10.109299659729004,0.23580682277679443,-0.23434659838676453,-8.26685201380688,0.5626575350761414,17,0.07230854034423828,0.0,0.15821510553359985,0.0,False,False,False,False,False,False,0.2542358338832855,0.01782647892832756,-0.03047524206340313,5.575032264459878e-05,-0.006528121884912252,0.40267109870910645,0.31500330567359924,0.0,0.067830890417099,-0.6739532947540283,-0.6695617437362671,-0.5511234402656555,-0.6695144772529602,0.6695144772529602,0.6521205306053162,1.0,0.6521205306053162,0.015482187271118164,True,0.9845178127288818
normal,85,False,-2.823984384536743,-0.05314263328909874,-8.32511523497438,-1.5706303119659424,-0.23654834926128387,-0.9769527912139893,-0.32342231273651123,0.40293586254119873,0.31531912088394165,0.40293586254119873,0.31531912088394165,8.058717250823975,0.18919147253036497,0.19771258533000946,0.19873297214508057,0.1982227861881256,0.059915896505117416,-0.16630423069000244,-0.2734581232070923,-10.287633489194144,10.287633895874023,0.23903222382068634,-0.23654699325561523,-8.32511523497438,0.5626575350761414,17,0.07332110404968262,0.0,0.16666631400585175,0.0,False,False,False,False,False,False,0.25277307629585266,0.032685551792383194,-0.03251618146896362,3.588316303648753e-06,-0.0010668891482055187,0.40293586254119873,0.31531912088394165,0.0,0.07489486783742905,-0.6858422160148621,-0.6758485436439514,-0.5550076961517334,-0.6760967373847961,0.6760967373847961,0.6590492129325867,1.0,0.6590492129325867,0.008584141731262207,True,0.9914158582687378
normal,86,False,-2.8156051635742188,-0.054088491946458817,-8.384283456206909,-1.562441110610962,-0.238788440823555,-0.9688537120819092,-0.32627543807029724,0.4034230411052704,0.31590306758880615,0.4034230411052704,0.31590306758880615,8.068460822105408,0.18954184055328369,0.19837041199207306,0.19886904954910278,0.19861972332000732,0.06558676064014435,-0.16453278064727783,-0.27353373169898987,-10.46694644547449,10.466946601867676,0.24255140125751495,-0.23878706991672516,-8.384283456206909,0.5626575350761414,17,0.07433784008026123,0.0,0.1751251369714737,0.0,False,False,False,False,False,False,0.25394898653030396,0.030042555183172226,-0.03251668065786362,3.098606612184085e-06,-0.0016372358659282327,0.4034230411052704,0.31590306758880615,0.0,0.08198344707489014,-0.6977964043617249,-0.6822487711906433,-0.5589522123336792,-0.6827459335327148,0.6827459335327148,0.6660483479499817,1.0,0.6660483479499817,0.001350998878479004,True,0.998649001121521
normal,87,False,-2.807290554046631,-0.05480777099728584,-8.432605337037456,-1.5542826652526855,-0.24056454002857208,-0.9607692956924438,-0.32855212688446045,0.40370988845825195,0.3163813352584839,0.40370988845825195,0.3163813352584839,8.074197769165039,0.18982880115509032,0.19865374267101288,0.19811967015266418,0.19838669896125793,0.07122206687927246,-0.16251036524772644,-0.2732226252555847,-10.633174466852381,10.633174896240234,0.24585269391536713,-0.24056316912174225,-8.432605337037456,0.5626575350761414,17,0.0752943754196167,0.0,0.1835222989320755,0.0,False,False,False,False,False,False,0.25714170932769775,0.01567803882062435,-0.028409574180841446,0.000294847326586023,-0.08079329133033752,0.40370988845825195,0.3163813352584839,0.0,0.08902758359909058,-0.7088782787322998,-0.6873233318328857,-0.5621736645698547,-0.6884153485298157,0.6884153485298157,0.6720161437988281,1.0,0.6720161437988281,0.0,True,1.0
normal,88,False,-2.798882007598877,-0.05578333139419556,-8.489651930759049,-1.5460598468780518,-0.24278753995895386,-0.952634334564209,-0.33136600255966187,0.4047263562679291,0.3177332282066345,0.4047263562679291,0.3177332282066345,8.094527125358582,0.1906399369239807,0.19911833107471466,0.19932697713375092,0.1992226541042328,0.07729629427194595,-0.1605137437582016,-0.2731574475765228,-10.820894532227365,10.820894241333008,0.2498394250869751,-0.24278615415096283,-8.489651930759049,0.5626575350761414,17,0.0763401985168457,0.0,0.19197644293308258,0.0,False,False,False,False,False,False,0.2523196041584015,0.049973439425230026,-0.00630840053781867,0.00023694231640547514,-0.08996285498142242,0.4047263562679291,0.3177332282066345,0.0,0.09662036597728729,-0.7213929891586304,-0.6936747431755066,-0.5659767985343933,-0.6951449513435364,0.6951449513435364,0.679099977016449,1.0,0.679099977016449,0.0,True,1.0
normal,89,False,-2.790348529815674,-0.056765586137771606,-8.54872623689049,-1.5377197265625,-0.24506142735481262,-0.9443858861923218,-0.3342517018318176,0.4052579700946808,0.3183690309524536,0.4052579700946808,0.3183690309524536,8.105159401893616,0.19102141857147217,0.19959306716918945,0.19971269369125366,0.19965288043022156,0.0833553671836853,-0.1585492044687271,-0.27313241362571716,-11.00951191370456,11.009511947631836,0.2541293799877167,-0.2450600266456604,-8.54872623689049,0.5626575350761414,17,0.07738125324249268,0.0,0.2005413919687271,0.0,False,False,False,False,False,False,0.2507556974887848,0.029059264808893204,-0.02896856516599655,0.00014591765648219734,-0.008679874241352081,0.4052579700946808,0.3183690309524536,0.0,0.10419420897960663,-0.7339674830436707,-0.7001715302467346,-0.5699150562286377,-0.7019823789596558,0.7019823789596558,0.6862972378730774,1.0,0.6862972378730774,0.0,True,1.0
normal,90,False,-2.7823314666748047,-0.05772931128740311,-8.605617443808464,-1.5298902988433838,-0.24726882576942444,-0.9366452693939209,-0.337048202753067,0.4048795700073242,0.3178427219390869,0.4048795700073242,0.3178427219390869,8.097591400146484,0.19070563316345215,0.19890336692333221,0.20017194747924805,0.19953766465187073,0.08835048973560333,-0.15723472833633423,-0.2735613286495209,-11.179166982498508,11.179166793823242,0.2584247291088104,-0.24726741015911102,-8.605617443808464,0.5626575350761414,17,0.07839977741241455,0.0,0.20863376557826996,0.0,False,False,False,False,False,False,0.2531758248806,0.028959183022379875,-0.03209950402379036,5.774126634605636e-07,-0.0010631633922457695,0.4048795700073242,0.3178427219390869,0.0,0.11043810844421387,-0.7452777624130249,-0.7064783573150635,-0.5737078189849854,-0.7085421681404114,0.7085421681404114,0.6932023167610168,1.0,0.6932023167610168,0.0,True,1.0
normal,91,False,-2.773991107940674,-0.05868540331721306,-8.665841783041405,-1.5217499732971191,-0.2495412528514862,-0.9285995960235596,-0.33994415402412415,0.4051606357097626,0.31814783811569214,0.4051606357097626,0.31814783811569214,8.103212714195251,0.19088870286941528,0.19947625696659088,0.2002934068441391,0.199884831905365,0.09457623958587646,-0.15521423518657684,-0.27353277802467346,-11.373125571906652,11.373126029968262,0.2630615830421448,-0.2495398223400116,-8.665841783041405,0.5626575350761414,17,0.07949590682983398,0.0,0.21701151132583618,0.0,False,False,False,False,False,False,0.2525661289691925,0.026452787220478058,-0.03099501132965088,0.0,-0.0008583540329709649,0.4051606357097626,0.31814783811569214,0.0,0.11822029948234558,-0.7582083940505981,-0.7129709124565125,-0.5777227878570557,-0.7155266404151917,0.7155266404151917,0.700554370880127,1.0,0.700554370880127,0.0,True,1.0
normal,92,False,-2.765702962875366,-0.05967504531145096,-8.724055485337423,-1.5136562585830688,-0.25180310010910034,-0.920598030090332,-0.3428086042404175,0.4054673910140991,0.31860071420669556,0.4054673910140991,0.31860071420669556,8.109347820281982,0.19116042852401732,0.20024140179157257,0.2013567090034485,0.20079904794692993,0.10077328979969025,-0.15315936505794525,-0.2734399139881134,-11.564302566775309,11.564302444458008,0.26533594727516174,-0.25180166959762573,-8.724055485337423,0.7084380388259888,18,0.08058381080627441,0.0,0.22534100711345673,0.0,False,False,False,False,False,False,0.2513411045074463,0.03802516311407089,-0.052796296775341034,0.00019214791245758533,-0.07691160589456558,0.4054673910140991,0.31860071420669556,0.0,0.1259666085243225,-0.7709534764289856,-0.7194333672523499,-0.5816037058830261,-0.7223687767982483,0.7223687767982483,0.7077566385269165,1.0,0.7077566385269165,0.0,True,1.0
normal,93,False,-2.7574539184570312,-0.0609007366001606,-8.79286110348884,-1.505638837814331,-0.25453224778175354,-0.912690281867981,-0.34624987840652466,0.4070090353488922,0.3206169605255127,0.4070090353488922,0.3206169605255127,8.140180706977844,0.19237017631530762,0.20017510652542114,0.20120832324028015,0.20069171488285065,0.10567183792591095,-0.15214815735816956,-0.2742699980735779,-11.74383494288274,11.74383544921875,0.2655332088470459,-0.25453078746795654,-8.79286110348884,0.7084380388259888,18,0.08160853385925293,0.0,0.2335951179265976,0.0,False,False,False,False,False,False,0.25180721282958984,0.026927754282951355,-0.03280085697770119,4.339942279329989e-06,6.27296685706824e-05,0.4070090353488922,0.3206169605255127,0.0,0.1320897936820984,-0.7829223275184631,-0.7272308468818665,-0.5861907601356506,-0.7298921942710876,0.7298921942710876,0.7156760096549988,1.0,0.7156760096549988,0.0,True,1.0
normal,94,False,-2.7491579055786133,-0.06191163882613182,-8.854672607930162,-1.4975523948669434,-0.256893515586853,-0.9047032594680786,-0.34925076365470886,0.4062955379486084,0.31974536180496216,0.4062955379486084,0.31974536180496216,8.125910758972168,0.19184721708297728,0.2008170783519745,0.20181339979171753,0.201315239071846,0.11137223243713379,-0.15041574835777283,-0.27441710233688354,-11.927214423040182,11.927214622497559,0.26562678813934326,-0.25689205527305603,-8.854672607930162,0.7084380388259888,18,0.08264458179473877,0.0,0.2419060617685318,0.0,False,False,False,False,False,False,0.25168463587760925,0.03206430748105049,-0.03260534629225731,3.6289566196501255e-06,-0.0004913491429761052,0.4062955379486084,0.31974536180496216,0.0,0.13921529054641724,-0.7951475977897644,-0.7339773178100586,-0.5903115272521973,-0.7367985844612122,0.7367985844612122,0.7229458689689636,1.0,0.7229458689689636,0.0,True,1.0
normal,95,False,-2.7412867546081543,-0.06291414797306061,-8.914749244322303,-1.4898865222930908,-0.2592082619667053,-0.8971344232559204,-0.3521870970726013,0.406630277633667,0.320209264755249,0.406630277633667,0.320209264755249,8.13260555267334,0.19212555885314941,0.2007833570241928,0.2020084708929062,0.2013959139585495,0.11670255661010742,-0.14893385767936707,-0.27475813031196594,-12.105188662243204,12.105188369750977,0.2660363018512726,-0.25920677185058594,-8.914749244322303,0.7084380388259888,18,0.08373129367828369,0.0,0.2498447149991989,0.0,False,False,False,False,False,False,0.2513446509838104,0.03124644234776497,-0.03592971712350845,7.66178982303245e-06,0.00022500299382954836,0.406630277633667,0.320209264755249,0.0,0.14587819576263428,-0.8070125579833984,-0.7405908107757568,-0.5943166017532349,-0.7436282634735107,0.7436282634735107,0.7301350235939026,1.0,0.7301350235939026,0.0,True,1.0
normal,96,False,-2.7325658798217773,-0.06400914490222931,-8.969949979420699,-1.4813551902770996,-0.2615088224411011,-0.88869309425354,-0.3550586700439453,0.40680187940597534,0.32066720724105835,0.40680187940597534,0.32066720724105835,8.136037588119507,0.192400324344635,0.19979999959468842,0.20132090151309967,0.20056045055389404,0.12130231410264969,-0.14783555269241333,-0.27531829476356506,-12.267216117281539,12.267216682434082,0.2665036916732788,-0.2615073323249817,-8.969949979420699,0.7084380388259888,18,0.08456146717071533,0.0,0.2584434151649475,0.0,False,False,False,False,False,False,0.2502027451992035,0.028867555782198906,-0.02950434945523739,2.5565050236764364e-05,-0.0013657270465046167,0.40680187940597534,0.32066720724105835,0.0,0.15162789821624756,-0.8178144097328186,-0.7471638321876526,-0.5979966521263123,-0.7501059174537659,0.7501059174537659,0.736953616142273,1.0,0.736953616142273,0.0,True,1.0
normal,97,False,-2.723879814147949,-0.06504160910844803,-9.03134740364359,-1.472881555557251,-0.2638819217681885,-0.8803199529647827,-0.3580668270587921,0.4070339500904083,0.3209346532821655,0.4070339500904083,0.3209346532821655,8.140679001808167,0.19256079196929932,0.19949287176132202,0.2013426572084427,0.20041775703430176,0.12658965587615967,-0.1463964879512787,-0.2757021188735962,-12.445412337632586,12.445412635803223,0.2673434019088745,-0.2638804018497467,-9.031348257417237,0.7084380388259888,18,0.08548450469970703,0.0,0.2670164406299591,0.0,False,False,False,False,False,False,0.25518864393234253,0.023797666653990746,-0.02946978248655796,0.0004912277217954397,-0.006626226007938385,0.4070339500904083,0.3209346532821655,0.0,0.15823706984519958,-0.8296941518783569,-0.7539440393447876,-0.6020898818969727,-0.7570216655731201,0.7570216655731201,0.7442333698272705,1.0,0.7442333698272705,0.0,True,1.0
normal,98,False,-2.715813159942627,-0.06598187237977982,-9.083402836629196,-1.464996099472046,-0.265958696603775,-0.8725203275680542,-0.3606819212436676,0.4073527157306671,0.3213118314743042,0.4073527157306671,0.3213118314743042,8.147054314613342,0.1927870988845825,0.1982654184103012,0.2019163966178894,0.2000909149646759,0.13166198134422302,-0.14480000734329224,-0.2757520079612732,-12.606465636940548,12.606465339660645,0.2682512700557709,-0.26595717668533325,-9.083402836629196,0.7084380388259888,18,0.08644819259643555,0.0,0.27512335777282715,0.0,False,False,False,False,False,False,0.2529279589653015,0.03130974620580673,-0.03010241501033306,0.00013987490092404187,-0.006524838972836733,0.4073527157306671,0.3213118314743042,0.0,0.16457748413085938,-0.8404310345649719,-0.7598776817321777,-0.6055601835250854,-0.7630095481872559,0.7630095481872559,0.7505363821983337,1.0,0.7505363821983337,0.0,True,1.0
normal,99,False,-2.7071821689605713,-0.06691654026508331,-9.139356600083588,-1.4565610885620117,-0.26811477541923523,-0.8641780614852905,-0.36341655254364014,0.4076559543609619,0.32176193594932556,0.4076559543609619,0.32176193594932556,8.153119087219238,0.19305716156959532,0.19847019016742706,0.20191162824630737,0.20019090175628662,0.13587290048599243,-0.14375999569892883,-0.27621400356292725,-12.753478628635902,12.75347900390625,0.26942721009254456,-0.26811325550079346,-9.139357453857233,0.7084380388259888,18,0.08723104000091553,0.0,0.283674418926239,0.0,False,False,False,False,False,False,0.26012489199638367,0.02048913761973381,-0.029979964718222618,0.00037498970050364733,-0.015557948499917984,0.4076559543609619,0.32176193594932556,0.0,0.16984112560749054,-0.8502318859100342,-0.7660378813743591,-0.6092904806137085,-0.7689995765686035,0.7689995765686035,0.7568416595458984,1.0,0.7568416595458984,0.0,True,1.0
normal,100,False,-2.6991796493530273,-0.06806020438671112,-9.199136977020478,-1.4487690925598145,-0.27056318521499634,-0.8564858436584473,-0.3664829730987549,0.40803033113479614,0.32216882705688477,0.40803033113479614,0.32216882705688477,8.160606622695923,0.19330129623413086,0.197368785738945,0.20235119760036469,0.19985999166965485,0.13890564441680908,-0.1435987651348114,-0.27741289138793945,-12.886684392924076,12.88668441772461,0.2712134122848511,-0.2705616354942322,-9.199136977020478,0.7084380388259888,18,0.08807921409606934,0.0,0.291694700717926,0.0,False,False,False,False,False,False,0.2606123387813568,0.03160474821925163,-0.032804593443870544,0.0,-0.0010047202231362462,0.40803033113479614,0.32216882705688477,0.0,0.17363205552101135,-0.8591122627258301,-0.7730332612991333,-0.6132757663726807,-0.7753003835678101,0.7753003835678101,0.7634741067886353,1.0,0.7634741067886353,0.0,True,1.0
normal,101,False,-2.6905364990234375,-0.06914839148521423,-9.259517556830682,-1.4403400421142578,-0.2729690372943878,-0.8481582403182983,-0.3695129454135895,0.4081631898880005,0.32249754667282104,0.4081631898880005,0.32249754667282104,8.16326379776001,0.19349852800369263,0.19725602865219116,0.20253244042396545,0.1998942345380783,0.1440558135509491,-0.14211860299110413,-0.27767112851142883,-13.057033579692426,13.05703353881836,0.2731648087501526,-0.27296748757362366,-9.25951841060433,0.7084380388259888,18,0.08901667594909668,0.0,0.3002777099609375,0.0,False,False,False,False,False,False,0.2585645914077759,0.03445155546069145,-0.03293370455503464,5.771440191892907e-05,-0.0008617793209850788,0.4081631898880005,0.32249754667282104,0.0,0.18006977438926697,-0.8704689145088196,-0.7799071073532104,-0.6173012256622314,-0.7819594740867615,0.7819594740867615,0.770483672618866,1.0,0.770483672618866,0.0,True,1.0
normal,102,False,-2.6819095611572266,-0.07022478431463242,-9.319950216833309,-1.4319287538528442,-0.2753639221191406,-0.8398491144180298,-0.3725323975086212,0.40842366218566895,0.32291656732559204,0.40842366218566895,0.32291656732559204,8.168473243713379,0.19374994039535523,0.19785818457603455,0.20274777710437775,0.20030298829078674,0.15009543299674988,-0.14019644260406494,-0.2776992917060852,-13.248292536831123,13.248292922973633,0.27537065744400024,-0.2753623425960541,-9.319950216833309,0.7084380388259888,18,0.09006798267364502,0.0,0.30882567167282104,0.0,False,False,False,False,False,False,0.2595684826374054,0.020902974531054497,-0.030528895556926727,0.0001802426268113777,-0.004418275319039822,0.40842366218566895,0.32291656732559204,0.0,0.18761929869651794,-0.8832194805145264,-0.786749541759491,-0.6213300228118896,-0.7889916300773621,0.7889916300773621,0.777885913848877,1.0,0.777885913848877,0.0,True,1.0
normal,103,False,-2.6736702919006348,-0.07147061079740524,-9.38098564103019,-1.4239087104797363,-0.2779412269592285,-0.8319329023361206,-0.3757403492927551,0.40873223543167114,0.3233431577682495,0.40873223543167114,0.3233431577682495,8.174644708633423,0.1940058946609497,0.19798395037651062,0.2032943069934845,0.20063912868499756,0.15525919198989868,-0.13892658054828644,-0.2782738208770752,-13.429305356441155,13.429305076599121,0.27800795435905457,-0.27793964743614197,-9.38098564103019,0.7084380388259888,18,0.09113729000091553,0.0,0.31701505184173584,0.0,False,False,False,False,False,False,0.2587437331676483,0.03302280977368355,-0.0332699790596962,2.62202593148686e-06,-0.0005479430546984076,0.40873223543167114,0.3233431577682495,0.0,0.19407398998737335,-0.895287036895752,-0.794113278388977,-0.6253990530967712,-0.796197772026062,0.796197772026062,0.7854713797569275,1.0,0.7854713797569275,0.0,True,1.0
normal,104,False,-2.6651947498321533,-0.07257339358329773,-9.441653088785534,-1.4156525135040283,-0.2803671658039093,-0.8237805366516113,-0.37879306077957153,0.4091629981994629,0.3238674998283386,0.4091629981994629,0.3238674998283386,8.183259963989258,0.19432049989700317,0.19839368760585785,0.20383301377296448,0.20111334323883057,0.16200648248195648,-0.13660411536693573,-0.2780473232269287,-13.635166404251692,13.63516616821289,0.28073403239250183,-0.28036555647850037,-9.441653088785534,0.7084380388259888,18,0.09229838848114014,0.0,0.32542920112609863,0.0,False,False,False,False,False,False,0.2574032247066498,0.031241996213793755,-0.03298982232809067,3.360923528816784e-06,8.624818292446434e-05,0.4091629981994629,0.3238674998283386,0.0,0.2025081068277359,-0.9090110659599304,-0.8010444641113281,-0.6294435262680054,-0.8034645318984985,0.8034645318984985,0.7931205630302429,1.0,0.7931205630302429,0.0,True,1.0
