Su2050/forklift_sim/outputs/exp83_single_point_steer_diag/exp83_force_steering_guidance_v3_seed42_point_y0_yawneg4_zero_steer_steps.csv
mode,step,done,root_x,root_y,root_yaw_deg,fork_center_x,fork_center_y,tip_x,tip_y,raw_drive,raw_steer,applied_drive,applied_steer,drive_target_rad_s,steer_target_rad,left_steer_joint_pos_rad,right_steer_joint_pos_rad,mean_steer_joint_pos_rad,root_y_signed_m,center_y_signed_m,tip_y_signed_m,yaw_err_signed_deg,yaw_err_abs_deg,d_traj_m,d_traj_signed_m,yaw_traj_signed_deg,traj_s_norm,traj_closest_idx,dist_front_m,insert_depth_m,pallet_disp_xy_m,hold_counter,inserted,push_free,hold_entry,clean_insert_ready,dirty_insert,success,policy_vx_r,policy_vy_r,policy_yaw_rate,policy_lift_pos,policy_lift_vel,policy_prev_drive,policy_prev_steer,policy_prev_lift,policy_y_err_obs,policy_yaw_err_obs,policy_d_traj_signed_obs,policy_yaw_traj_err_obs,steer_target_cmd,steer_target_abs,steer_guidance_gate,steer_enforce_gate,steer_penalty_gate,steer_match,steer_wrong_sign,steer_shortfall
zero_steer,0,False,-3.5,0.0,-3.9999995421277097,-2.2363834381103516,-0.08836066722869873,-1.6378450393676758,-0.13021454215049744,nan,nan,nan,nan,nan,nan,0.0,0.0,0.0,0.0,-0.08836066722869873,-0.13021454215049744,-3.999999115240887,3.9999990463256836,0.0,0.0,-6.173086552043443,0.0,0,0.5578449964523315,0.0,0.0,0.0,False,True,False,False,False,False,0.0,0.0,0.0,0.0,0.0,0.0,0.0,0.0,0.0,-0.26666659116744995,0.0,-0.41153910756111145,-0.2725875973701477,0.2725875973701477,0.23430274426937103,0.0,0.0,0.7274124026298523,False,0.2725875973701477
zero_steer,1,False,-3.4997737407684326,-1.6782432794570923e-05,-4.000121631759124,-2.2361574172973633,-0.0883801281452179,-1.637619137763977,-0.13023528456687927,0.3619219660758972,0.26352429389953613,0.3619219660758972,0.0,7.238439321517944,0.0,0.000121532597404439,-0.00012154517753515393,-6.290065357461572e-09,-1.6773152310634032e-05,-0.0883801132440567,-0.13023526966571808,-4.000122058645947,4.0001220703125,0.00022685708245262504,-2.8015303541906178e-05,-6.173208641674857,0.0,0,0.5576189756393433,0.0,6.330365920348413e-08,0.0,False,True,False,False,False,False,-0.0010066620307043195,6.732618203386664e-06,-0.0001145611095125787,0.0,1.170383438875433e-05,0.3619219660758972,0.0,0.0,-2.0966439478797838e-05,-0.26667478680610657,-8.004372648429126e-05,-0.4115472435951233,-0.2726202607154846,0.2726202607154846,0.23433712124824524,0.0,0.0,0.46385544538497925,True,0.5361445546150208
zero_steer,2,False,-3.4991440773010254,-6.348267197608948e-05,-4.0004494808392845,-2.2355284690856934,-0.08843405544757843,-1.6369903087615967,-0.1302926391363144,0.37708982825279236,0.2817744016647339,0.37708982825279236,0.0,7.541796565055847,0.0,0.0002212804538430646,-0.00022010829707141966,5.86078385822475e-07,-6.346619193209335e-05,-0.08843403309583664,-0.130292609333992,-4.0004494808392845,4.0004496574401855,0.0008581129950471222,-0.00010574709449429065,-6.173536063868195,0.0,0,0.5569902658462524,0.0,6.607871938513199e-08,0.0,False,True,False,False,False,False,-0.0020255723502486944,1.3390221283771098e-05,-0.0002276282903039828,0.0,6.072777978261001e-06,0.37708982825279236,0.0,0.0,-7.93327417341061e-05,-0.26669663190841675,-0.0003021345764864236,-0.4115690588951111,-0.27271032333374023,0.27271032333374023,0.2344319373369217,0.0,0.0,0.4455152750015259,True,0.5544847249984741
zero_steer,3,False,-3.4986963272094727,-9.59150493144989e-05,-4.000576693112576,-2.2350807189941406,-0.08846931159496307,-1.6365426778793335,-0.1303292214870453,0.3776055872440338,0.2821311354637146,0.3776055872440338,0.0,7.552111744880676,0.0,9.999327448895201e-05,-0.0003160826745443046,-0.00010804469638969749,-9.589136607246473e-05,-0.08846928179264069,-0.1303291916847229,-4.000576693112576,4.000576972961426,0.0013072416186332703,-0.00015795219223946333,-6.173663703028309,0.0,0,0.5565425157546997,0.0,6.949246511567253e-08,0.0,False,True,False,False,False,False,0.0338323749601841,0.00013909977860748768,-1.738476930768229e-05,0.0,6.73045651637949e-05,0.3776055872440338,0.0,0.0,-0.00011986420577159151,-0.26670509576797485,-0.0004512919986154884,-0.41157758235931396,-0.2727659046649933,0.2727659046649933,0.23449043929576874,0.0,0.0,0.4451029300689697,True,0.5548970699310303
zero_steer,4,False,-3.496877908706665,-0.00022234395146369934,-4.0005660209419975,-2.233262300491333,-0.08859548717737198,-1.6347242593765259,-0.13045528531074524,0.37759411334991455,0.2822205424308777,0.37759411334991455,0.0,7.551882266998291,0.0,3.932820254703984e-05,-0.0002866174327209592,-0.00012364461144898087,-0.00022231305774766952,-0.088595449924469,-0.13045524060726166,-4.0005660209419975,4.000566005706787,0.003129958640784025,-0.00035297489375807345,-6.173652603970908,0.0,0,0.5547240972518921,0.0,7.345591512830651e-08,0.0,False,True,False,False,False,False,0.07066819071769714,0.00011095777153968811,-0.0002245241339551285,2.151969091812589e-08,0.0003329508763272315,0.37759411334991455,0.0,0.0,-0.0002778913185466081,-0.26670441031455994,-0.0010084997629746795,-0.4115768373012543,-0.27294784784317017,0.27294784784317017,0.23468196392059326,0.0,0.0,0.44483160972595215,True,0.5551683902740479
zero_steer,5,False,-3.4938430786132812,-0.0004341043531894684,-4.000535711977556,-2.230227470397949,-0.08880658447742462,-1.6316893100738525,-0.13066606223583221,0.377515971660614,0.28221040964126587,0.377515971660614,0.0,7.55031943321228,0.0,1.4484439816442318e-05,-0.0002628053480293602,-0.00012416044773999602,-0.00043406622717157006,-0.08880653977394104,-0.13066601753234863,-4.0005352850907325,4.000535488128662,0.006172096822410822,-0.0006789734470658004,-6.173622721893289,0.0,0,0.5516892671585083,0.0,7.788518985307746e-08,0.0,False,True,False,False,False,False,0.10725775361061096,0.0001626908779144287,-0.00028378330171108246,9.475625262211906e-08,0.0002819164074026048,0.377515971660614,0.0,0.0,-0.0005425827694125473,-0.2667023539543152,-0.0019399242009967566,-0.4115748405456543,-0.27325141429901123,0.27325141429901123,0.23500150442123413,0.0,0.0,0.4445381760597229,True,0.5554618239402771
zero_steer,6,False,-3.4896352291107178,-0.0007285922765731812,-4.000507110560407,-2.2260196208953857,-0.0891004353761673,-1.627481460571289,-0.130959615111351,0.37763017416000366,0.28229063749313354,0.37763017416000366,0.0,7.552603483200073,0.0,-1.736623926262837e-05,-0.000244874827330932,-0.00013112052693031728,-0.0007293793023563921,-0.08910095691680908,-0.13096001744270325,-4.000495584616182,4.000495433807373,0.0040647005662322044,-7.10322055965662e-05,-21.34577549601555,0.01185582671314478,1,0.5474815368652344,0.0,1.053322051802752e-07,0.0,False,True,False,False,False,False,0.14098040759563446,0.00019949115812778473,-0.0006396497483365238,2.4609698812128045e-07,0.0002842670655809343,0.37763017416000366,0.0,0.0,-0.000911724113393575,-0.2666997015476227,-0.000202949158847332,-1.0,-0.4201747477054596,0.4201747477054596,0.3896576166152954,0.0,0.0,0.2975345849990845,True,0.7024654150009155
zero_steer,7,False,-3.4844393730163574,-0.0010928288102149963,-4.000502414805352,-2.2208237648010254,-0.08946456015110016,-1.6222856044769287,-0.1313236951828003,0.3974238336086273,0.30934879183769226,0.3974238336086273,0.0,7.948476672172546,0.0,4.916567377222236e-06,-0.0002706481609493494,-0.00013286579633131623,-0.0010934218298643827,-0.08946496248245239,-0.13132400810718536,-4.000494303955713,4.000494480133057,0.0021191714331507683,-0.0019674731884151697,-21.34577037337367,0.01185582671314478,1,0.5422855615615845,0.0,7.383283673334518e-08,0.0,False,True,False,False,False,False,0.1682300716638565,0.00025046151131391525,-0.0003988614189438522,0.0,0.0002503797004465014,0.3974238336086273,0.0,0.0,-0.0013667773455381393,-0.2666996121406555,-0.005621352232992649,-1.0,-0.42146313190460205,0.42146313190460205,0.39101383090019226,0.0,0.0,0.2691880464553833,True,0.7308119535446167
zero_steer,8,False,-3.4784419536590576,-0.0015120655298233032,-4.00048576621925,-2.2148263454437256,-0.08988345414400101,-1.616288185119629,-0.1317424178123474,0.39802515506744385,0.31016528606414795,0.39802515506744385,0.0,7.960503101348877,0.0,-2.43535396293737e-05,-0.00024267184198834002,-0.00013351268717087805,-0.00151264073792845,-0.08988384902477264,-0.13174273073673248,-4.000477655369611,4.0004777908325195,0.006768957711756229,-0.0024250978603959084,-38.22217572749823,0.021627316251397133,2,0.5362882614135742,0.0,1.4565895867235668e-07,0.0,False,True,False,False,False,False,0.19037744402885437,0.0008694864809513092,-0.0008709731628187001,1.2171651064818434e-07,0.0002866892609745264,0.39802515506744385,0.0,0.0,-0.0018908008933067322,-0.2666985094547272,-0.0069288513623178005,-1.0,-0.4219597578048706,0.4219597578048706,0.3915365934371948,0.0,0.0,0.26787495613098145,True,0.7321250438690186
zero_steer,9,False,-3.4718008041381836,-0.0019767358899116516,-4.000501987918529,-2.2081851959228516,-0.09034847468137741,-1.6096470355987549,-0.13220760226249695,0.3980712294578552,0.31023430824279785,0.3980712294578552,0.0,7.9614245891571045,0.0,-4.8794347094371915e-05,-0.00022275179799180478,-0.00013577306526713073,-0.001977566396817565,-0.09034903347492218,-0.13220803439617157,-4.0004900350874815,4.000490188598633,0.0066348956897854805,-0.006544176489114761,-38.22219280297116,0.021627316251397133,2,0.5296469926834106,0.0,8.988020283595688e-08,0.0,False,True,False,False,False,False,0.20810124278068542,0.0008462630212306976,-0.0008355928584933281,0.0,0.0004995577037334442,0.3980712294578552,0.0,0.0,-0.002471958054229617,-0.26669934391975403,-0.018697647377848625,-1.0,-0.4245755672454834,0.4245755672454834,0.3942900598049164,0.0,0.0,0.26519012451171875,True,0.7348098754882812
zero_steer,10,False,-3.464646577835083,-0.002476617693901062,-4.000431978479536,-2.201030731201172,-0.09084681421518326,-1.6024926900863647,-0.1327052116394043,0.39810651540756226,0.31023406982421875,0.39810651540756226,0.0,7.962130308151245,0.0,-7.828063098713756e-05,-0.0002017116785282269,-0.00013999614748172462,-0.002476999070495367,-0.09084710478782654,-0.1327054649591446,-4.000427709611305,4.000427722930908,0.01188427209854126,-0.010979462414979935,-38.22211767089029,0.021627316251397133,2,0.5224927663803101,0.0,1.4148207583275507e-07,0.0,False,True,False,False,False,False,0.22264648973941803,0.0005571907386183739,-0.00041640602285042405,1.4853372931611375e-07,0.0002509198384359479,0.39810651540756226,0.0,0.0,-0.0030962489545345306,-0.26669517159461975,-0.0313698947429657,-1.0,-0.4273883104324341,0.4273883104324341,0.39725086092948914,0.0,0.0,0.26237761974334717,True,0.7376223802566528
zero_steer,11,False,-3.4570729732513428,-0.003006063401699066,-4.000419598761666,-2.1934571266174316,-0.09137599170207977,-1.5949190855026245,-0.13323426246643066,0.3981594443321228,0.31015700101852417,0.3981594443321228,0.0,7.963188886642456,0.0,-0.00012264354154467583,-0.00017263370682485402,-0.00014763862418476492,-0.0030062685254961252,-0.0913761779665947,-0.133234441280365,-4.0004187449880195,4.000418663024902,0.015677478164434433,-0.015141211450099945,-53.092774795990785,0.0304144024848938,3,0.5149191617965698,0.0,2.0943801359862846e-07,0.0,False,True,False,False,False,False,0.23430702090263367,0.00022102147340774536,-0.0003390470228623599,1.871306221090663e-09,0.00029900993104092777,0.3981594443321228,0.0,0.0,-0.0037578355986624956,-0.266694575548172,-0.0432606041431427,-1.0,-0.43006378412246704,0.43006378412246704,0.40006715059280396,0.0,0.0,0.2597792148590088,True,0.7402207851409912
zero_steer,12,False,-3.449159860610962,-0.0035598017275333405,-4.000413195459319,-2.185544013977051,-0.09192957729101181,-1.5870059728622437,-0.13378778100013733,0.3981218934059143,0.31006306409835815,0.3981218934059143,0.0,7.962437868118286,0.0,-0.00016008413513191044,-0.00012850611528847367,-0.00014429513248614967,-0.0035607933532446623,-0.09193022549152374,-0.13378825783729553,-4.000397400646863,4.000397682189941,0.02149716019630432,-0.02148357406258583,-53.092774795990785,0.0304144024848938,3,0.5070059299468994,0.0,4.936170938663054e-08,0.0,False,True,False,False,False,False,0.24370048940181732,-0.00011189840734004974,-0.00015387772873509675,1.1503674102186778e-07,0.00016436923760920763,0.3981218934059143,0.0,0.0,-0.004450991749763489,-0.2666931450366974,-0.061381641775369644,-1.0,-0.4339989721775055,0.4339989721775055,0.4042094349861145,0.0,0.0,0.25593793392181396,True,0.744062066078186
zero_steer,13,False,-3.4409804344177246,-0.0041326433420181274,-4.000393131778632,-2.1773645877838135,-0.09250198304653168,-1.5788264274597168,-0.13435997068881989,0.3980581760406494,0.31006836891174316,0.3980581760406494,0.0,7.961163520812988,0.0,-0.00019252451602369547,-9.915674309013411e-05,-0.0001458406331948936,-0.004133298061788082,-0.09250243008136749,-0.13436032831668854,-4.000383740268523,4.0003838539123535,0.028442271053791046,-0.02670671045780182,-63.576083813395684,0.039061952382326126,4,0.4988265037536621,0.0,1.5417607812651113e-07,0.0,False,True,False,False,False,False,0.2510060667991638,0.0004665125161409378,-0.000453555810963735,9.645086862519747e-08,-8.304414950544015e-05,0.3980581760406494,0.0,0.0,-0.005166622810065746,-0.26669225096702576,-0.07630489021539688,-1.0,-0.4373050928115845,0.4373050928115845,0.40768957138061523,0.0,0.0,0.25262653827667236,True,0.7473734617233276
zero_steer,14,False,-3.432581901550293,-0.004720892757177353,-4.000420025648489,-2.168966293334961,-0.09309083223342896,-1.5704280138015747,-0.13494910299777985,0.3980095386505127,0.3100548982620239,0.3980095386505127,0.0,7.960190773010254,0.0,-0.0002421832032268867,-6.545696669491008e-05,-0.0001538200885988772,-0.004721442703157663,-0.0930912047624588,-0.13494938611984253,-4.0004123416856725,4.000412464141846,0.03477626293897629,-0.034246038645505905,-63.57611113415237,0.039061952382326126,4,0.49042809009552,0.0,1.8849134164611314e-07,0.0,False,True,False,False,False,False,0.2571592330932617,0.0003487188369035721,-0.0003395870444364846,4.011507925838487e-08,0.0001294875401072204,0.3980095386505127,0.0,0.0,-0.005901803262531757,-0.26669415831565857,-0.09784583002328873,-1.0,-0.44194531440734863,0.44194531440734863,0.41257402300834656,0.0,0.0,0.24799978733062744,True,0.7520002126693726
zero_steer,15,False,-3.424011707305908,-0.005319211632013321,-4.000343186020326,-2.160395860671997,-0.09368744492530823,-1.5618575811386108,-0.13554491102695465,0.3979734778404236,0.31003454327583313,0.3979734778404236,0.0,7.959469556808472,0.0,-0.00029267490026541054,0.00010034078150056303,-9.616705938242376e-05,-0.005320059601217508,-0.093688003718853,-0.13554534316062927,-4.000329952528809,4.000329971313477,0.04199960455298424,-0.04193771630525589,-63.5760360020715,0.039061952382326126,4,0.48185765743255615,0.0,9.167736436666019e-08,0.0,False,True,False,False,False,False,0.2615877389907837,0.0006565861403942108,-0.0004487105761654675,6.445816325140186e-08,5.288167085382156e-05,0.3979734778404236,0.0,0.0,-0.006650074385106564,-0.26668867468833923,-0.11982204765081406,-1.0,-0.44667381048202515,0.44667381048202515,0.4175513684749603,0.0,0.0,0.24329161643981934,True,0.7567083835601807
zero_steer,16,False,-3.415300130844116,-0.005929175764322281,-4.000263785071224,-2.151684284210205,-0.09429565072059631,-1.5531458854675293,-0.13615229725837708,0.3979068100452423,0.3098933696746826,0.3979068100452423,0.0,7.958136200904846,0.0,-0.0003340262919664383,0.00019181150128133595,-7.110739534255117e-05,-0.005929361097514629,-0.09429582208395004,-0.1361524611711502,-4.000263358184402,4.000263214111328,0.04979000985622406,-0.0497569665312767,-63.57595403980146,0.039061952382326126,4,0.4731459617614746,0.0,1.7573890431776817e-07,0.0,False,True,False,False,False,False,0.2657005786895752,0.00048369914293289185,-0.00028394375112839043,5.247424894605501e-08,0.00010131400631507859,0.3979068100452423,0.0,0.0,-0.00741170160472393,-0.26668423414230347,-0.1421627700328827,-1.0,-0.4514818489551544,0.4514818489551544,0.4226124882698059,0.0,0.0,0.23862481117248535,True,0.7613751888275146
zero_steer,17,False,-3.406472682952881,-0.006547477096319199,-4.000198044500463,-2.1428565979003906,-0.09491252154111862,-1.5443181991577148,-0.13676847517490387,0.39782288670539856,0.30985498428344727,0.39782288670539856,0.0,7.956457734107971,0.0,-0.0003489494847599417,0.0003972783451899886,2.4164430215023458e-05,-0.006548020523041487,-0.09491290152072906,-0.13676878809928894,-4.000189933650824,4.000189781188965,0.057910382747650146,-0.05684415623545647,-69.51676378741934,0.047984909266233444,5,0.4643181562423706,0.0,1.025831934953203e-07,0.0,False,True,False,False,False,False,0.2685788571834564,0.0006502773612737656,-0.0005297098541632295,1.5910559625353926e-07,2.4656750611029565e-05,0.39782288670539856,0.0,0.0,-0.008185025304555893,-0.2666793167591095,-0.1624118834733963,-1.0,-0.45587655901908875,0.45587655901908875,0.42723849415779114,0.0,0.0,0.2342684268951416,True,0.7657315731048584
zero_steer,18,False,-3.3975555896759033,-0.007171127945184708,-4.00009644543656,-2.133939266204834,-0.09553391486406326,-1.5354008674621582,-0.13738881051540375,0.39781454205513,0.3098493218421936,0.39781454205513,0.0,7.9562908411026,0.0,-0.0003786053566727787,0.00066714221611619,0.00014426842972170562,-0.00717134727165103,-0.09553410112857819,-0.13738898932933807,-4.000094737889267,4.000094890594482,0.06569959223270416,-0.06521642208099365,-69.51666133458178,0.047984909266233444,5,0.45540082454681396,0.0,1.2764661505570984e-07,0.0,False,True,False,False,False,False,0.2711106240749359,-0.001202428713440895,-0.00047588086454197764,0.0,0.0050539495423436165,0.39781454205513,0.0,0.0,-0.008964183740317822,-0.2666729688644409,-0.18633264303207397,-1.0,-0.461007297039032,0.461007297039032,0.4326392710208893,0.0,0.0,0.22914338111877441,True,0.7708566188812256
zero_steer,19,False,-3.388568639755249,-0.007799945771694183,-3.9999816128811387,-2.1249520778656006,-0.09616020321846008,-1.5264136791229248,-0.13801389932632446,0.39758363366127014,0.30963683128356934,0.39758363366127014,0.0,7.951672673225403,0.0,-0.0004507239500526339,0.0009730499004945159,0.00026116298977285624,-0.007800212595611811,-0.0961604118347168,-0.1380140781402588,-3.9999790515602,3.999979019165039,0.07381393760442734,-0.07365428656339645,-69.51655205155507,0.047984909266233444,5,0.4464137554168701,0.0,1.4888343002894544e-07,0.0,False,True,False,False,False,False,0.2732429802417755,0.0004593115299940109,-0.0004977007629349828,8.348209945552298e-08,0.0001811179972719401,0.39758363366127014,0.0,0.0,-0.009750265628099442,-0.2666652798652649,-0.21044082939624786,-1.0,-0.466177761554718,0.466177761554718,0.43808186054229736,0.0,0.0,0.22418540716171265,True,0.7758145928382874
zero_steer,20,False,-3.3795247077941895,-0.008434869349002838,-3.999878306269942,-2.115908145904541,-0.09679285436868668,-1.5173695087432861,-0.1386454701423645,0.3975297212600708,0.30964359641075134,0.3975297212600708,0.0,7.950594425201416,0.0,-0.0005743231158703566,0.0013012627605348825,0.000363469822332263,-0.008435988798737526,-0.09679357707500458,-0.13864600658416748,-3.9998603770233707,3.9998605251312256,0.08216897398233414,-0.08214642107486725,-69.51644959871751,0.047984909266233444,5,0.43736958503723145,0.0,1.0665772975926302e-07,0.0,False,True,False,False,False,False,0.2741239666938782,-0.0005830246955156326,-0.0034864959307014942,0.0,-0.0059253862127661705,0.3975297212600708,0.0,0.0,-0.01054498553276062,-0.26665735244750977,-0.23470406234264374,-1.0,-0.4713830053806305,0.4713830053806305,0.44356104731559753,0.0,0.0,0.21897339820861816,True,0.7810266017913818
zero_steer,21,False,-3.3704562187194824,-0.009068738669157028,-3.999859950136548,-2.106839656829834,-0.09742631763219833,-1.508301019668579,-0.13927873969078064,0.39758211374282837,0.30974388122558594,0.39758211374282837,0.0,7.951642274856567,0.0,-0.0006158333853818476,0.0016957713523879647,0.0005399689543992281,-0.009069168008863926,-0.09742662310600281,-0.13927899301052094,-3.99985482749467,3.999854803085327,0.09068359434604645,-0.09066124260425568,-69.51642910815,0.047984909266233444,5,0.42830097675323486,0.0,1.1907790309351185e-07,0.0,False,True,False,False,False,False,0.2747068405151367,-0.0013136602938175201,-0.0025335391983389854,0.0,-0.005640956573188305,0.39758211374282837,0.0,0.0,-0.011336459778249264,-0.2666569948196411,-0.25903213024139404,-1.0,-0.47660455107688904,0.47660455107688904,0.4490574300289154,0.0,0.0,0.21365153789520264,True,0.7863484621047974
zero_steer,22,False,-3.3613691329956055,-0.00970475748181343,-3.9996832189917737,-2.097752332687378,-0.09805843979120255,-1.4992135763168335,-0.13990901410579681,0.39748305082321167,0.3096255660057068,0.39748305082321167,0.0,7.949661016464233,0.0,-0.0006329631432890892,0.0026308586820960045,0.0009989477694034576,-0.009705274365842342,-0.0980587974190712,-0.1399092972278595,-3.9996759619157807,3.999675989151001,0.09931737184524536,-0.09919264912605286,-69.51625152323159,0.047984909266233444,5,0.4192136526107788,0.0,1.98745240709286e-07,0.0,False,True,False,False,False,False,0.27479708194732666,-0.0013327226042747498,-0.0021992954425513744,0.0,0.004615265876054764,0.39748305082321167,0.0,0.0,-0.012131593190133572,-0.26664507389068604,-0.2834075689315796,-1.0,-0.4818298816680908,0.4818298816680908,0.45455777645111084,0.0,0.0,0.2085445523262024,True,0.7914554476737976
zero_steer,23,False,-3.352280616760254,-0.010341472923755646,-3.9994462968049387,-2.088663339614868,-0.09868992865085602,-1.4901244640350342,-0.1405380368232727,0.3972598612308502,0.30938172340393066,0.3972598612308502,0.0,7.945197224617004,0.0,-0.0007062371587380767,0.003562168451026082,0.0014279657043516636,-0.010342422872781754,-0.09869053959846497,-0.14053848385810852,-3.9994313557661294,3.9994313716888428,0.10699734091758728,-0.0,-3.999446723691762,0.12531575560569763,13,0.41012442111968994,0.0,5.379914469472169e-08,0.0,False,True,False,False,False,False,0.2750644087791443,-0.0006164666265249252,-0.0023437433410435915,0.0,0.007247996516525745,0.3972598612308502,0.0,0.0,-0.012928028590977192,-0.2666287422180176,-0.0,-0.26662978529930115,-0.24215379357337952,0.24215379357337952,0.20226715505123138,0.0,0.0,0.4484645128250122,True,0.5515354871749878
zero_steer,24,False,-3.3431875705718994,-0.010978706181049347,-3.999410011424973,-2.0795702934265137,-0.09932635724544525,-1.4810312986373901,-0.1411740779876709,0.3730613887310028,0.2758980989456177,0.3730613887310028,0.0,7.461227774620056,0.0,-0.001030944986268878,0.00419586431235075,0.001582459663040936,-0.010979080572724342,-0.09932662546634674,-0.1411742866039276,-3.999405315669919,3.9994053840637207,0.1113952025771141,-0.0,-3.999410011424973,0.12531575560569763,13,0.4010312557220459,0.0,9.890916885524348e-08,0.0,False,True,False,False,False,False,0.2756810486316681,4.2499974370002747e-05,-0.0005424309056252241,0.0,0.0006981489714235067,0.3730613887310028,0.0,0.0,-0.01372385025024414,-0.2666270136833191,-0.0,-0.26662734150886536,-0.24251019954681396,0.24251019954681396,0.2026423215866089,0.0,0.0,0.48159170150756836,True,0.5184082984924316
zero_steer,25,False,-3.334080696105957,-0.011616796255111694,-3.9995367968114417,-2.0704636573791504,-0.09996725618839264,-1.4719247817993164,-0.14181630313396454,0.3720422387123108,0.27477723360061646,0.3720422387123108,0.0,7.440844774246216,0.0,-0.0013194771017879248,0.004594347905367613,0.001637435401789844,-0.011617797426879406,-0.09996790438890457,-0.14181679487228394,-3.999521001998986,3.999521017074585,0.1163530945777893,-0.0,-3.9995367968114417,0.12531575560569763,13,0.3919248580932617,0.0,1.1503653496447441e-07,0.0,False,True,False,False,False,False,0.276143878698349,0.00010073371231555939,-0.00043757501407526433,0.0,0.0008063916466198862,0.3720422387123108,0.0,0.0,-0.014522247016429901,-0.2666347324848175,-0.0,-0.2666357755661011,-0.24287651479244232,0.24287651479244232,0.20302791893482208,0.0,0.0,0.48234623670578003,True,0.51765376329422
zero_steer,26,False,-3.324963331222534,-0.012254368513822556,-3.9994582496359863,-2.0613460540771484,-0.10060308873653412,-1.4628071784973145,-0.14245131611824036,0.37206342816352844,0.27477431297302246,0.37206342816352844,0.0,7.441268563270569,0.0,-0.0014989925548434258,0.005010231863707304,0.0017556196544319391,-0.012255231849849224,-0.10060364753007889,-0.14245173335075378,-3.9994450161444695,3.9994449615478516,0.1217963919043541,-0.0,-3.9994582496359863,0.12531575560569763,13,0.38280725479125977,0.0,1.333569912276289e-07,0.0,False,True,False,False,False,False,0.27597206830978394,-0.0009522810578346252,-0.0032834880985319614,0.0,-0.0022378137800842524,0.37206342816352844,0.0,0.0,-0.015319040045142174,-0.2666296660900116,-0.0,-0.2666305601596832,-0.24323052167892456,0.24323052167892456,0.20340055227279663,0.0,0.0,0.481995165348053,True,0.518004834651947
zero_steer,27,False,-3.315849781036377,-0.012892082333564758,-3.9993506741565588,-2.052232265472412,-0.1012384369969368,-1.4536933898925781,-0.1430855393409729,0.3721708059310913,0.27487921714782715,0.3721708059310913,0.0,7.443416118621826,0.0,-0.0015582378255203366,0.005529522430151701,0.001985642360523343,-0.01289296243339777,-0.10123900324106216,-0.14308594167232513,-3.9993361600045723,3.9993362426757812,0.12765993177890778,-0.0,-3.9993506741565588,0.12531575560569763,13,0.3736933469772339,0.0,5.973442540607721e-08,0.0,False,True,False,False,False,False,0.2758704125881195,-0.0019283350557088852,-0.002404974540695548,0.0,0.006565186195075512,0.3721708059310913,0.0,0.0,-0.016116203740239143,-0.266622394323349,-0.0,-0.2666233777999878,-0.2435828596353531,0.2435828596353531,0.2037714421749115,0.0,0.0,0.48153793811798096,True,0.518462061882019
zero_steer,28,False,-3.306748390197754,-0.01353069394826889,-3.998850362799855,-2.0431301593780518,-0.1018659919500351,-1.4445909261703491,-0.14370787143707275,0.3720553517341614,0.27466881275177,0.3720553517341614,0.0,7.4411070346832275,0.0,-0.0016638985835015774,0.006227561272680759,0.002281831344589591,-0.013530906289815903,-0.10186617076396942,-0.1437080353498459,-3.998849082139386,3.9988491535186768,0.13387706875801086,-0.0,-3.998850362799855,0.12531575560569763,13,0.3645908832550049,0.0,1.4067697406972002e-07,0.0,False,True,False,False,False,False,0.2757381200790405,-0.00017870590090751648,0.00015256422921083868,2.0929094546318083e-07,0.000500906549859792,0.3720553517341614,0.0,0.0,-0.016913633793592453,-0.2665899395942688,-0.0,-0.26659002900123596,-0.2439126968383789,0.2439126968383789,0.20411863923072815,0.0,0.0,0.4814184904098511,True,0.5185815095901489
zero_steer,29,False,-3.297642230987549,-0.014167092740535736,-3.9989314712962494,-2.034024238586426,-0.102504201233387,-1.4354850053787231,-0.1443469226360321,0.3720129132270813,0.274685263633728,0.3720129132270813,0.0,7.440258264541626,0.0,-0.001823272556066513,0.006386696361005306,0.0022817119024693966,-0.014167536981403828,-0.10250451415777206,-0.1443471759557724,-3.9989254948807256,3.9989254474639893,0.1294291913509369,-0.10250361263751984,-3.9989314712962494,0.27109628915786743,15,0.355485200881958,0.0,2.3375790192403656e-07,0.0,False,True,False,False,False,False,0.2756289541721344,-0.0019403249025344849,-0.0004564026603475213,0.0,0.005235214252024889,0.3720129132270813,0.0,0.0,-0.01770942099392414,-0.2665950357913971,-0.2928674817085266,-0.26659542322158813,-0.3028489053249359,0.3028489053249359,0.26615673303604126,0.0,0.0,0.42246580123901367,True,0.5775341987609863
zero_steer,30,False,-3.288545846939087,-0.014805406332015991,-3.9988345679874,-2.0249276161193848,-0.10314036905765533,-1.4263883829116821,-0.14498208463191986,0.3707895278930664,0.2734661102294922,0.3707895278930664,0.0,7.415790557861328,0.0,-0.0018845846643671393,0.006735779345035553,0.002425597282126546,-0.014806185849010944,-0.10314087569713593,-0.1449824720621109,-3.998822188269529,3.9988222122192383,0.124610535800457,-0.10313978046178818,-3.9988349948742226,0.27109628915786743,15,0.34638845920562744,0.0,1.1211380268605353e-07,0.0,False,True,False,False,False,False,0.27576887607574463,0.00046120956540107727,-0.000540159409865737,0.0,9.380987467011437e-05,0.3707895278930664,0.0,0.0,-0.018507732078433037,-0.26658815145492554,-0.29468509554862976,-0.2665889859199524,-0.3035656809806824,0.3035656809806824,0.26691123843193054,0.024076897650957108,0.006426394451409578,0.42296820878982544,True,0.5770317912101746
zero_steer,31,False,-3.2794482707977295,-0.015440072864294052,-3.9987624241142914,-2.0158300399780273,-0.10377344489097595,-1.4172905683517456,-0.1456144005060196,0.3708554804325104,0.27349501848220825,0.3708554804325104,0.0,7.4171096086502075,0.0,-0.0022031485568732023,0.007114597596228123,0.0024557244032621384,-0.0154409259557724,-0.10377399623394012,-0.14561480283737183,-3.9987487637359513,3.998748779296875,0.12028799206018448,-0.1037728488445282,-3.998761997227468,0.27109628915786743,15,0.3372906446456909,0.0,8.916784111079323e-08,0.0,False,True,False,False,False,False,0.27550122141838074,0.0016004573553800583,-0.0015118411974981427,4.584424928566477e-08,2.804291943903081e-05,0.3708554804325104,0.0,0.0,-0.0193011574447155,-0.26658323407173157,-0.29649385809898376,-0.2665841281414032,-0.3042801320552826,0.3042801320552826,0.26766330003738403,0.08472899347543716,0.022678842768073082,0.42222487926483154,True,0.5777751207351685
zero_steer,32,False,-3.270355463027954,-0.016080502420663834,-3.998123374540072,-2.0067362785339355,-0.10439978539943695,-1.4081963300704956,-0.14623406529426575,0.3709520101547241,0.27350229024887085,0.3709520101547241,0.0,7.419040203094482,0.0,-0.002322173910215497,0.007238617166876793,0.0024582217447459698,-0.016081226989626884,-0.10440025478601456,-0.1462344080209732,-3.9981118485958476,3.9981119632720947,0.11651584506034851,-0.1043991893529892,-3.998123374540072,0.27109628915786743,15,0.3281964063644409,0.0,1.0978261144600765e-07,0.0,False,True,False,False,False,False,0.2750698924064636,-0.001658409833908081,-0.0028338285628706217,0.0,-0.004475309979170561,0.3709520101547241,0.0,0.0,-0.020101534202694893,-0.2665407955646515,-0.2982833981513977,-0.26654157042503357,-0.30496057868003845,0.30496057868003845,0.2683795392513275,0.14535725116729736,0.0390109121799469,0.4215371608734131,True,0.5784628391265869
zero_steer,33,False,-3.261268377304077,-0.016714714467525482,-3.997969695283747,-1.99764883518219,-0.1050306037068367,-1.39910888671875,-0.14686328172683716,0.3709560036659241,0.2735394239425659,0.3709560036659241,0.0,7.4191200733184814,0.0,-0.0024812982883304358,0.007398210000246763,0.0024584559723734856,-0.016715524718165398,-0.10503111034631729,-0.146863654255867,-3.9979564617922296,3.9979565143585205,0.11335932463407516,-0.10503000020980835,-3.9979701221705697,0.27109628915786743,15,0.31910884380340576,0.0,2.729709791537971e-08,0.0,False,True,False,False,False,False,0.27511459589004517,-0.0007360987365245819,-0.001042854506522417,0.0,-0.002428302774205804,0.3709560036659241,0.0,0.0,-0.020894406363368034,-0.26653042435646057,-0.30008572340011597,-0.2665313482284546,-0.3056686520576477,0.3056686520576477,0.2691248953342438,0.20594099164009094,0.05542384833097458,0.4207919239997864,True,0.5792080760002136
zero_steer,34,False,-3.252188205718994,-0.017352383583784103,-3.9972328886270314,-1.988567590713501,-0.10565201938152313,-1.3900270462036133,-0.14747700095176697,0.3709208369255066,0.2734767198562622,0.3709208369255066,0.0,7.418416738510132,0.0,-0.0025909505784511566,0.007683211006224155,0.0025461302138864994,-0.017352916300296783,-0.10565237700939178,-0.14747728407382965,-3.997225204664215,3.997225284576416,0.1108563095331192,-0.10565141588449478,-3.9972328886270314,0.27109628915786743,15,0.31002700328826904,0.0,9.093651698321992e-08,0.0,False,True,False,False,False,False,0.2748558521270752,-6.6317617893219e-05,-0.0017080496763810515,0.0,0.008911488577723503,0.3709208369255066,0.0,0.0,-0.02169114537537098,-0.2664816677570343,-0.3018611967563629,-0.2664822041988373,-0.30633899569511414,0.30633899569511414,0.26983052492141724,0.26648658514022827,0.07190621644258499,0.42018425464630127,True,0.5798157453536987
zero_steer,35,False,-3.2431178092956543,-0.01799033209681511,-3.9964089970583987,-1.9794957637786865,-0.10627181828022003,-1.3809547424316406,-0.14808818697929382,0.37073835730552673,0.2733266353607178,0.37073835730552673,0.0,7.414767146110535,0.0,-0.0027102327439934015,0.007858650758862495,0.0025742091238498688,-0.017991090193390846,-0.10627230256795883,-0.14808852970600128,-3.9963966173405283,3.996396780014038,0.10905839502811432,-0.10627120733261108,-3.9964089970583987,0.27109628915786743,15,0.3009546995162964,0.0,5.232229582929904e-08,0.0,False,True,False,False,False,False,0.27445876598358154,-0.0020284168422222137,-0.0014670391101390123,0.0,0.007808059453964233,0.37073835730552673,0.0,0.0,-0.02248886227607727,-0.2664264440536499,-0.3036320209503174,-0.26642727851867676,-0.30700328946113586,0.30700328946113586,0.27052977681159973,0.32696861028671265,0.08845474570989609,0.41967010498046875,True,0.5803298950195312
zero_steer,36,False,-3.2340567111968994,-0.018625229597091675,-3.9961946998731896,-1.9704344272613525,-0.10690197348594666,-1.3718931674957275,-0.14871610701084137,0.37070584297180176,0.2732659578323364,0.37070584297180176,0.0,7.414116859436035,0.0,-0.002744324505329132,0.007919775322079659,0.002587725408375263,-0.01862548105418682,-0.10690216720104218,-0.1487162709236145,-3.9961921385522507,3.996192216873169,0.10801041126251221,-0.10690136253833771,-3.9961946998731896,0.27109628915786743,15,0.29189324378967285,0.0,1.3215139915701002e-07,0.0,False,True,False,False,False,False,0.27442362904548645,-0.0005508996546268463,-0.0009263462270610034,2.5792689939407865e-07,0.0023140525445342064,0.37070584297180176,0.0,0.0,-0.023281851783394814,-0.26641279458999634,-0.3054324686527252,-0.26641297340393066,-0.3077079653739929,0.3077079653739929,0.2712715268135071,0.3873783349990845,0.10508470982313156,0.41902607679367065,True,0.5809739232063293
zero_steer,37,False,-3.225001335144043,-0.019263017922639847,-3.9953025064128567,-1.961377739906311,-0.10752008110284805,-1.3628358840942383,-0.14932489395141602,0.3707261085510254,0.27337080240249634,0.3707261085510254,0.0,7.414522171020508,0.0,-0.002868420211598277,0.008037448860704899,0.002584514208137989,-0.019263597205281258,-0.1075204610824585,-0.1493251919746399,-3.995293541789571,3.995293617248535,0.10770905762910843,-0.10751946270465851,-3.9953025064128567,0.27109628915786743,15,0.28283584117889404,0.0,8.983771948578578e-08,0.0,False,True,False,False,False,False,0.2739543616771698,-0.0015635360032320023,-0.003078488167375326,0.0,0.0004692173097282648,0.3707261085510254,0.0,0.0,-0.024079496040940285,-0.26635289192199707,-0.3071984648704529,-0.2663534879684448,-0.30836713314056396,0.30836713314056396,0.2719654142856598,0.44776099920272827,0.12177550792694092,0.4182620644569397,True,0.5817379355430603
zero_steer,38,False,-3.2159571647644043,-0.01989942044019699,-3.994274136055947,-1.9523320198059082,-0.10813381522893906,-1.3537893295288086,-0.14992788434028625,0.3707638382911682,0.2733508348464966,0.3707638382911682,0.0,7.415276765823364,0.0,-0.002971037058159709,0.008184446953237057,0.002606704831123352,-0.019899480044841766,-0.10813390463590622,-0.14992797374725342,-3.9942758436032393,3.9942758083343506,0.10816672444343567,-0.10813319683074951,-3.99427456294277,0.27109628915786743,15,0.27378928661346436,0.0,1.2933833204442635e-07,0.0,False,True,False,False,False,False,0.273624449968338,0.001503707841038704,-0.0013043623184785247,0.0,0.0010594504419714212,0.3707638382911682,0.0,0.0,-0.024874350056052208,-0.2662850618362427,-0.3089520037174225,-0.2662849724292755,-0.3090152442455292,0.3090152442455292,0.2726476192474365,0.5080713629722595,0.13852444291114807,0.41763389110565186,True,0.5823661088943481
zero_steer,39,False,-3.206918716430664,-0.020535632967948914,-3.993528791662769,-1.943292260169983,-0.10875357687473297,-1.344749093055725,-0.15053986012935638,0.3708189129829407,0.27340754866600037,0.3708189129829407,0.0,7.4163782596588135,0.0,-0.0030600992031395435,0.008418701589107513,0.002679301192983985,-0.02053619921207428,-0.10875394940376282,-0.15054012835025787,-3.9935194001526604,3.9935195446014404,0.10938196629285812,-0.10875295102596283,-3.993528364775946,0.27109628915786743,15,0.2647491693496704,0.0,1.6230846711096092e-07,0.0,False,True,False,False,False,False,0.2737388014793396,6.85323029756546e-05,-0.00031394645338878036,0.0,-5.10150748596061e-05,0.3708189129829407,0.0,0.0,-0.02567024901509285,-0.2662346363067627,-0.3107227385044098,-0.26623523235321045,-0.30968302488327026,0.30968302488327026,0.2733505368232727,0.5683388113975525,0.15535572171211243,0.41690945625305176,True,0.5830905437469482
zero_steer,40,False,-3.197882890701294,-0.02117200940847397,-3.9925221925338383,-1.9342548847198486,-0.1093677505850792,-1.3357110023498535,-0.15114352107048035,0.3707517981529236,0.27336227893829346,0.3707517981529236,0.0,7.415035963058472,0.0,-0.003169592237100005,0.008471112698316574,0.0026507601141929626,-0.021172722801566124,-0.1093682199716568,-0.1511438637971878,-3.992511093476437,3.992511034011841,0.11131788790225983,-0.10936712473630905,-3.9925221925338383,0.27109628915786743,15,0.25571107864379883,0.0,1.5344592441124405e-07,0.0,False,True,False,False,False,False,0.27341631054878235,0.000519217923283577,-0.0005517409299500287,8.725711353463339e-08,0.0011069218162447214,0.3707517981529236,0.0,0.0,-0.026465903967618942,-0.26616740226745605,-0.3124774992465973,-0.26616814732551575,-0.3103324770927429,0.3103324770927429,0.27403417229652405,0.6285927295684814,0.17225588858127594,0.4163052439689636,True,0.5836947560310364
zero_steer,41,False,-3.1888506412506104,-0.021806910634040833,-3.99148443066682,-1.9252212047576904,-0.1099797785282135,-1.3266764879226685,-0.15174470841884613,0.3706940710544586,0.27333611249923706,0.3706940710544586,0.0,7.413881421089172,0.0,-0.0032566136214882135,0.008553226478397846,0.002648306544870138,-0.021807149052619934,-0.10997997224330902,-0.15174487233161926,-3.9914827231195273,3.991482734680176,0.11394006758928299,-0.10997915267944336,-3.9914848575536426,0.27109628915786743,15,0.24667656421661377,0.0,1.527246666910287e-07,0.0,False,True,False,False,False,False,0.2731022536754608,-0.0010567884892225266,-0.003150302916765213,0.0,-0.003288422478362918,0.3706940710544586,0.0,0.0,-0.027258936315774918,-0.26609885692596436,-0.3142261505126953,-0.2660989761352539,-0.3109781742095947,0.3109781742095947,0.2747138738632202,0.688822865486145,0.18922919034957886,0.4156857132911682,True,0.5843142867088318
zero_steer,42,False,-3.179832935333252,-0.022439613938331604,-3.9907950084474715,-1.9162023067474365,-0.11059727519750595,-1.317657232284546,-0.15235500037670135,0.3706444501876831,0.27338385581970215,0.3706444501876831,0.0,7.412889003753662,0.0,-0.0036029950715601444,0.008620415814220905,0.0025087103713303804,-0.02244005911052227,-0.11059758067131042,-0.15235523879528046,-3.9907890320319477,3.9907891750335693,0.11720507591962814,-0.11059664189815521,-3.9907950084474715,0.27109628915786743,15,0.23765718936920166,0.0,9.477079743192007e-08,0.0,False,True,False,False,False,False,0.2728078067302704,-0.0027835797518491745,-0.0014883761759847403,0.0,0.00611332431435585,0.3706444501876831,0.0,0.0,-0.028050074353814125,-0.26605260372161865,-0.3159904181957245,-0.2660529911518097,-0.31164613366127014,0.31164613366127014,0.2754169702529907,0.7489520311355591,0.2062740921974182,0.4149700403213501,True,0.5850299596786499
zero_steer,43,False,-3.1708269119262695,-0.023071106523275375,-3.9898643951730572,-1.9071948528289795,-0.1112082451581955,-1.3086490631103516,-0.15295624732971191,0.3704577386379242,0.2730593681335449,0.3704577386379242,0.0,7.409154772758484,0.0,-0.0036953072994947433,0.008717149496078491,0.002510921098291874,-0.023071590811014175,-0.11120856553316116,-0.1529565006494522,-3.989857138097064,3.9898571968078613,0.12104801088571548,-0.11120761185884476,-3.9898643951730572,0.27109628915786743,15,0.22864913940429688,0.0,1.4572916029464977e-07,0.0,False,True,False,False,False,False,0.27267923951148987,-0.0049611590802669525,0.005106241907924414,0.0,-0.0004121979873161763,0.3704577386379242,0.0,0.0,-0.028839487582445145,-0.2659904658794403,-0.31773602962493896,-0.2659909427165985,-0.31229546666145325,0.31229546666145325,0.2761004865169525,0.8090056777000427,0.2233668565750122,0.4146451950073242,True,0.5853548049926758
zero_steer,44,False,-3.1618194580078125,-0.023706931620836258,-3.9888240719851,-1.8981857299804688,-0.11182111501693726,-1.299639105796814,-0.15355825424194336,0.37034356594085693,0.27298808097839355,0.37034356594085693,0.0,7.406871318817139,0.0,-0.0038126944564282894,0.008563237264752388,0.0023752714041620493,-0.023707235231995583,-0.11182133108377457,-0.15355843305587769,-3.9888202300036917,3.9888203144073486,0.12542663514614105,-0.11182047426700592,-3.9888240719851,0.27109628915786743,15,0.21963918209075928,0.0,1.0602585831520628e-07,0.0,False,True,False,False,False,False,0.27245092391967773,-0.002138633280992508,-0.0022475034929811954,0.0,0.0025278888642787933,0.37034356594085693,0.0,0.0,-0.02963404357433319,-0.26592135429382324,-0.319487065076828,-0.26592159271240234,-0.31294190883636475,0.31294190883636475,0.27678096294403076,0.8690720796585083,0.24054260551929474,0.4140700101852417,True,0.5859299898147583
zero_steer,45,False,-3.152819871902466,-0.02433805726468563,-3.987589942179443,-1.8891842365264893,-0.11242502182722092,-1.2906367778778076,-0.15414926409721375,0.37041258811950684,0.2731666564941406,0.37041258811950684,0.0,7.408251762390137,0.0,-0.003908907063305378,0.008478567004203796,0.002284829970449209,-0.02433883771300316,-0.11242549866437912,-0.15414959192276,-3.987576281801103,3.9875762462615967,0.1302732676267624,-0.11242438107728958,-3.987589942179443,0.27109628915786743,15,0.21063685417175293,0.0,9.152078916940809e-08,0.0,False,True,False,False,False,False,0.2724764347076416,-0.002433735877275467,-0.0006937221041880548,0.0,0.008228853344917297,0.37041258811950684,0.0,0.0,-0.030423548072576523,-0.2658384144306183,-0.3212125301361084,-0.2658393383026123,-0.31356894969940186,0.31356894969940186,0.27744099497795105,0.9290875792503357,0.257766991853714,0.4132643938064575,True,0.5867356061935425
zero_steer,46,False,-3.143825054168701,-0.024971066042780876,-3.9862025600042843,-1.8801873922348022,-0.11302743852138519,-1.2816388607025146,-0.154737189412117,0.3702763319015503,0.27297723293304443,0.3702763319015503,0.0,7.405526638031006,0.0,-0.003923565149307251,0.00872854609042406,0.002402490470558405,-0.024971788749098778,-0.11302788555622101,-0.15473750233650208,-3.9861897533995903,3.986189842224121,0.13554391264915466,-0.11302679032087326,-3.9862025600042843,0.27109628915786743,15,0.2016388177871704,0.0,2.7893356957520155e-08,0.0,False,True,False,False,False,False,0.2723804712295532,-0.0007061921060085297,-0.0007573439506813884,0.0,0.00042428099550306797,0.3702763319015503,0.0,0.0,-0.03121473640203476,-0.26574596762657166,-0.32293370366096497,-0.2657468318939209,-0.31418731808662415,0.31418731808662415,0.2780919075012207,0.9890744686126709,0.27505362033843994,0.4128354787826538,True,0.5871645212173462
zero_steer,47,False,-3.134826183319092,-0.02560548484325409,-3.9850307556748037,-1.8711867332458496,-0.11363601684570312,-1.2726373672485352,-0.1553335189819336,0.3703955411911011,0.27315181493759155,0.3703955411911011,0.0,7.4079108238220215,0.0,-0.004034623969346285,0.008585208095610142,0.0022752920631319284,-0.025606192648410797,-0.11363646388053894,-0.15533384680747986,-3.9850192297305793,3.9850192070007324,0.14120140671730042,-0.11363536864519119,-3.985030328787981,0.27109628915786743,15,0.19263732433319092,0.0,7.796469958520902e-08,0.0,False,True,False,False,False,False,0.2720697224140167,0.0007657613605260849,-0.0014882716350257397,0.0,0.0121680349111557,0.3703955411911011,0.0,0.0,-0.03200773894786835,-0.26566794514656067,-0.32467249035835266,-0.26566869020462036,-0.3148227334022522,0.3148227334022522,0.27876076102256775,1.0,0.27876076102256775,0.41202545166015625,True,0.5879745483398438
zero_steer,48,False,-3.1258349418640137,-0.026238270103931427,-3.983750948979073,-1.8621934652328491,-0.11424057185649872,-1.2636431455612183,-0.1559247076511383,0.370305597782135,0.27292555570602417,0.370305597782135,0.0,7.4061119556427,0.0,-0.004066077526658773,0.008682619780302048,0.002308271126821637,-0.026238998398184776,-0.11424104124307632,-0.15592505037784576,-3.983738996148025,3.983739137649536,0.14073620736598969,-0.11423991620540619,-3.983751375865896,0.41687700152397156,16,0.18364310264587402,0.0,7.921413924805165e-08,0.0,False,True,False,False,False,False,0.27234208583831787,-0.0010789502412080765,-0.00010436416050652042,0.0,0.009082972072064877,0.370305597782135,0.0,0.0,-0.03279874846339226,-0.2655825912952423,-0.3263997733592987,-0.26558342576026917,-0.3154485523700714,0.3154485523700714,0.27941951155662537,1.0,0.27941951155662537,0.41162586212158203,True,0.588374137878418
zero_steer,49,False,-3.1168460845947266,-0.026871655136346817,-3.982350333312397,-1.8532025814056396,-0.11484306305646896,-1.2546511888504028,-0.1565125733613968,0.37022143602371216,0.272940456867218,0.37022143602371216,0.0,7.404428720474243,0.0,-0.004084810148924589,0.008775846101343632,0.0023455179762095213,-0.026872418820858,-0.11484353989362717,-0.15651291608810425,-3.9823370998208802,3.982337236404419,0.13618940114974976,-0.11484240740537643,-3.9823507601992203,0.41687700152397156,16,0.17465126514434814,0.0,1.3014766864216654e-07,0.0,False,True,False,False,False,False,0.2721432149410248,-0.0008021462708711624,-8.121255086734891e-05,1.264221651808839e-07,-0.00019409846572671086,0.37022143602371216,0.0,0.0,-0.03359052538871765,-0.2654891312122345,-0.3281211853027344,-0.2654900550842285,-0.31606632471084595,0.31606632471084595,0.2800697982311249,1.0,0.2800697982311249,0.41099321842193604,True,0.589006781578064
zero_steer,50,False,-3.107848882675171,-0.02750375121831894,-3.981135840300604,-1.8442034721374512,-0.11544838547706604,-1.2456512451171875,-0.1571052074432373,0.3703654408454895,0.2731371521949768,0.3703654408454895,0.0,7.40730881690979,0.0,-0.004196931142359972,0.008634115569293499,0.0022185922134667635,-0.02750447578728199,-0.11544884741306305,-0.15710555016994476,-3.9811238874695567,3.981123924255371,0.13210003077983856,-0.11544772237539291,-3.981135413413781,0.41687700152397156,16,0.16565120220184326,0.0,9.041009008114997e-08,0.0,False,True,False,False,False,False,0.2723287045955658,-0.00215899758040905,-0.0011070119217038155,0.0,0.008557433262467384,0.3703654408454895,0.0,0.0,-0.03438059613108635,-0.2654082477092743,-0.3298506438732147,-0.26540902256965637,-0.31669604778289795,0.31669604778289795,0.2807326912879944,1.0,0.2807326912879944,0.41016680002212524,True,0.5898331999778748
zero_steer,51,False,-3.09885835647583,-0.02813311666250229,-3.9804062907198823,-1.8352117538452148,-0.11606165021657944,-1.236659049987793,-0.15771085023880005,0.3701043725013733,0.2728765606880188,0.3701043725013733,0.0,7.402087450027466,0.0,-0.004196702502667904,0.008620238862931728,0.0022117681801319122,-0.028133844956755638,-0.11606211960315704,-0.1577111929655075,-3.980394764775658,3.9803948402404785,0.12852489948272705,-0.11606098711490631,-3.980406717606705,0.41687700152397156,16,0.15665900707244873,0.0,8.716509825035246e-08,0.0,False,True,False,False,False,False,0.27194032073020935,-0.0016897544264793396,-0.0018803997663781047,0.0,-0.005961203947663307,0.3701043725013733,0.0,0.0,-0.035167306661605835,-0.26535964012145996,-0.3316028416156769,-0.26536044478416443,-0.31735745072364807,0.31735745072364807,0.28142890334129333,1.0,0.28142890334129333,0.40976595878601074,True,0.5902340412139893
zero_steer,52,False,-3.089876651763916,-0.028764771297574043,-3.9791111160985184,-1.826228141784668,-0.11666474491357803,-1.2276744842529297,-0.15830041468143463,0.3703748285770416,0.273104727268219,0.3703748285770416,0.0,7.4074965715408325,0.0,-0.004302807152271271,0.008556114509701729,0.002126653678715229,-0.028765114024281502,-0.11666498333215714,-0.15830062329769135,-3.979106420343464,3.9791064262390137,0.12548987567424774,-0.11666407436132431,-3.9791111160985184,0.41687700152397156,16,0.14767444133758545,0.0,1.1375508535138579e-07,0.0,False,True,False,False,False,False,0.27176737785339355,-0.0005998704582452774,-0.0016885438235476613,0.0,0.009955444373190403,0.3703748285770416,0.0,0.0,-0.03595639392733574,-0.2652737498283386,-0.33332592248916626,-0.2652740776538849,-0.31798094511032104,0.31798094511032104,0.28208521008491516,1.0,0.28208521008491516,0.40891432762145996,True,0.59108567237854
zero_steer,53,False,-3.080900192260742,-0.029395684599876404,-3.9778039886461074,-1.8172495365142822,-0.11726681888103485,-1.2186949253082275,-0.1588888317346573,0.3702109754085541,0.27280986309051514,0.3702109754085541,0.0,7.4042195081710815,0.0,-0.004410446155816317,0.008465678431093693,0.002027616137638688,-0.029395991936326027,-0.11726704984903336,-0.158889040350914,-3.9778001466646993,3.977800130844116,0.12304079532623291,-0.11726614832878113,-3.977803561759284,0.41687700152397156,16,0.13869500160217285,0.0,1.9728187794498808e-07,0.0,False,True,False,False,False,False,0.27173519134521484,-0.0017085429280996323,-0.0013174490304663777,0.0,-5.1194801926612854e-05,0.3702109754085541,0.0,0.0,-0.036744989454746246,-0.2651866674423218,-0.3350461423397064,-0.2651869058609009,-0.31860268115997314,0.31860268115997314,0.28273966908454895,1.0,0.28273966908454895,0.4085874557495117,True,0.5914125442504883
zero_steer,54,False,-3.0719237327575684,-0.030027424916625023,-3.9765053989301586,-1.8082711696624756,-0.11786992847919464,-1.2097156047821045,-0.15947838127613068,0.3702535629272461,0.27291619777679443,0.3702535629272461,0.0,7.405071258544922,0.0,-0.004503298085182905,0.0084154661744833,0.001956084044650197,-0.030027976259589195,-0.1178702861070633,-0.15947864949703217,-3.976497288080519,3.9764974117279053,0.12121295928955078,-0.11786925047636032,-3.976505825816982,0.41687700152397156,16,0.12971556186676025,0.0,8.900227044250641e-08,0.0,False,True,False,False,False,False,0.27174532413482666,-0.002683579921722412,-0.0014923264971002936,0.0,0.007120000664144754,0.3702535629272461,0.0,0.0,-0.03753497079014778,-0.26509982347488403,-0.3367692828178406,-0.2651003897190094,-0.31922587752342224,0.31922587752342224,0.2833956480026245,1.0,0.2833956480026245,0.40785789489746094,True,0.5921421051025391
zero_steer,55,False,-3.06295108795166,-0.03065798617899418,-3.974955372875389,-1.7992961406707764,-0.11846630275249481,-1.2007393836975098,-0.16005855798721313,0.37018877267837524,0.2727797031402588,0.37018877267837524,0.0,7.403775453567505,0.0,-0.004615561570972204,0.008374479599297047,0.0018794590141624212,-0.030658774077892303,-0.1184668019413948,-0.1600589156150818,-3.974942139383872,3.974942207336426,0.12002752721309662,-0.11846562474966049,-3.9749549459885656,0.41687700152397156,16,0.12073945999145508,0.0,1.2664047233101883e-07,0.0,False,True,False,False,False,False,0.271533340215683,-0.0003132205456495285,-0.0015254718018695712,0.0,0.0030004680156707764,0.37018877267837524,0.0,0.0,-0.03832346946001053,-0.26499614119529724,-0.33847323060035706,-0.2649970054626465,-0.3198297619819641,0.3198297619819641,0.28403133153915405,1.0,0.28403133153915405,0.4073905348777771,True,0.5926094651222229
zero_steer,56,False,-3.053976535797119,-0.03128183260560036,-3.974419629912366,-1.790320873260498,-0.11907833814620972,-1.1917637586593628,-0.16066499054431915,0.3702128529548645,0.27288246154785156,0.3702128529548645,0.0,7.40425705909729,0.0,-0.004843406844884157,0.00837283581495285,0.0017647144850343466,-0.03128230199217796,-0.1190786361694336,-0.16066521406173706,-3.9744119459495497,3.974411964416504,0.11952477693557739,-0.1190776601433754,-3.9744192030255427,0.41687700152397156,16,0.1117638349533081,0.0,1.1379794528920684e-07,0.0,False,True,False,False,False,False,0.2718904912471771,-0.006144212558865547,0.0062613943591713905,3.493296096834797e-09,-0.0003700799716170877,0.3702128529548645,0.0,0.0,-0.03910287842154503,-0.26496079564094543,-0.3402218818664551,-0.26496127247810364,-0.3204987645149231,0.3204987645149231,0.2847355306148529,1.0,0.2847355306148529,0.40661877393722534,True,0.5933812260627747
zero_steer,57,False,-3.0449953079223633,-0.03191346675157547,-3.972960530750922,-1.7813372611999512,-0.11967780441045761,-1.1827791929244995,-0.16124922037124634,0.3700704872608185,0.27272021770477295,0.3700704872608185,0.0,7.40140974521637,0.0,-0.004958244506269693,0.008271423168480396,0.0016565893311053514,-0.03191395103931427,-0.11967812478542328,-0.16124945878982544,-3.972953273674929,3.9729533195495605,0.11968527734279633,-0.1196771189570427,-3.972960957637745,0.41687700152397156,16,0.10277926921844482,0.0,1.1033031199758625e-07,0.0,False,True,False,False,False,False,0.2717318534851074,-0.002025756984949112,-0.0014742088969796896,0.0,0.002663776744157076,0.3700704872608185,0.0,0.0,-0.03989243879914284,-0.2648635506629944,-0.3419346213340759,-0.264864057302475,-0.32111048698425293,0.32111048698425293,0.28537946939468384,1.0,0.28537946939468384,0.4061692953109741,True,0.5938307046890259
zero_steer,58,False,-3.0360238552093506,-0.03254503011703491,-3.9714455094156484,-1.772363543510437,-0.12027594447135925,-1.1738042831420898,-0.16183152794837952,0.3700558543205261,0.2727588415145874,0.3700558543205261,0.0,7.4011170864105225,0.0,-0.005066302604973316,0.008242599666118622,0.0015881485305726528,-0.03254556655883789,-0.12027628719806671,-0.1618317812681198,-3.971436971679186,3.9714369773864746,0.12051811814308167,-0.12027525901794434,-3.9714455094156484,0.41687700152397156,16,0.0938042402267456,0.0,7.364052123648435e-08,0.0,False,True,False,False,False,False,0.27155694365501404,-0.001257607713341713,-0.000865336274728179,0.0,0.00788347702473402,0.3700558543205261,0.0,0.0,-0.04068195819854736,-0.2647624611854553,-0.3436436057090759,-0.2647630274295807,-0.3217179775238037,0.3217179775238037,0.28601890802383423,1.0,0.28601890802383423,0.4055231809616089,True,0.5944768190383911
zero_steer,59,False,-3.027053117752075,-0.03317275643348694,-3.9702608984814742,-1.7633910179138184,-0.12087753415107727,-1.1648309230804443,-0.16242074966430664,0.3700513243675232,0.27274420857429504,0.3700513243675232,0.0,7.401026487350464,0.0,-0.0050254445523023605,0.00823263917118311,0.0016035973094403744,-0.03317314758896828,-0.12087780982255936,-0.16242097318172455,-3.970255775839597,3.9702558517456055,0.12201326340436935,-0.12087684124708176,-3.9702608984814742,0.41687700152397156,16,0.08483099937438965,0.0,1.867939829480747e-07,0.0,False,True,False,False,False,False,0.271497517824173,-0.002479834482073784,-0.0019233499187976122,0.0,-0.0013962863013148308,0.3700513243675232,0.0,0.0,-0.04146643355488777,-0.26468372344970703,-0.34536242485046387,-0.2646840512752533,-0.32234492897987366,0.32234492897987366,0.28667888045310974,1.0,0.28667888045310974,0.4049108624458313,True,0.5950891375541687
zero_steer,60,False,-3.018092155456543,-0.03380434215068817,-3.968702334690242,-1.7544276714324951,-0.12147475779056549,-1.1558665037155151,-0.16300168633460999,0.3702240586280823,0.27290499210357666,0.3702240586280823,0.0,7.4044811725616455,0.0,-0.005170934367924929,0.008212992921471596,0.0015210292767733335,-0.03380453959107399,-0.12147493660449982,-0.16300185024738312,-3.9687014809165957,3.9687016010284424,0.1241372600197792,-0.12147406488656998,-3.9687027615770654,0.41687700152397156,16,0.07586658000946045,0.0,1.6546968595321232e-07,0.0,False,True,False,False,False,False,0.2711785137653351,-0.0013794545084238052,-0.001647305442020297,0.0,-0.006677722558379173,0.3702240586280823,0.0,0.0,-0.04225567355751991,-0.264580100774765,-0.34706875681877136,-0.2645801901817322,-0.32294946908950806,0.32294946908950806,0.2873152196407318,1.0,0.2873152196407318,0.4041455388069153,True,0.5958544611930847
zero_steer,61,False,-3.009126663208008,-0.0344308577477932,-3.9674963794149116,-1.7454602718353271,-0.1220746710896492,-1.1468981504440308,-0.1635890007019043,0.3702840805053711,0.27301913499832153,0.3702840805053711,0.0,7.405681610107422,0.0,-0.005315842572599649,0.008277159184217453,0.0014806583058089018,-0.03443118929862976,-0.1220749244093895,-0.1635892242193222,-3.9674929643203267,3.9674930572509766,0.1268669217824936,-0.12207397073507309,-3.9674963794149116,0.41687700152397156,16,0.06689810752868652,0.0,1.4548909632594587e-07,0.0,False,True,False,False,False,False,0.27134445309638977,-0.003033353015780449,-0.0009469413780607283,0.0,0.007271931506693363,0.3702840805053711,0.0,0.0,-0.0430389866232872,-0.2644995152950287,-0.3487827777862549,-0.2644997537136078,-0.32357344031333923,0.32357344031333923,0.28797203302383423,1.0,0.28797203302383423,0.4034074544906616,True,0.5965925455093384
zero_steer,62,False,-3.000166177749634,-0.03506103530526161,-3.965841339201653,-1.7364972829818726,-0.12266834825277328,-1.1379339694976807,-0.16416539251804352,0.36997517943382263,0.27263206243515015,0.36997517943382263,0.0,7.399503588676453,0.0,-0.005455097649246454,0.008235444314777851,0.0013901733327656984,-0.03506150469183922,-0.12266864627599716,-0.16416560113430023,-3.965833655238837,3.9658336639404297,0.13015379011631012,-0.12266764789819717,-3.965841339201653,0.41687700152397156,16,0.057933926582336426,0.0,6.044600553423152e-08,0.0,False,True,False,False,False,False,0.27131178975105286,-0.0014053508639335632,-0.001936205429956317,0.0,-0.0035180714912712574,0.36997517943382263,0.0,0.0,-0.0438268817961216,-0.26438891887664795,-0.35047900676727295,-0.26438942551612854,-0.3241692781448364,0.3241692781448364,0.28859925270080566,1.0,0.28859925270080566,0.4031986594200134,True,0.5968013405799866
zero_steer,63,False,-2.9912023544311523,-0.035690099000930786,-3.964068905112035,-1.7275307178497314,-0.1232583224773407,-1.128966212272644,-0.16473685204982758,0.3700163960456848,0.2727566361427307,0.3700163960456848,0.0,7.400327920913696,0.0,-0.005576846189796925,0.008201870135962963,0.0013125119730830193,-0.03569071367383003,-0.12325870245695114,-0.16473712027072906,-3.9640582329414564,3.9640581607818604,0.13396131992340088,-0.12325761467218399,-3.964068905112035,0.41687700152397156,16,0.048966169357299805,0.0,6.062075641466436e-08,0.0,False,True,False,False,False,False,0.2713608145713806,-0.0011732149869203568,-0.000976762967184186,0.0,0.009114540182054043,0.3700163960456848,0.0,0.0,-0.044613391160964966,-0.264270544052124,-0.352164626121521,-0.26427125930786133,-0.3247554898262024,0.3247554898262024,0.2892163097858429,1.0,0.2892163097858429,0.4024878740310669,True,0.5975121259689331
zero_steer,64,False,-2.9822423458099365,-0.036315735429525375,-3.962735737563413,-1.7185688018798828,-0.12385454773902893,-1.1200032234191895,-0.16531914472579956,0.36974647641181946,0.27245593070983887,0.36974647641181946,0.0,7.394929528236389,0.0,-0.005852899048477411,0.008221295662224293,0.0011841983068734407,-0.03631587326526642,-0.12385467439889908,-0.1653192639350891,-3.9627353106765897,3.962735414505005,0.13825243711471558,-0.12385383993387222,-3.962735737563413,0.41687700152397156,16,0.040003418922424316,0.0,2.1540408567943814e-07,0.0,False,True,False,False,False,False,0.2712186276912689,-0.004313033074140549,0.0044855643063783646,3.888922250894211e-08,-0.00046808263869024813,0.36974647641181946,0.0,0.0,-0.04539484158158302,-0.26418235898017883,-0.35386812686920166,-0.2641823887825012,-0.32536953687667847,0.32536953687667847,0.28986266255378723,1.0,0.28986266255378723,0.40217453241348267,True,0.5978254675865173
zero_steer,65,False,-2.9733495712280273,-0.03694198280572891,-3.9609667185683795,-1.7096731662750244,-0.12444177269935608,-1.1111063957214355,-0.16588789224624634,0.3697494864463806,0.27250421047210693,0.3697494864463806,0.0,7.394989728927612,0.0,-0.005966166500002146,0.008223825134336948,0.0011288293171674013,-0.037061452865600586,-0.12436654418706894,-0.16572044789791107,-3.9521391259529612,3.952139139175415,0.14293919503688812,-0.12444105744361877,-3.9609667185683795,0.41687700152397156,16,0.03391158580780029,0.0,0.0028509795665740967,0.0,False,True,False,False,False,False,0.26450803875923157,-0.001947019249200821,-0.0015352913178503513,0.0,-0.006087568588554859,0.3697494864463806,0.0,0.0,-0.04632681608200073,-0.2634759247303009,-0.35554587841033936,-0.2640644311904907,-0.3256456255912781,0.3256456255912781,0.29015329480171204,1.0,0.29015329480171204,0.401850163936615,True,0.598149836063385
zero_steer,66,False,-2.964653968811035,-0.037553220987319946,-3.9591443387204555,-1.700974941253662,-0.1250128298997879,-1.1024067401885986,-0.16643990576267242,0.36986711621284485,0.272727906703949,0.36986711621284485,0.0,7.397342324256897,0.0,-0.0060537634417414665,0.008294359780848026,0.0011202981695532799,-0.0378122478723526,-0.12461649626493454,-0.16573314368724823,-3.929430454509961,3.9294304847717285,0.14789578318595886,-0.1250121146440506,-3.9591439118336322,0.41687700152397156,16,0.0337979793548584,0.0,0.011548668146133423,0.0,False,True,False,False,False,False,0.2623678743839264,-0.0021689478307962418,-0.0017843467649072409,0.0,-0.0034501568879932165,0.36986711621284485,0.0,0.0,-0.04726530984044075,-0.26196202635765076,-0.3571774661540985,-0.2639429271221161,-0.3254009187221527,0.3254009187221527,0.2898957133293152,1.0,0.2898957133293152,0.4018712043762207,True,0.5981287956237793
zero_steer,67,False,-2.9560229778289795,-0.038160089403390884,-3.9573317772694634,-1.6923410892486572,-0.12557971477508545,-1.0937716960906982,-0.1669878512620926,0.36976855993270874,0.2726401686668396,0.36976855993270874,0.0,7.395371198654175,0.0,-0.006165868137031794,0.00838459748774767,0.0011093646753579378,-0.038240715861320496,-0.12475723028182983,-0.165737584233284,-3.9163856469688834,3.9163856506347656,0.1529664248228073,-0.12557899951934814,-3.9573317772694634,0.5626575350761414,17,0.03373098373413086,0.0,0.020181410014629364,0.0,False,True,False,False,False,False,0.2604733109474182,-0.001721685752272606,-0.0018054728861898184,0.0,-0.005283737555146217,0.36976855993270874,0.0,0.0,-0.04780089482665062,-0.2610923647880554,-0.358797162771225,-0.26382210850715637,-0.32538244128227234,0.32538244128227234,0.289876252412796,1.0,0.289876252412796,0.40197741985321045,True,0.5980225801467896
zero_steer,68,False,-2.9474451541900635,-0.038763172924518585,-3.955959763019937,-1.6837612390518188,-0.12615254521369934,-1.085190773010254,-0.1675463616847992,0.36977681517601013,0.2726532220840454,0.36977681517601013,0.0,7.395536303520203,0.0,-0.006332311779260635,0.008560338988900185,0.0011140136048197746,-0.03837902843952179,-0.1247989684343338,-0.16573360562324524,-3.9120066419372588,3.9120066165924072,0.14872051775455475,-0.12615182995796204,-3.955959763019937,0.5626575350761414,17,0.03371167182922363,0.0,0.028771672397851944,0.0,False,True,False,False,False,False,0.25887906551361084,0.00011781416833400726,0.00011009351146640256,0.0,-0.00573965348303318,0.36977681517601013,0.0,0.0,-0.04797378554940224,-0.26080045104026794,-0.36043381690979004,-0.26373064517974854,-0.3255790174007416,0.3255790174007416,0.2900831699371338,1.0,0.2900831699371338,0.4017677307128906,True,0.5982322692871094
zero_steer,69,False,-2.938917636871338,-0.03936135768890381,-3.9540771921299522,-1.6752307415008545,-0.1267091929912567,-1.0766589641571045,-0.1680833399295807,0.3697216808795929,0.27265381813049316,0.3697216808795929,0.0,7.394433617591858,0.0,-0.006443012971431017,0.00857714843004942,0.0010670677293092012,-0.03870687633752823,-0.12491104006767273,-0.16574345529079437,-3.902224530385331,3.902224540710449,0.14487089216709137,-0.12670846283435822,-3.954076765243129,0.5626575350761414,17,0.0336611270904541,0.0,0.0373024046421051,0.0,False,True,False,False,False,False,0.25765007734298706,-0.0008388888090848923,-0.0013257290702313185,0.0,-0.004562248941510916,0.3697216808795929,0.0,0.0,-0.04838359355926514,-0.260148286819458,-0.362024188041687,-0.26360511779785156,-0.32563531398773193,0.32563531398773193,0.2901424467563629,1.0,0.2901424467563629,0.4017108678817749,True,0.5982891321182251
zero_steer,70,False,-2.9304230213165283,-0.039953816682100296,-3.952674868915984,-1.666733980178833,-0.12727072834968567,-1.0681612491607666,-0.1686302125453949,0.3697279989719391,0.27254000306129456,0.3697279989719391,0.0,7.394559979438782,0.0,-0.006476611364632845,0.008675399236381054,0.0010993939358741045,-0.038965608924627304,-0.12499269098043442,-0.1657412201166153,-3.8941960699028044,3.894196033477783,0.14145289361476898,-0.12726999819278717,-3.952674868915984,0.5626575350761414,17,0.033623456954956055,0.0,0.04580804705619812,0.0,False,True,False,False,False,False,0.2568871080875397,-0.005231928080320358,0.005380041431635618,0.0,-0.0011005711276084185,0.3697279989719391,0.0,0.0,-0.048707012087106705,-0.2596130669116974,-0.3636285662651062,-0.26351165771484375,-0.3257378935813904,0.3257378935813904,0.29025042057037354,1.0,0.29025042057037354,0.4017220735549927,True,0.5982779264450073
zero_steer,71,False,-2.921952486038208,-0.040550198405981064,-3.9507393640599315,-1.6582605838775635,-0.12782442569732666,-1.059686303138733,-0.16916370391845703,0.369480162858963,0.2722507119178772,0.369480162858963,0.0,7.38960325717926,0.0,-0.0065758442506194115,0.008731082081794739,0.0010776189155876637,-0.03953423351049423,-0.12518168985843658,-0.1657504290342331,-3.8769852738548414,3.8769853115081787,0.13847661018371582,-0.12782369554042816,-3.9507393640599315,0.5626575350761414,17,0.033535003662109375,0.0,0.05427800863981247,0.0,False,False,False,False,False,False,0.25598716735839844,-0.0007925070822238922,-0.0015250088181346655,0.0,-0.005840756464749575,0.369480162858963,0.0,0.0,-0.04941779375076294,-0.2584656774997711,-0.36521056294441223,-0.26338261365890503,-0.32561200857162476,0.32561200857162476,0.29011788964271545,1.0,0.29011788964271545,0.40213727951049805,True,0.597862720489502
zero_steer,72,False,-2.9135067462921143,-0.04114216938614845,-3.9487872106177773,-1.6498117446899414,-0.12837333977222443,-1.0512361526489258,-0.16969221830368042,0.3695548176765442,0.27248477935791016,0.3695548176765442,0.0,7.391096353530884,0.0,-0.006663724314421415,0.00879933312535286,0.001067804405465722,-0.0402117520570755,-0.12540550529956818,-0.16575932502746582,-3.8564165860561714,3.856416702270508,0.1359698623418808,-0.12837260961532593,-3.9487872106177773,0.5626575350761414,17,0.03343164920806885,0.0,0.06272333115339279,0.0,False,False,False,False,False,False,0.2553347945213318,-0.0013355836272239685,-0.0013081232318654656,0.0,-0.005117534194141626,0.3695548176765442,0.0,0.0,-0.050264690071344376,-0.25709444284439087,-0.3667788803577423,-0.26325246691703796,-0.32540199160575867,0.32540199160575867,0.2898968458175659,1.0,0.2898968458175659,0.4021131992340088,True,0.5978868007659912
zero_steer,73,False,-2.9050846099853516,-0.04173387587070465,-3.9467556562265216,-1.6413865089416504,-0.12892022728919983,-1.0428094863891602,-0.17021788656711578,0.3694538474082947,0.27230995893478394,0.3694538474082947,0.0,7.3890769481658936,0.0,-0.006794347893446684,0.008822200819849968,0.001013926463201642,-0.040968120098114014,-0.1256559044122696,-0.16577006876468658,-3.833479103275976,3.833479166030884,0.13395671546459198,-0.12891948223114014,-3.9467556562265216,0.5626575350761414,17,0.033316612243652344,0.0,0.07114407420158386,0.0,False,False,False,False,False,False,0.25469300150871277,-0.0012675914913415909,-0.0007382481126114726,2.308431277242562e-07,-0.0052964226342737675,0.3694538474082947,0.0,0.0,-0.05121015012264252,-0.2555652856826782,-0.3683413863182068,-0.2631170451641083,-0.325133353471756,0.325133353471756,0.2896140515804291,1.0,0.2896140515804291,0.4025566577911377,True,0.5974433422088623
zero_steer,74,False,-2.896681547164917,-0.042322106659412384,-3.9450639037464743,-1.6329809427261353,-0.12947118282318115,-1.03440260887146,-0.17075115442276,0.36948293447494507,0.27225685119628906,0.36948293447494507,0.0,7.389658689498901,0.0,-0.006871960591524839,0.008958461694419384,0.0010432505514472723,-0.04161592200398445,-0.12586542963981628,-0.165771946310997,-3.8136088023199393,3.8136088848114014,0.13246025145053864,-0.12947043776512146,-3.9450643306332975,0.5626575350761414,17,0.033217787742614746,0.0,0.07955002784729004,0.0,False,False,False,False,False,False,0.25417405366897583,-0.006900466978549957,0.0070885284803807735,0.0,-0.0012286363635212183,0.36948293447494507,0.0,0.0,-0.05201990157365799,-0.25424057245254517,-0.36991554498672485,-0.26300427317619324,-0.3249417543411255,0.3249417543411255,0.28941237926483154,1.0,0.28941237926483154,0.40280139446258545,True,0.5971986055374146
zero_steer,75,False,-2.888291835784912,-0.042910344898700714,-3.943157000307571,-1.6245883703231812,-0.13001734018325806,-1.0260087251663208,-0.17127740383148193,0.36921051144599915,0.27187448740005493,0.36921051144599915,0.0,7.384210228919983,0.0,-0.006957661360502243,0.008908568881452084,0.0009754537604749203,-0.04230772703886032,-0.1260950267314911,-0.165782630443573,-3.7926567701541023,3.792656898498535,0.13148464262485504,-0.13001659512519836,-3.943157000307571,0.5626575350761414,17,0.03311276435852051,0.0,0.08793971687555313,0.0,False,False,False,False,False,False,0.2539012134075165,-0.0031864475458860397,0.00016876337758731097,0.0,-0.0038291974924504757,0.36921051144599915,0.0,0.0,-0.05288466066122055,-0.25284379720687866,-0.3714759945869446,-0.26287713646888733,-0.32472264766693115,0.32472264766693115,0.28918173909187317,1.0,0.28918173909187317,0.4034028649330139,True,0.5965971350669861
zero_steer,76,False,-2.879903793334961,-0.043497659265995026,-3.941269306775709,-1.6161975860595703,-0.13056302070617676,-1.0176165103912354,-0.17180335521697998,0.36933019757270813,0.2720528841018677,0.36933019757270813,0.0,7.386603951454163,0.0,-0.0070639364421367645,0.008907314389944077,0.000921688973903656,-0.04302282631397247,-0.1263318657875061,-0.16579295694828033,-3.7709773228416585,3.770977258682251,0.13104231655597687,-0.13056227564811707,-3.941269733662532,0.5626575350761414,17,0.03300487995147705,0.0,0.09632803499698639,0.0,False,False,False,False,False,False,0.25408151745796204,-0.003533029928803444,0.001027121557854116,1.7340627778139606e-07,-0.00014473730698227882,0.36933019757270813,0.0,0.0,-0.05377853289246559,-0.2513984739780426,-0.3730350732803345,-0.2627513110637665,-0.3244858384132385,0.3244858384132385,0.2889324724674225,1.0,0.2889324724674225,0.4034612774848938,True,0.5965387225151062
zero_steer,77,False,-2.871520757675171,-0.044081442058086395,-3.939712023644946,-1.6078120470046997,-0.1311124563217163,-1.0092298984527588,-0.17233651876449585,0.36918359994888306,0.2717972993850708,0.36918359994888306,0.0,7.383671998977661,0.0,-0.007119915448129177,0.009004367515444756,0.0009422260336577892,-0.04373602569103241,-0.1265644133090973,-0.16579781472682953,-3.749189019389318,3.7491891384124756,0.13114260137081146,-0.13111171126365662,-3.939711596758123,0.5626575350761414,17,0.03289163112640381,0.0,0.1047089472413063,0.0,False,False,False,False,False,False,0.2536689341068268,-0.0025696493685245514,-0.0013730487553402781,0.0,-0.007169585209339857,0.36918359994888306,0.0,0.0,-0.05467003211379051,-0.24994593858718872,-0.3746049106121063,-0.26264744997024536,-0.3242509961128235,0.3242509961128235,0.28868526220321655,1.0,0.28868526220321655,0.4039517045021057,True,0.5960482954978943
zero_steer,78,False,-2.863144636154175,-0.044668957591056824,-3.937515690939964,-1.5994327068328857,-0.13165153563022614,-1.0008488893508911,-0.17285265028476715,0.36933088302612305,0.27196550369262695,0.36933088302612305,0.0,7.386617660522461,0.0,-0.007229259703308344,0.009012999013066292,0.000891869654878974,-0.04429963603615761,-0.12674909830093384,-0.165803000330925,-3.7320123742872053,3.7320125102996826,0.13176919519901276,-0.13165077567100525,-3.937515690939964,0.5626575350761414,17,0.032804131507873535,0.0,0.1130831241607666,0.0,False,False,False,False,False,False,0.2532534897327423,-0.0005638841539621353,-0.0014726901426911354,0.0,-0.006297082640230656,0.36933088302612305,0.0,0.0,-0.055374544113874435,-0.2488008290529251,-0.3761450946331024,-0.2625010311603546,-0.3241110146045685,0.3241110146045685,0.2885379195213318,1.0,0.2885379195213318,0.40392351150512695,True,0.596076488494873
zero_steer,79,False,-2.8547754287719727,-0.04525137320160866,-3.936149653105961,-1.5910613536834717,-0.13220380246639252,-0.9924765825271606,-0.17339065670967102,0.3693181276321411,0.2719612121582031,0.3693181276321411,0.0,7.386362552642822,0.0,-0.007248887326568365,0.009008459746837616,0.0008797862101346254,-0.04481448233127594,-0.12691940367221832,-0.16581013798713684,-3.7163955736367944,3.716395616531372,0.13293656706809998,-0.13220304250717163,-3.936149653105961,0.5626575350761414,17,0.03272747993469238,0.0,0.12145797908306122,0.0,False,False,False,False,False,False,0.25328734517097473,-0.002143479883670807,-0.000556995568331331,0.0,-0.006065080873668194,0.3693181276321411,0.0,0.0,-0.056018102914094925,-0.24775969982147217,-0.37772297859191895,-0.2624099850654602,-0.32403111457824707,0.32403111457824707,0.2884538173675537,1.0,0.2884538173675537,0.4040076732635498,True,0.5959923267364502
zero_steer,80,False,-2.8464131355285645,-0.0458330363035202,-3.9346401812993883,-1.5826966762542725,-0.1327521800994873,-0.9841108322143555,-0.17392325401306152,0.3692355155944824,0.2718837261199951,0.3692355155944824,0.0,7.384710311889648,0.0,-0.007267419248819351,0.009032675065100193,0.0008826279081404209,-0.045220039784908295,-0.12705039978027344,-0.16581106185913086,-3.703950542082208,3.7039506435394287,0.13461270928382874,-0.13275142014026642,-3.9346401812993883,0.5626575350761414,17,0.03266429901123047,0.0,0.12982434034347534,0.0,False,False,False,False,False,False,0.2529229521751404,-0.002581421285867691,-0.0016165412962436676,0.0,-0.008758355863392353,0.3692355155944824,0.0,0.0,-0.05652505159378052,-0.24693003296852112,-0.37928977608680725,-0.26230934262275696,-0.3240196406841278,0.3240196406841278,0.2884417176246643,1.0,0.2884417176246643,0.4040966033935547,True,0.5959033966064453
zero_steer,81,False,-2.8380682468414307,-0.046418819576501846,-3.9325159924675144,-1.5743486881256104,-0.1332911103963852,-0.9757612943649292,-0.17443999648094177,0.3691950738430023,0.2718510627746582,0.3691950738430023,0.0,7.383901476860046,0.0,-0.007391628343611956,0.008994300849735737,0.0008013362530618906,-0.04558352380990982,-0.1271716207265854,-0.165817528963089,-3.69296930544412,3.69296932220459,0.13676996529102325,-0.1332903504371643,-3.9325159924675144,0.5626575350761414,17,0.03260958194732666,0.0,0.13817109167575836,0.0,False,False,False,False,False,False,0.25221899151802063,-0.00018728896975517273,-0.0015337660443037748,0.0,-0.004692735616117716,0.3691950738430023,0.0,0.0,-0.056979402899742126,-0.24619795382022858,-0.3808295726776123,-0.26216772198677063,-0.32403093576431274,0.32403093576431274,0.288453608751297,1.0,0.288453608751297,0.40411800146102905,True,0.595881998538971
zero_steer,82,False,-2.8297312259674072,-0.04700182005763054,-3.9304438838280618,-1.566008448600769,-0.13382841646671295,-0.9674196243286133,-0.17495565116405487,0.36912858486175537,0.2717960476875305,0.36912858486175537,0.0,7.382571697235107,0.0,-0.007472231052815914,0.009063861332833767,0.0007958151400089264,-0.04587960243225098,-0.1272727996110916,-0.16582639515399933,-3.6841348826395315,3.6841349601745605,0.1393929272890091,-0.13382765650749207,-3.930443456941239,0.5626575350761414,17,0.03256416320800781,0.0,0.14650923013687134,0.0,False,False,False,False,False,False,0.2522629499435425,-0.0019161440432071686,-0.0012020014692097902,0.0,-0.007406704127788544,0.36912858486175537,0.0,0.0,-0.05734950304031372,-0.24560898542404175,-0.38236474990844727,-0.2620295584201813,-0.32409533858299255,0.32409533858299255,0.288521409034729,1.0,0.288521409034729,0.4041086435317993,True,0.5958913564682007
zero_steer,83,False,-2.821403980255127,-0.04758309945464134,-3.928113081773795,-1.5576776266098022,-0.13435828685760498,-0.9590871334075928,-0.17546117305755615,0.3690067529678345,0.2716992497444153,0.3690067529678345,0.0,7.3801350593566895,0.0,-0.007545225787907839,0.008956247940659523,0.0007055110763758421,-0.04632696881890297,-0.12741531431674957,-0.1658245027065277,-3.670317409948596,3.6703174114227295,0.14244844019412994,-0.1343575119972229,-3.928113081773795,0.5626575350761414,17,0.03249549865722656,0.0,0.15483742952346802,0.0,False,False,False,False,False,False,0.251942902803421,-0.001132909208536148,-0.00048159947618842125,0.0,-0.0033449744805693626,0.3690067529678345,0.0,0.0,-0.05790871009230614,-0.24468782544136047,-0.383878618478775,-0.2618741989135742,-0.32402491569519043,0.32402491569519043,0.2884472906589508,1.0,0.2884472906589508,0.4042758345603943,True,0.5957241654396057
zero_steer,84,False,-2.813081741333008,-0.04816584661602974,-3.9259056500114116,-1.5493521690368652,-0.13489234447479248,-0.950760006904602,-0.17597216367721558,0.36896002292633057,0.2715318202972412,0.36896002292633057,0.0,7.379200458526611,0.0,-0.007629401981830597,0.009059371426701546,0.0007149847224354744,-0.04685511440038681,-0.1275920420885086,-0.16583475470542908,-3.6543894088041258,3.6543893814086914,0.14591993391513824,-0.1348915696144104,-3.9259052231245883,0.5626575350761414,17,0.0324169397354126,0.0,0.16315989196300507,0.0,False,False,False,False,False,False,0.25203102827072144,-0.002494005486369133,0.0016599273076280951,4.2681598699800816e-08,-4.0663602703716606e-05,0.36896002292633057,0.0,0.0,-0.05856889486312866,-0.2436259537935257,-0.385404497385025,-0.2617270052433014,-0.32391485571861267,0.32391485571861267,0.28833141922950745,1.0,0.28833141922950745,0.40455329418182373,True,0.5954467058181763
zero_steer,85,False,-2.804753303527832,-0.04874806851148605,-3.923779326745422,-1.541020393371582,-0.13542765378952026,-0.9424268007278442,-0.17648527026176453,0.36885979771614075,0.2713208794593811,0.36885979771614075,0.0,7.377195954322815,0.0,-0.007751037832349539,0.009047173894941807,0.000648068031296134,-0.04713302105665207,-0.1276857703924179,-0.16584128141403198,-3.6460424907515474,3.646042585372925,0.14977997541427612,-0.13542687892913818,-3.923779326745422,0.5626575350761414,17,0.03237569332122803,0.0,0.17149131000041962,0.0,False,False,False,False,False,False,0.25227126479148865,-0.0008742455393075943,0.0002968206536024809,2.4067961135187943e-07,0.00020409165881574154,0.36885979771614075,0.0,0.0,-0.058916278183460236,-0.24306949973106384,-0.38693395256996155,-0.2615852952003479,-0.3239876627922058,0.3239876627922058,0.2884080708026886,1.0,0.2884080708026886,0.4046914577484131,True,0.5953085422515869
zero_steer,86,False,-2.796421766281128,-0.049329325556755066,-3.921716609616078,-1.5326857566833496,-0.13596341013908386,-0.9340907335281372,-0.17699947953224182,0.3689011335372925,0.27143990993499756,0.3689011335372925,0.0,7.37802267074585,0.0,-0.007808880414813757,0.009142824448645115,0.000666972016915679,-0.04724422097206116,-0.12772223353385925,-0.16584235429763794,-3.6426559975836903,3.642656087875366,0.15399806201457977,-0.13596263527870178,-3.921716609616078,0.5626575350761414,17,0.03235900402069092,0.0,0.17982852458953857,0.0,False,False,False,False,False,False,0.2522401511669159,-0.0012246407568454742,-0.00023575894010718912,6.817052167207294e-07,-0.00037146895192563534,0.3689011335372925,0.0,0.0,-0.05905527621507645,-0.24284373223781586,-0.38846468925476074,-0.2614477574825287,-0.3241783082485199,0.3241783082485199,0.28860872983932495,1.0,0.28860872983932495,0.40438175201416016,True,0.5956182479858398
zero_steer,87,False,-2.7880868911743164,-0.049908239394426346,-3.919653892486734,-1.5243477821350098,-0.13649684190750122,-0.9257512092590332,-0.17751136422157288,0.3689367175102234,0.2714393734931946,0.3689367175102234,0.0,7.378734350204468,0.0,-0.00788089632987976,0.009105762466788292,0.0006124330684542656,-0.047349780797958374,-0.12775565683841705,-0.16584160923957825,-3.6393856176317234,3.63938570022583,0.1585439145565033,-0.13649606704711914,-3.919653892486734,0.5626575350761414,17,0.032344937324523926,0.0,0.18817156553268433,0.0,False,False,False,False,False,False,0.2525292634963989,-0.0035994425415992737,0.001171086449176073,7.290426395911709e-08,-0.00013857195153832436,0.3689367175102234,0.0,0.0,-0.05918722599744797,-0.24262569844722748,-0.3899887800216675,-0.26131024956703186,-0.3243694305419922,0.3243694305419922,0.2888099253177643,1.0,0.2888099253177643,0.40419119596481323,True,0.5958088040351868
zero_steer,88,False,-2.779747486114502,-0.05049274116754532,-3.917310283827774,-1.5160049200057983,-0.13702967762947083,-0.9174066781997681,-0.1780197024345398,0.36890557408332825,0.2713884115219116,0.36890557408332825,0.0,7.378111481666565,0.0,-0.00796488206833601,0.009189429692924023,0.0006122738122940063,-0.047678958624601364,-0.1278674602508545,-0.1658504158258438,-3.629532215980334,3.6295323371887207,0.16178371012210846,-0.13702888786792755,-3.9173107107145966,0.7084380388259888,18,0.03229367733001709,0.0,0.19651003181934357,0.0,False,False,False,False,False,False,0.25265729427337646,-0.0012787822633981705,-0.0003098399902228266,0.0,-0.005049007013440132,0.36890557408332825,0.0,0.0,-0.05959869921207428,-0.2419688105583191,-0.39151111245155334,-0.26115405559539795,-0.3244021534919739,0.3244021534919739,0.28884437680244446,1.0,0.28884437680244446,0.4042094349861145,True,0.5957905650138855
zero_steer,89,False,-2.771404981613159,-0.05107475817203522,-3.9150533331939075,-1.5076589584350586,-0.1375618875026703,-0.9090591669082642,-0.1785283386707306,0.36898481845855713,0.2715081572532654,0.36898481845855713,0.0,7.379696369171143,0.0,-0.008087538182735443,0.009152923710644245,0.000532692763954401,-0.04812397062778473,-0.12801066040992737,-0.1658506691455841,-3.6158543352805603,3.615854263305664,0.1579689085483551,-0.13756109774112701,-3.9150537600807307,0.7084380388259888,18,0.03222393989562988,0.0,0.20485170185565948,0.0,False,False,False,False,False,False,0.2526560127735138,-0.0008609332144260406,0.00019269206677563488,2.7875790920006693e-07,-0.0011253313859924674,0.36898481845855713,0.0,0.0,-0.06015496328473091,-0.24105694890022278,-0.3930317163467407,-0.2610035836696625,-0.3243388533592224,0.3243388533592224,0.28877773880958557,1.0,0.28877773880958557,0.4041529893875122,True,0.5958470106124878
zero_steer,90,False,-2.7630581855773926,-0.051654454320669174,-3.9129325594566184,-1.4993088245391846,-0.13809481263160706,-0.900707483291626,-0.1790391057729721,0.368847131729126,0.2713381052017212,0.368847131729126,0.0,7.3769426345825195,0.0,-0.008162520825862885,0.009120311588048935,0.0004788953810930252,-0.048607807606458664,-0.1281701922416687,-0.16585657000541687,-3.601155768186693,3.6011557579040527,0.15451174974441528,-0.13809402287006378,-3.9129321325697957,0.7084380388259888,18,0.032150864601135254,0.0,0.21319901943206787,0.0,False,False,False,False,False,False,0.25279390811920166,-0.0037638675421476364,0.0010344922775402665,0.0,-0.006659219972789288,0.368847131729126,0.0,0.0,-0.060759760439395905,-0.24007704854011536,-0.39455434679985046,-0.2608621418476105,-0.3242567777633667,0.3242567777633667,0.28869134187698364,1.0,0.28869134187698364,0.4044051170349121,True,0.5955948829650879
zero_steer,91,False,-2.7547125816345215,-0.052240367978811264,-3.9104997314516248,-1.490959644317627,-0.1386270821094513,-0.8923566341400146,-0.17954595386981964,0.36890292167663574,0.271328866481781,0.36890292167663574,0.0,7.378058433532715,0.0,-0.008268912322819233,0.009187865070998669,0.00045947637408971786,-0.04915088415145874,-0.12835060060024261,-0.1658651977777481,-3.5847189179490573,3.584718942642212,0.15143823623657227,-0.13862629234790802,-3.910500158338448,0.7084380388259888,18,0.03206479549407959,0.0,0.22153864800930023,0.0,False,False,False,False,False,False,0.25249025225639343,-0.0018249228596687317,-0.0014848810387775302,0.0,-0.00821161363273859,0.36890292167663574,0.0,0.0,-0.061438605189323425,-0.23898126184940338,-0.39607512950897217,-0.2607000172138214,-0.32412880659103394,0.32412880659103394,0.28855663537979126,1.0,0.28855663537979126,0.40454232692718506,True,0.5954576730728149
zero_steer,92,False,-2.7463736534118652,-0.05282017961144447,-3.908182589775698,-1.4826172590255737,-0.139155775308609,-0.8840124607086182,-0.18005043268203735,0.36887142062187195,0.2713659405708313,0.36887142062187195,0.0,7.377428412437439,0.0,-0.00835181400179863,0.008986408822238445,0.00031729741021990776,-0.049678362905979156,-0.12852174043655396,-0.16586755216121674,-3.56857000287362,3.568570137023926,0.1487712860107422,-0.13915498554706573,-3.908182162888875,0.7084380388259888,18,0.03198599815368652,0.0,0.22987797856330872,0.0,False,False,False,False,False,False,0.2524934411048889,-0.0034622829407453537,0.0011454570339992642,5.385633627952302e-08,-0.0002459883689880371,0.36887142062187195,0.0,0.0,-0.062097951769828796,-0.23790466785430908,-0.3975856900215149,-0.2605454623699188,-0.32400408387184143,0.32400408387184143,0.28842535614967346,1.0,0.28842535614967346,0.4046299457550049,True,0.5953700542449951
zero_steer,93,False,-2.738034963607788,-0.053402043879032135,-3.9059119787634917,-1.4742751121520996,-0.13968756794929504,-0.8756687641143799,-0.18055850267410278,0.3687497675418854,0.271139919757843,0.3687497675418854,0.0,7.3749953508377075,0.0,-0.008304092101752758,0.009146022610366344,0.0004209652543067932,-0.05024039000272751,-0.1287102848291397,-0.16587917506694794,-3.5516428731196243,3.551642894744873,0.14653633534908295,-0.13968676328659058,-3.9059119787634917,0.7084380388259888,18,0.03189826011657715,0.0,0.23821145296096802,0.0,False,False,False,False,False,False,0.25243279337882996,-0.00296921469271183,-0.0011034054914489388,0.0,-0.007475961931049824,0.3687497675418854,0.0,0.0,-0.06280048936605453,-0.2367761880159378,-0.399105042219162,-0.2603941261768341,-0.32386836409568787,0.32386836409568787,0.28828248381614685,1.0,0.28828248381614685,0.4049917459487915,True,0.5950082540512085
zero_steer,94,False,-2.7296998500823975,-0.05398150160908699,-3.9034607946251034,-1.465936303138733,-0.14021293818950653,-0.8673281669616699,-0.18105827271938324,0.3688519597053528,0.27125877141952515,0.3688519597053528,0.0,7.377039194107056,0.0,-0.0084577901288867,0.00901446770876646,0.00027833878993988037,-0.05084555596113205,-0.12890566885471344,-0.165880486369133,-3.533073296313652,3.5330734252929688,0.1447448879480362,-0.14021213352680206,-3.9034607946251034,0.7084380388259888,18,0.03180372714996338,0.0,0.24654147028923035,0.0,False,False,False,False,False,False,0.252052366733551,-0.0007055550813674927,-0.001133838202804327,0.0,-0.00272514671087265,0.3688519597053528,0.0,0.0,-0.06355694681406021,-0.23553821444511414,-0.40060609579086304,-0.2602307200431824,-0.3236805200576782,0.3236805200576782,0.2880847454071045,1.0,0.2880847454071045,0.40506070852279663,True,0.5949392914772034
zero_steer,95,False,-2.7213633060455322,-0.054561421275138855,-3.9011944524811284,-1.4575963020324707,-0.14074286818504333,-0.8589866161346436,-0.18156452476978302,0.36875778436660767,0.27113115787506104,0.36875778436660767,0.0,7.375155687332153,0.0,-0.00851642806082964,0.008912104181945324,0.00019783806055784225,-0.05142207443714142,-0.12909580767154694,-0.16588759422302246,-3.5155630391592663,3.5155630111694336,0.14342282712459564,-0.14074206352233887,-3.9011940255943056,0.7084380388259888,18,0.03172016143798828,0.0,0.25487953424453735,0.0,False,False,False,False,False,False,0.25258123874664307,-0.0035723280161619186,0.001042664865963161,0.0,-0.007421129383146763,0.36875778436660767,0.0,0.0,-0.06427758932113647,-0.2343708723783493,-0.4021202027797699,-0.26007959246635437,-0.3235272169113159,0.3235272169113159,0.2879233956336975,1.0,0.2879233956336975,0.40534162521362305,True,0.594658374786377
zero_steer,96,False,-2.713024139404297,-0.05514048784971237,-3.8993451787633475,-1.4492542743682861,-0.1412811577320099,-0.8506432771682739,-0.18208348751068115,0.36872246861457825,0.2711036801338196,0.36872246861457825,0.0,7.374449372291565,0.0,-0.008485047146677971,0.008947997353971004,0.0002314751036465168,-0.05198504775762558,-0.12927916646003723,-0.1658911556005478,-3.498360353960943,3.4983603954315186,0.14258712530136108,-0.14128035306930542,-3.8993447518765243,0.7084380388259888,18,0.03163158893585205,0.0,0.26321640610694885,0.0,False,False,False,False,False,False,0.25264865159988403,-0.0034623313695192337,0.0015335292555391788,1.792486301610552e-07,-0.0008821473456919193,0.36872246861457825,0.0,0.0,-0.06498131155967712,-0.233224019408226,-0.4036581516265869,-0.2599563002586365,-0.32339102029800415,0.32339102029800415,0.2877800166606903,1.0,0.2877800166606903,0.40550529956817627,True,0.5944947004318237
zero_steer,97,False,-2.7046804428100586,-0.055719729512929916,-3.8973072210697453,-1.4409077167510986,-0.1418154537677765,-0.8422951698303223,-0.18259648978710175,0.3686208724975586,0.2709618806838989,0.3686208724975586,0.0,7.372417449951172,0.0,-0.008433801122009754,0.00903587881475687,0.00030103884637355804,-0.05276329070329666,-0.12953698635101318,-0.16590245068073273,-3.4747763510871237,3.47477650642395,0.14223431050777435,-0.14181464910507202,-3.8973072210697453,0.7084380388259888,18,0.03151142597198486,0.0,0.2715532183647156,0.0,False,False,False,False,False,False,0.2524659335613251,-0.0027983058243989944,-0.0012041062582284212,0.0,-0.0077892327681183815,0.3686208724975586,0.0,0.0,-0.06595411151647568,-0.23165175318717957,-0.40518471598625183,-0.25982049107551575,-0.32309991121292114,0.32309991121292114,0.2874735891819,1.0,0.2874735891819,0.40593820810317993,True,0.5940617918968201
zero_steer,98,False,-2.6963396072387695,-0.056299593299627304,-3.8950417326994167,-1.4325634241104126,-0.1423453390598297,-0.8339493274688721,-0.18310271203517914,0.36870384216308594,0.27105802297592163,0.36870384216308594,0.0,7.374076843261719,0.0,-0.008585388772189617,0.008895150385797024,0.0001548808068037033,-0.05331366881728172,-0.129716694355011,-0.16590659320354462,-3.45797920837077,3.457979202270508,0.14236842095851898,-0.14234451949596405,-3.8950417326994167,0.7084380388259888,18,0.03143048286437988,0.0,0.27989476919174194,0.0,False,False,False,False,False,False,0.25279977917671204,-0.0031488556414842606,0.000857773469761014,8.778231119777047e-08,1.6015605069696903e-05,0.36870384216308594,0.0,0.0,-0.06664208322763443,-0.2305319458246231,-0.40669864416122437,-0.2596694529056549,-0.32296207547187805,0.32296207547187805,0.2873285114765167,1.0,0.2873285114765167,0.40597987174987793,True,0.5940201282501221
zero_steer,99,False,-2.6880011558532715,-0.056876979768276215,-3.8927890509337817,-1.4242215156555176,-0.14287301898002625,-0.8256058692932129,-0.18360686302185059,0.3684345483779907,0.27077704668045044,0.3684345483779907,0.0,7.3686909675598145,0.0,-0.008875850588083267,0.008991086855530739,5.761813372373581e-05,-0.054171524941921234,-0.12999595701694489,-0.16591180860996246,-3.4317617406850873,3.4317617416381836,0.14298982918262482,-0.14287219941616058,-3.892789477820605,0.7084380388259888,18,0.03129613399505615,0.0,0.28822335600852966,0.0,False,False,False,False,False,False,0.252515584230423,-0.001346321776509285,-9.093222615774721e-05,2.4847531676641665e-07,-0.003338159993290901,0.3684345483779907,0.0,0.0,-0.06771440804004669,-0.22878411412239075,-0.4082062840461731,-0.2595193088054657,-0.3225966691970825,0.3225966691970825,0.28694385290145874,1.0,0.28694385290145874,0.40662628412246704,True,0.593373715877533
zero_steer,100,False,-2.6796631813049316,-0.05745530501008034,-3.890363906891604,-1.4158799648284912,-0.14339786767959595,-0.8172625303268433,-0.18410636484622955,0.36842888593673706,0.27082040905952454,0.36842888593673706,0.0,7.368577718734741,0.0,-0.008853324688971043,0.00913612637668848,0.00014140084385871887,-0.05491439253091812,-0.13024188578128815,-0.1659223437309265,-3.409243033878379,3.409243106842041,0.1440913826227188,-0.14339704811573029,-3.890363906891604,0.7084380388259888,18,0.031183362007141113,0.0,0.29655471444129944,0.0,False,False,False,False,False,False,0.25228920578956604,-0.007040360942482948,0.0066907345317304134,0.0,-0.0014484731946140528,0.36842888593673706,0.0,0.0,-0.0686429888010025,-0.22728286683559418,-0.40970584750175476,-0.25935760140419006,-0.3223189115524292,0.3223189115524292,0.28665149211883545,1.0,0.28665149211883545,0.40686070919036865,True,0.5931392908096313
zero_steer,101,False,-2.6713266372680664,-0.05803390219807625,-3.8879212604896782,-1.4075398445129395,-0.1439225971698761,-0.8089206218719482,-0.18460556864738464,0.3681408762931824,0.270494282245636,0.3681408762931824,0.0,7.3628175258636475,0.0,-0.008941172622144222,0.008933761157095432,-3.705732524394989e-06,-0.05543997883796692,-0.1304149478673935,-0.16592837870121002,-3.3932687155136,3.3932688236236572,0.14566460251808167,-0.14392177760601044,-3.887920833602855,0.7084380388259888,18,0.031104683876037598,0.0,0.30488917231559753,0.0,False,False,False,False,False,False,0.25259238481521606,-0.0033213309943675995,0.001129946205765009,2.2297560064998834e-07,-0.0008743866346776485,0.3681408762931824,0.0,0.0,-0.06929997354745865,-0.22621791064739227,-0.41120508313179016,-0.2591947317123413,-0.32219618558883667,0.32219618558883667,0.2865222990512848,1.0,0.2865222990512848,0.40730953216552734,True,0.5926904678344727
zero_steer,102,False,-2.662994861602783,-0.05861501023173332,-3.8852549253924344,-1.3992040157318115,-0.14444489777088165,-0.8005828857421875,-0.1851000189781189,0.3681228756904602,0.27045297622680664,0.3681228756904602,0.0,7.362457513809204,0.0,-0.009015455842018127,0.009029430337250233,6.9872476160526276e-06,-0.05648847669363022,-0.1307644546031952,-0.1659468412399292,-3.361597341775662,3.3615972995758057,0.14769132435321808,-0.144444078207016,-3.8852549253924344,0.7084380388259888,18,0.030941247940063477,0.0,0.31320348381996155,0.0,False,False,False,False,False,False,0.2522013485431671,-0.0014210175722837448,1.723137938824948e-05,0.0,-0.006511092185974121,0.3681228756904602,0.0,0.0,-0.07061059772968292,-0.22410649061203003,-0.41269737482070923,-0.2590169906616211,-0.3216966390609741,0.3216966390609741,0.2859964668750763,1.0,0.2859964668750763,0.40785038471221924,True,0.5921496152877808
zero_steer,103,False,-2.6546688079833984,-0.05919512361288071,-3.8825877365215447,-1.390873908996582,-0.14496617019176483,-0.7922509908676147,-0.18559342622756958,0.368191659450531,0.2705153226852417,0.368191659450531,0.0,7.36383318901062,0.0,-0.009128325618803501,0.009043348953127861,-4.248833283782005e-05,-0.057914234697818756,-0.13123692572116852,-0.16596774756908417,-3.3184042926815596,3.31840443611145,0.15015341341495514,-0.14496533572673798,-3.8825877365215447,0.7084380388259888,18,0.030725836753845215,0.0,0.32151198387145996,0.0,False,False,False,False,False,False,0.2516428232192993,0.0011375192552804947,4.6752815251238644e-05,0.0,-0.004925709683448076,0.368191659450531,0.0,0.0,-0.0723927915096283,-0.22122694551944733,-0.4141866862773895,-0.2588391900062561,-0.32092005014419556,0.32092005014419556,0.2851789891719818,1.0,0.2851789891719818,0.40856462717056274,True,0.5914353728294373
zero_steer,104,False,-2.646345615386963,-0.059769272804260254,-3.8802808401293727,-1.382547378540039,-0.1454894244670868,-0.7839227914810181,-0.1860925853252411,0.3680175542831421,0.2704307734966278,0.3680175542831421,0.0,7.360351085662842,0.0,-0.0091643575578928,0.00898821372538805,-8.807191625237465e-05,-0.05916377156972885,-0.13164876401424408,-0.16598279774188995,-3.2804508524545026,3.2804508209228516,0.15303245186805725,-0.14548859000205994,-3.8802808401293727,0.7084380388259888,18,0.03053724765777588,0.0,0.3298225700855255,0.0,False,False,False,False,False,False,0.2523151636123657,-0.001298569142818451,0.0020548501051962376,0.0,-0.0063499026000499725,0.3680175542831421,0.0,0.0,-0.07395471632480621,-0.218696728348732,-0.4156816899776459,-0.2586853802204132,-0.32027363777160645,0.32027363777160645,0.28449857234954834,1.0,0.28449857234954834,0.40929555892944336,True,0.5907044410705566
zero_steer,105,False,-2.638026237487793,-0.0603470616042614,-3.877594441351442,-1.3742238283157349,-0.1460079699754715,-0.775597333908081,-0.18658305704593658,0.36799660325050354,0.27036136388778687,0.36799660325050354,0.0,7.359932065010071,0.0,-0.00935573223978281,0.008923161774873734,-0.00021628523245453835,-0.06023204326629639,-0.1320033073425293,-0.16599926352500916,-3.2481146024895464,3.248114585876465,0.15629880130290985,-0.14600713551044464,-3.877594441351442,0.7084380388259888,18,0.030372977256774902,0.0,0.3381263315677643,0.0,False,False,False,False,False,False,0.2517377734184265,-0.0008793305605649948,3.2382038625655696e-05,2.4421186139989004e-07,-0.0017652350943535566,0.36799660325050354,0.0,0.0,-0.07529005408287048,-0.21654097735881805,-0.41716325283050537,-0.25850629806518555,-0.3197545111179352,0.3197545111179352,0.28395211696624756,1.0,0.28395211696624756,0.40988409519195557,True,0.5901159048080444
zero_steer,106,False,-2.6297101974487305,-0.060920555144548416,-3.8752435756164885,-1.3659043312072754,-0.14652958512306213,-0.7672761678695679,-0.18708011507987976,0.36795473098754883,0.270211398601532,0.36795473098754883,0.0,7.359094619750977,0.0,-0.009289666078984737,0.009023593738675117,-0.00013303617015480995,-0.06148764491081238,-0.13241459429264069,-0.16601063311100006,-3.2098646893638287,3.209864616394043,0.15993493795394897,-0.14652875065803528,-3.8752435756164885,0.7084380388259888,18,0.030180811882019043,0.0,0.3464275598526001,0.0,False,False,False,False,False,False,0.2517569661140442,-0.006792781874537468,0.007024223916232586,0.0,-0.0003930279635824263,0.36795473098754883,0.0,0.0,-0.07685955613851547,-0.2139909714460373,-0.41865357756614685,-0.25834956765174866,-0.31909725069999695,0.31909725069999695,0.2832602560520172,1.0,0.2832602560520172,0.41069138050079346,True,0.5893086194992065
zero_steer,107,False,-2.6213865280151367,-0.061496227979660034,-3.8729405212057246,-1.3575772047042847,-0.14705447852611542,-0.7589473724365234,-0.18758094310760498,0.36763304471969604,0.2698158919811249,0.36763304471969604,0.0,7.352660894393921,0.0,-0.009314794093370438,0.009129258804023266,-9.276764467358589e-05,-0.06279630213975906,-0.13284479081630707,-0.16602472960948944,-3.170067524947692,3.170067548751831,0.16392098367214203,-0.14705364406108856,-3.8729405212057246,0.7084380388259888,18,0.029984116554260254,0.0,0.3547391891479492,0.0,False,False,False,False,False,False,0.2522679269313812,-0.0015272200107574463,0.0021490720100700855,0.0,-0.005765601526945829,0.36763304471969604,0.0,0.0,-0.07849537581205368,-0.2113378345966339,-0.42015329003334045,-0.25819602608680725,-0.318406879901886,0.318406879901886,0.28253355622291565,1.0,0.28253355622291565,0.4117772579193115,True,0.5882227420806885
zero_steer,108,False,-2.613067626953125,-0.06206980720162392,-3.8702024691221957,-1.3492542505264282,-0.14756765961647034,-0.7506225109100342,-0.1880655139684677,0.36770161986351013,0.2699132561683655,0.36770161986351013,0.0,7.354032397270203,0.0,-0.009365933015942574,0.009101171977818012,-0.00013238051906228065,-0.06409244239330292,-0.13327112793922424,-0.16603907942771912,-3.1306658711731807,3.1306660175323486,0.16821445524692535,-0.1475668102502823,-3.8702024691221957,0.7084380388259888,18,0.02978372573852539,0.0,0.36303773522377014,0.0,False,False,False,False,False,False,0.2516546845436096,-0.005728991702198982,0.005724200513213873,0.0,-0.0006358482642099261,0.36770161986351013,0.0,0.0,-0.08011555671691895,-0.20871105790138245,-0.4216194748878479,-0.2580134868621826,-0.3177122473716736,0.3177122473716736,0.28180235624313354,1.0,0.28180235624313354,0.41237449645996094,True,0.5876255035400391
