Su2050/forklift_sim/outputs/exp83_single_point_steer_diag/exp83_force_steering_guidance_v3_seed42_point_ypos0p1_yaw0_normal_steps.csv
mode,step,done,root_x,root_y,root_yaw_deg,fork_center_x,fork_center_y,tip_x,tip_y,raw_drive,raw_steer,applied_drive,applied_steer,drive_target_rad_s,steer_target_rad,left_steer_joint_pos_rad,right_steer_joint_pos_rad,mean_steer_joint_pos_rad,root_y_signed_m,center_y_signed_m,tip_y_signed_m,yaw_err_signed_deg,yaw_err_abs_deg,d_traj_m,d_traj_signed_m,yaw_traj_signed_deg,traj_s_norm,traj_closest_idx,dist_front_m,insert_depth_m,pallet_disp_xy_m,hold_counter,inserted,push_free,hold_entry,clean_insert_ready,dirty_insert,success,policy_vx_r,policy_vy_r,policy_yaw_rate,policy_lift_pos,policy_lift_vel,policy_prev_drive,policy_prev_steer,policy_prev_lift,policy_y_err_obs,policy_yaw_err_obs,policy_d_traj_signed_obs,policy_yaw_traj_err_obs,steer_target_cmd,steer_target_abs,steer_guidance_gate,steer_enforce_gate,steer_penalty_gate,steer_match,steer_wrong_sign,steer_shortfall
normal,0,False,-3.5,0.10000000149011612,0.0,-2.233297824859619,0.10000000149011612,-1.6332979202270508,0.10000000149011612,nan,nan,nan,nan,nan,nan,0.0,0.0,0.0,0.10000000149011612,0.10000000149011612,0.10000000149011612,0.0,0.0,0.0,0.0,6.537130939050068,0.0,0,0.5532978773117065,0.0,0.0,0.0,False,True,False,False,False,False,0.0,0.0,0.0,0.0,0.0,0.0,0.0,0.0,0.125,0.0,0.0,0.4358087182044983,0.16520217061042786,0.16520217061042786,0.12126544862985611,0.0,0.0,0.8347978591918945,False,0.16520217061042786
normal,1,False,-3.4997739791870117,0.09985917806625366,-0.013542354972354462,-2.233071804046631,0.09955978393554688,-1.6330718994140625,0.09941796958446503,0.31450122594833374,0.202472522854805,0.31450122594833374,0.202472522854805,6.290024518966675,0.12148351371288299,0.0266187135130167,0.02637665905058384,0.02649768628180027,0.09985917806625366,0.09955979138612747,0.09941797703504562,-0.013542158204209427,0.013542158529162407,0.0004948503919877112,-0.0004115957417525351,6.523587954586402,0.0,0,0.5530718564987183,0.0,6.125415552560298e-08,0.0,False,True,False,False,False,False,-0.0010017567547038198,0.0005612189997918904,-0.009599083103239536,0.0,3.279391603427939e-05,0.31450122594833374,0.202472522854805,0.0,0.12482397258281708,-0.000902810541447252,-0.0011759878834709525,0.43490585684776306,0.16408738493919373,0.16408738493919373,0.1200919896364212,0.0,0.0,0.9616148471832275,False,0.0
normal,2,False,-3.4991445541381836,0.09964819252490997,-0.0352248430196495,-2.232442855834961,0.0988694354891777,-1.632442831993103,0.0985005646944046,0.3438442349433899,0.23709772527217865,0.3438442349433899,0.23709772527217865,6.876884698867798,0.1422586351633072,0.054219964891672134,0.05377659946680069,0.05399828404188156,0.09964819252490997,0.0988694429397583,0.0985005721449852,-0.03522464625150447,0.03522464632987976,0.0014174454845488071,-0.0010258102556690574,6.501905519066197,0.0,0,0.5524426698684692,0.0,6.125415552560298e-08,0.0,False,True,False,False,False,False,-0.002018170664086938,0.0007540072547271848,-0.013060108758509159,0.0,1.5616335076629184e-05,0.3438442349433899,0.23709772527217865,0.0,0.12456023693084717,-0.002348309615626931,-0.0029308865778148174,0.4334603548049927,0.16233623027801514,0.16233623027801514,0.11824867129325867,0.0,0.0,0.9252384901046753,False,0.0
normal,3,False,-3.498753309249878,0.09959302097558975,-0.04164178573455665,-2.2320516109466553,0.09867240488529205,-1.632051706314087,0.0982363298535347,0.3476642966270447,0.241486057639122,0.3476642966270447,0.241486057639122,6.9532859325408936,0.1448916345834732,0.06063215434551239,0.06735415756702423,0.06399315595626831,0.09959302097558975,0.09867241233587265,0.0982363373041153,-0.04164158896641162,0.041641589254140854,0.001820868463255465,-0.0011770074488595128,6.49548855634097,0.0,0,0.5520516633987427,0.0,6.125415552560298e-08,0.0,False,True,False,False,False,False,0.02819102816283703,0.00033381656976416707,-0.0015485251788049936,2.0846541701757815e-06,-0.003960604779422283,0.3476642966270447,0.241486057639122,0.0,0.12449127435684204,-0.0027761058881878853,-0.0033628784585744143,0.4330325722694397,0.1618395447731018,0.1618395447731018,0.11772584170103073,0.0,0.0,0.9203534722328186,False,0.0
normal,4,False,-3.4971585273742676,0.09960846602916718,-0.04502700157699752,-2.230456829071045,0.09861300885677338,-1.6304570436477661,0.09814148396253586,0.347888708114624,0.2417735904455185,0.347888708114624,0.2417735904455185,6.9577741622924805,0.1450641542673111,0.06064522638916969,0.08441820740699768,0.07253171503543854,0.09960846602916718,0.09861301630735397,0.09814149141311646,-0.04502680480885249,0.04502680525183678,0.0031614878680557013,-0.0010544643737375736,6.492103770720405,0.0,0,0.5504568815231323,0.0,6.125415552560298e-08,0.0,False,True,False,False,False,False,0.06137656420469284,0.0028247518930584192,-0.0017724650679156184,4.1634666558820754e-06,-0.0018056227127090096,0.347888708114624,0.2417735904455185,0.0,0.12451058626174927,-0.0030017870012670755,-0.0030127554200589657,0.43280690908432007,0.1617181897163391,0.1617181897163391,0.11759810149669647,0.0,0.0,0.9199445843696594,False,0.0
normal,5,False,-3.494497060775757,0.09963305294513702,-0.05068038717262476,-2.2277956008911133,0.09851260483264923,-1.6277958154678345,0.09798187762498856,0.3480266332626343,0.24187412858009338,0.3480266332626343,0.24187412858009338,6.9605326652526855,0.145124477148056,0.060730211436748505,0.09849127382040024,0.07961074262857437,0.09963318705558777,0.0985126793384552,0.09798192977905273,-0.050682898467763936,0.05068289861083031,0.005699720699340105,-0.0008512563072144985,6.4864505085217505,0.0,0,0.5477957725524902,0.0,3.641417123390056e-08,0.0,False,True,False,False,False,False,0.09260719269514084,0.002845904091373086,-0.003391969483345747,2.719068788792356e-06,-0.0050723133608698845,0.3480266332626343,0.24187412858009338,0.0,0.12454148381948471,-0.003378859953954816,-0.002432161010801792,0.4324300289154053,0.16151396930217743,0.16151396930217743,0.11738312989473343,0.0,0.0,0.9196398258209229,False,0.0
normal,6,False,-3.490816354751587,0.09966830164194107,-0.058447829708183345,-2.2241148948669434,0.09837613254785538,-1.624115228652954,0.09776406735181808,0.3482125997543335,0.24205560982227325,0.3482125997543335,0.24205560982227325,6.96425199508667,0.14523336589336394,0.06084302440285683,0.11086808890104294,0.08585555851459503,0.09966859966516495,0.0983763337135315,0.09776422381401062,-0.05845205188566832,0.058452051132917404,0.005513997282832861,-0.0020536123774945736,22.435393866760393,0.012250503525137901,1,0.544115424156189,0.0,2.709583668547566e-07,0.0,False,True,False,False,False,False,0.12286237627267838,0.003949949983507395,-0.005372027400881052,9.000161185213074e-07,-0.0021785302087664604,0.3482125997543335,0.24205560982227325,0.0,0.12458574771881104,-0.0038968033622950315,-0.005867464002221823,1.0,0.30240964889526367,0.30240964889526367,0.26569435000419617,0.0,0.0,0.9396459460258484,False,0.06035403907299042
normal,7,False,-3.486215353012085,0.09971065074205399,-0.06808369917265733,-2.2195141315460205,0.09820544719696045,-1.6195145845413208,0.09749247878789902,0.3191049098968506,0.20498840510845184,0.3191049098968506,0.20498840510845184,6.382098197937012,0.1229930430650711,0.06099506467580795,0.1168246939778328,0.08890987932682037,0.09971080720424652,0.0982055738568306,0.09749259799718857,-0.06808492647227382,0.06808492541313171,0.0009195607854053378,-0.0004512638261076063,22.425756469841502,0.012250503525137901,1,0.5395147800445557,0.0,2.522081388178776e-07,0.0,False,True,False,False,False,False,0.1490648090839386,0.004513282794505358,-0.005185382440686226,2.65598851001414e-06,-0.0033029289916157722,0.3191049098968506,0.20498840510845184,0.0,0.12463851273059845,-0.004538995213806629,-0.001289325300604105,1.0,0.3029402196407318,0.3029402196407318,0.2662528455257416,0.0,0.0,0.9020481705665588,False,0.09795181453227997
normal,8,False,-3.480872392654419,0.09975925087928772,-0.07954178840249669,-2.2141714096069336,0.09800073504447937,-1.614172101020813,0.09716777503490448,0.3152579963207245,0.20049519836902618,0.3152579963207245,0.20049519836902618,6.30515992641449,0.12029711902141571,0.06115848943591118,0.12016810476779938,0.09066329896450043,0.09975945204496384,0.0980008915066719,0.09716790914535522,-0.07954388948607925,0.07954388856887817,0.0044410135596990585,0.001403487753123045,22.4143005350561,0.012250503525137901,1,0.5341722965240479,0.0,2.779334522529098e-07,0.0,False,True,False,False,False,False,0.16953592002391815,0.0051969909109175205,-0.006819523870944977,1.4582851690647658e-06,-0.003315782407298684,0.3152579963207245,0.20049519836902618,0.0,0.12469931691884995,-0.005302926059812307,0.0040099648758769035,1.0,0.3035411834716797,0.3035411834716797,0.2668854594230652,0.0,0.0,0.8969539999961853,False,0.1030459851026535
normal,9,False,-3.474928140640259,0.09981221705675125,-0.09227463505736239,-2.2082278728485107,0.09777219593524933,-1.6082285642623901,0.09680590033531189,0.31497591733932495,0.2001124918460846,0.31497591733932495,0.2001124918460846,6.299518346786499,0.12006749510765075,0.06134500727057457,0.12245554476976395,0.09190027415752411,0.09981231391429901,0.09777228534221649,0.09680598974227905,-0.09227504193386568,0.09227504581212997,0.004251653794199228,0.002573425183072686,39.76549795159764,0.02239859662950039,2,0.528228759765625,0.0,2.505702525468223e-07,0.0,False,True,False,False,False,False,0.18629172444343567,0.0072564235888421535,-0.006821982562541962,3.430719516472891e-06,-0.0017325840890407562,0.31497591733932495,0.2001124918460846,0.0,0.12476539611816406,-0.006151669193059206,0.007352643646299839,1.0,0.30369919538497925,0.30369919538497925,0.2670517861843109,0.0,0.0,0.8964133262634277,False,0.10358670353889465
normal,10,False,-3.46848726272583,0.09986640512943268,-0.10621762581451039,-2.2017874717712402,0.09751813113689423,-1.6017884016036987,0.09640582650899887,0.3150328993797302,0.2001335620880127,0.3150328993797302,0.2001335620880127,6.3006579875946045,0.12008013725280761,0.0616549588739872,0.12410470843315125,0.09287983179092407,0.09986656904220581,0.09751826524734497,0.09640594571828842,-0.1062189264852996,0.10621892660856247,0.006730333901941776,0.006505593191832304,39.75155753550164,0.02239859662950039,2,0.5217885971069336,0.0,2.8111364258620597e-07,0.0,False,True,False,False,False,False,0.20004136860370636,0.008911308832466602,-0.007156077306717634,3.212660658391542e-06,0.0001829589600674808,0.3150328993797302,0.2001335620880127,0.0,0.12483321130275726,-0.007081261835992336,0.01858741044998169,1.0,0.30538493394851685,0.30538493394851685,0.2688262462615967,0.0,0.0,0.8947486281394958,False,0.10525137186050415
normal,11,False,-3.461644411087036,0.09992475807666779,-0.12092535096475521,-2.1949453353881836,0.09725132584571838,-1.5949465036392212,0.09598500281572342,0.3151625096797943,0.20027582347393036,0.3151625096797943,0.20027582347393036,6.303250193595886,0.12016549408435821,0.06196226179599762,0.1251252144575119,0.09354373812675476,0.09992489963769913,0.09725144505500793,0.09598511457443237,-0.12092621807861467,0.12092621624469757,0.011412085965275764,0.009302452206611633,54.58536579002992,0.031632695347070694,3,0.514946699142456,0.0,2.5452956720073416e-07,0.0,False,True,False,False,False,False,0.210955411195755,0.008236530236899853,-0.007783918641507626,3.313132992843748e-06,0.0002115817042067647,0.3151625096797943,0.20027582347393036,0.0,0.12490612268447876,-0.008061747997999191,0.02657843567430973,1.0,0.3063918352127075,0.3063918352127075,0.2698861360549927,0.0,0.0,0.893884003162384,False,0.10611601173877716
normal,12,False,-3.454479932785034,0.09998207539319992,-0.1366069983916417,-2.187781572341919,0.09696195274591446,-1.5877832174301147,0.0955314114689827,0.31539392471313477,0.20040687918663025,0.31539392471313477,0.20040687918663025,6.307878494262695,0.12024412751197815,0.06220285966992378,0.12587273120880127,0.09403779357671738,0.09998225420713425,0.0969620943069458,0.09553153812885284,-0.13660875929978708,0.1366087645292282,0.015148838050663471,0.014981821179389954,54.56968367569557,0.031632695347070694,3,0.5077834129333496,0.0,2.780449221972958e-07,0.0,False,True,False,False,False,False,0.21998588740825653,0.009001340717077255,-0.008616642095148563,2.667255330379703e-06,0.0005041305557824671,0.31539392471313477,0.20040687918663025,0.0,0.12497781962156296,-0.009107250720262527,0.042805206030607224,1.0,0.30900394916534424,0.30900394916534424,0.27263572812080383,0.0,0.0,0.8914029598236084,False,0.10859706997871399
normal,13,False,-3.4470558166503906,0.10004037618637085,-0.152826002947351,-2.180358409881592,0.09666167944669724,-1.5803604125976562,0.095061294734478,0.31559044122695923,0.2004871666431427,0.31559044122695923,0.2004871666431427,6.311808824539185,0.12029229998588561,0.06252364814281464,0.1263541579246521,0.09443890303373337,0.10004051774740219,0.09666180610656738,0.09506140649318695,-0.15282691008185012,0.15282690525054932,0.02099480666220188,0.020866595208644867,54.553468806605956,0.031632695347070694,3,0.5003606081008911,0.0,2.552171451952745e-07,0.0,False,True,False,False,False,False,0.22716467082500458,0.009168003685772419,-0.00845594797283411,3.0413166314247064e-06,0.000251989986281842,0.31559044122695923,0.2004871666431427,0.0,0.1250506490468979,-0.010188460350036621,0.05961884558200836,1.0,0.31171122193336487,0.31171122193336487,0.27548548579216003,0.0,0.0,0.8887759447097778,False,0.11122405529022217
normal,14,False,-3.4394102096557617,0.1001000851392746,-0.16959397061738685,-2.1727137565612793,0.09635068476200104,-1.572716236114502,0.0945747047662735,0.3156496584415436,0.20072832703590393,0.3156496584415436,0.20072832703590393,6.312993168830872,0.12043699622154236,0.0627826526761055,0.12670187652111053,0.09474226832389832,0.10010024905204773,0.09635081142187119,0.09457481652498245,-0.16959575820595868,0.16959576308727264,0.02724280208349228,0.025766970589756966,64.7543119357904,0.04082300513982773,4,0.4927164316177368,0.0,2.7484847464620543e-07,0.0,False,True,False,False,False,False,0.23355743288993835,0.00960194505751133,-0.00959006417542696,2.53154485108098e-06,0.0006081010797061026,0.3156496584415436,0.20072832703590393,0.0,0.12512531876564026,-0.011306383647024632,0.07361991703510284,1.0,0.31383344531059265,0.31383344531059265,0.2777194082736969,0.0,0.0,0.8868948817253113,False,0.11310511827468872
normal,15,False,-3.431577444076538,0.1001582145690918,-0.18692865722554863,-2.164882183074951,0.09602557867765427,-1.5648852586746216,0.09406807273626328,0.31575775146484375,0.20085576176643372,0.31575775146484375,0.20085576176643372,6.315155029296875,0.12051345705986022,0.06311510503292084,0.12693335115909576,0.0950242280960083,0.10015829652547836,0.09602567553520203,0.09406817704439163,-0.18692805691595363,0.18692806363105774,0.03313930332660675,0.03272199258208275,64.7369769156769,0.04082300513982773,4,0.48488545417785645,0.0,2.65319272330089e-07,0.0,False,True,False,False,False,False,0.2387761026620865,0.009660839103162289,-0.009498811326920986,2.4720186502236174e-06,0.0005339510971680284,0.31575775146484375,0.20085576176643372,0.0,0.1251978725194931,-0.012461869977414608,0.09349141269922256,1.0,0.31710487604141235,0.31710487604141235,0.2811630368232727,0.0,0.0,0.8837509155273438,False,0.11624911427497864
normal,16,False,-3.4235920906066895,0.10021505504846573,-0.20466341682825864,-2.156898021697998,0.09569033980369568,-1.5569019317626953,0.09354711323976517,0.3159581422805786,0.20112209022045135,0.3159581422805786,0.20112209022045135,6.319162845611572,0.12067325413227081,0.06344945728778839,0.12708687782287598,0.09526816755533218,0.10021497309207916,0.0956903025507927,0.09354710578918457,-0.20466112231158434,0.20466113090515137,0.03984404355287552,0.0398109145462513,64.71923891440238,0.04082300513982773,4,0.4769021272659302,0.0,3.023760086762195e-07,0.0,False,True,False,False,False,False,0.24303248524665833,0.009816020727157593,-0.009336180984973907,2.7549256174097536e-06,0.0005358554772101343,0.3159581422805786,0.20112209022045135,0.0,0.12526871263980865,-0.013644075021147728,0.11374547332525253,1.0,0.3204350471496582,0.3204350471496582,0.2846684753894806,0.0,0.0,0.8806870579719543,False,0.11931295692920685
normal,17,False,-3.4154796600341797,0.10027238726615906,-0.22273074794661007,-2.148787260055542,0.09534824639558792,-1.548791766166687,0.09301581978797913,0.31610363721847534,0.20134659111499786,0.31610363721847534,0.20134659111499786,6.322072744369507,0.12080795466899871,0.06373271346092224,0.12720045447349548,0.09546658396720886,0.10027236491441727,0.09534827619791031,0.09301586449146271,-0.22272866687334736,0.2227286696434021,0.04706759378314018,0.047011591494083405,64.7011730640477,0.04082300513982773,4,0.4687919616699219,0.0,2.6036056510747585e-07,0.0,False,True,False,False,False,False,0.24647898972034454,0.010123560205101967,-0.010179952718317509,2.4787013899185695e-06,0.0006188279367052019,0.31610363721847534,0.20134659111499786,0.0,0.12534046173095703,-0.014848577789962292,0.13431884348392487,1.0,0.32381531596183777,0.32381531596183777,0.2882266342639923,0.0,0.0,0.8775312900543213,False,0.1224687248468399
normal,18,False,-3.407264471054077,0.1003265529870987,-0.24118289085558298,-2.140573740005493,0.09499447047710419,-1.5405789613723755,0.09246881306171417,0.31634998321533203,0.20158368349075317,0.31634998321533203,0.20158368349075317,6.326999664306641,0.1209502100944519,0.06407424807548523,0.12729044258594513,0.09568234533071518,0.10032664984464645,0.09499455988407135,0.09246889501810074,-0.24118345114453835,0.24118345975875854,0.05458254739642143,0.05348871275782585,70.36949241472792,0.05035323277115822,5,0.46057915687561035,0.0,2.7648056288853695e-07,0.0,False,True,False,False,False,False,0.24933873116970062,0.010147341527044773,-0.010095035657286644,2.4589553504483774e-06,0.0005476486403495073,0.31634998321533203,0.20158368349075317,0.0,0.12540830671787262,-0.016078896820545197,0.15282489359378815,1.0,0.32676392793655396,0.32676392793655396,0.2913304567337036,0.0,0.0,0.8748197555541992,False,0.12518024444580078
normal,19,False,-3.398963451385498,0.10037853568792343,-0.25990697401110024,-2.1322743892669678,0.09463249891996384,-1.5322805643081665,0.09191077202558517,0.31653887033462524,0.2017655074596405,0.31653887033462524,0.2017655074596405,6.330777406692505,0.1210593044757843,0.06441517174243927,0.1273529976606369,0.09588408470153809,0.10037863999605179,0.094632588326931,0.09191085398197174,-0.2599075876609085,0.259907603263855,0.06169088929891586,0.06119654327630997,70.35076403602375,0.05035323277115822,5,0.4522808790206909,0.0,3.0505341896969185e-07,0.0,False,True,False,False,False,False,0.2519069314002991,0.010225078091025352,-0.009973123669624329,2.440833668515552e-06,0.0007396430592052639,0.31653887033462524,0.2017655074596405,0.0,0.12547330558300018,-0.017327172681689262,0.17484727501869202,1.0,0.33040305972099304,0.33040305972099304,0.2951611280441284,0.0,0.0,0.8713624477386475,False,0.12863755226135254
normal,20,False,-3.3905892372131348,0.10043007135391235,-0.27892027298928523,-2.1239023208618164,0.09426369518041611,-1.523909330368042,0.09134285897016525,0.31672391295433044,0.20201145112514496,0.31672391295433044,0.20201145112514496,6.334478259086609,0.12120687067508697,0.06471913307905197,0.12740613520145416,0.09606263041496277,0.10042998939752579,0.09426366537809372,0.09134285897016525,-0.27891768498792,0.27891770005226135,0.06913146376609802,0.0689706951379776,70.3317556195636,0.05035323277115822,5,0.44390952587127686,0.0,1.9090890646111802e-07,0.0,False,True,False,False,False,False,0.2537817060947418,0.010195574723184109,-0.010663018561899662,2.2199737941264175e-06,0.0004873919242527336,0.31672391295433044,0.20201145112514496,0.0,0.12553748488426208,-0.018594512715935707,0.19705913960933685,1.0,0.33406761288642883,0.33406761288642883,0.299018532037735,0.0,0.0,0.8679438233375549,False,0.13205616176128387
normal,21,False,-3.382157325744629,0.10047857463359833,-0.2981858620799376,-2.1154723167419434,0.09388627856969833,-1.5154805183410645,0.09076369553804398,0.31699037551879883,0.2022714465856552,0.31699037551879883,0.2022714465856552,6.339807510375977,0.12136286795139312,0.06506723165512085,0.12747786939144135,0.0962725505232811,0.10047833621501923,0.09388617426156998,0.0907636508345604,-0.29817977894270803,0.2981797754764557,0.07681718468666077,0.07679663598537445,70.31248765591499,0.05035323277115822,5,0.4354807138442993,0.0,2.923307249602658e-07,0.0,False,True,False,False,False,False,0.2553613781929016,0.010270855389535427,-0.010487165302038193,2.3841589609219227e-06,0.00043628603452816606,0.31699037551879883,0.2022714465856552,0.0,0.12559792399406433,-0.019878651946783066,0.2194189578294754,1.0,0.3377493619918823,0.3377493619918823,0.30289405584335327,0.0,0.0,0.8645220994949341,False,0.1354779154062271
normal,22,False,-3.373677968978882,0.10052576661109924,-0.31759235050264784,-2.1069953441619873,0.09350443631410599,-1.5070046186447144,0.09017863124608994,0.31708866357803345,0.202406108379364,0.31708866357803345,0.202406108379364,6.341773271560669,0.1214436650276184,0.06541761755943298,0.12753404676914215,0.09647583216428757,0.10052548348903656,0.09350430220365524,0.09017856419086456,-0.3175857871177423,0.3175857961177826,0.08468962460756302,0.08466540277004242,70.29308308848299,0.05035323277115822,5,0.4270048141479492,0.0,2.865018586817314e-07,0.0,False,True,False,False,False,False,0.2568364143371582,0.010152965784072876,-0.010378259234130383,2.2040130716050044e-06,0.0005967828328721225,0.31708866357803345,0.202406108379364,0.0,0.125656858086586,-0.021172385662794113,0.24190115928649902,1.0,0.3414488434791565,0.3414488434791565,0.30678826570510864,0.0,0.0,0.8609572649002075,False,0.13904273509979248
normal,23,False,-3.365159749984741,0.10057106614112854,-0.33716033554663194,-2.098479747772217,0.0931171253323555,-1.4984899759292603,0.08958641439676285,0.3172485828399658,0.20252498984336853,0.3172485828399658,0.20252498984336853,6.344971656799316,0.12151499390602111,0.06573811918497086,0.12758931517601013,0.0966637134552002,0.10057113319635391,0.09311719983816147,0.08958648890256882,-0.3371600153815146,0.33716002106666565,0.09270588308572769,0.0925687924027443,70.2735145965109,0.05035323277115822,5,0.41849029064178467,0.0,3.083605122355948e-07,0.0,False,True,False,False,False,False,0.2578655779361725,0.00989548023790121,-0.0109481206163764,1.777072498043708e-06,0.0004989298176951706,0.3172485828399658,0.20252498984336853,0.0,0.12571391463279724,-0.02247733436524868,0.2644822597503662,1.0,0.3451600670814514,0.3451600670814514,0.3106948137283325,0.0,0.0,0.8573648929595947,False,0.14263507723808289
normal,24,False,-3.3566079139709473,0.1006130799651146,-0.3570049966128544,-2.089930534362793,0.09272041916847229,-1.4899420738220215,0.08898189663887024,0.3175163269042969,0.20283092558383942,0.3175163269042969,0.20283092558383942,6.3503265380859375,0.12169855535030365,0.06609400361776352,0.12767742574214935,0.09688571095466614,0.10061313211917877,0.09272047877311707,0.08898195624351501,-0.35700472980858994,0.35700473189353943,0.10058142989873886,0.10033134371042252,72.05567487550731,0.06022349372506142,6,0.40994226932525635,0.0,2.7732281182579754e-07,0.0,False,True,False,False,False,False,0.25871211290359497,0.009889128617942333,-0.010786800645291805,1.937672095664311e-06,0.0004356132703833282,0.3175163269042969,0.20283092558383942,0.0,0.12576641142368317,-0.023800315335392952,0.2866609990596771,1.0,0.34877732396125793,0.34877732396125793,0.31450244784355164,0.0,0.0,0.8540536165237427,False,0.14594639837741852
normal,25,False,-3.3480281829833984,0.10065332800149918,-0.37697654978725104,-2.0813536643981934,0.09231914579868317,-1.481366515159607,0.08837148547172546,0.31768667697906494,0.2030886858701706,0.31768667697906494,0.2030886858701706,6.353733539581299,0.12185321152210235,0.06645779311656952,0.12779712677001953,0.09712745994329453,0.10065319389104843,0.09231910109519958,0.08837148547172546,-0.3769724676820049,0.3769724667072296,0.10435181111097336,0.0,-0.37697654978725104,0.1304512321949005,13,0.4013667106628418,0.0,2.3392757952933607e-07,0.0,False,True,False,False,False,False,0.25968390703201294,0.010021624155342579,-0.010566797107458115,2.1325695342966355e-06,0.0004420877667143941,0.31768667697906494,0.2030886858701706,0.0,0.1258164942264557,-0.025131497532129288,0.0,-0.025131769478321075,0.03433737903833389,0.03433737903833389,0.0,0.0,0.0,0.8312487006187439,False,0.0
normal,26,False,-3.3394477367401123,0.10069172084331512,-0.3970381760813272,-2.0727760791778564,0.09191402792930603,-1.4727904796600342,0.08775628358125687,0.3662835955619812,0.2661091089248657,0.3662835955619812,0.2661091089248657,7.325671911239624,0.15966546535491943,0.06694728881120682,0.13545137643814087,0.10119932889938354,0.1006917729973793,0.0919140949845314,0.08775635808706284,-0.39703750907066604,0.3970375061035156,0.10827178508043289,0.0,-0.3970381760813272,0.1304512321949005,13,0.3927907943725586,0.0,3.398309047497605e-07,0.0,False,True,False,False,False,False,0.2585233151912689,0.010446100495755672,-0.010342308320105076,2.384671006439021e-06,6.537779700011015e-05,0.3662835955619812,0.2661091089248657,0.0,0.12586471438407898,-0.026469167321920395,0.0,-0.026469212025403976,0.033173248171806335,0.033173248171806335,0.0,0.0,0.0,0.7670641541481018,False,0.0
normal,27,False,-3.330869436264038,0.10072612017393112,-0.4172906741461935,-2.0642008781433105,0.09150068461894989,-1.4642168283462524,0.08713086694478989,0.3715519309043884,0.272449791431427,0.3715519309043884,0.272449791431427,7.4310386180877686,0.1634698748588562,0.06745505332946777,0.14303597807884216,0.10524551570415497,0.10072598606348038,0.09150063991546631,0.08713086694478989,-0.4172866187213738,0.41728663444519043,0.11270277202129364,0.0,-0.4172906741461935,0.1304512321949005,13,0.3842170238494873,0.0,2.32907368058477e-07,0.0,False,True,False,False,False,False,0.2582302987575531,0.011497145518660545,-0.010284674353897572,2.790812004604959e-06,0.0002241958281956613,0.3715519309043884,0.272449791431427,0.0,0.12590748071670532,-0.027819108217954636,0.0,-0.027819378301501274,0.03199566528201103,0.03199566528201103,0.0,0.0,0.0,0.7595458626747131,False,0.0
normal,28,False,-3.322293281555176,0.10075905174016953,-0.43755771304347246,-2.0556280612945557,0.09108556807041168,-1.4556455612182617,0.0865035206079483,0.37222230434417725,0.27332258224487305,0.37222230434417725,0.27332258224487305,7.444446086883545,0.1639935493469238,0.06797155737876892,0.1491985321044922,0.10858504474163055,0.1007591038942337,0.09108563512563705,0.08650359511375427,-0.4375570727132378,0.43755707144737244,0.11759159713983536,0.0,-0.43755771304347246,0.1304512321949005,13,0.37564587593078613,0.0,3.392298992821452e-07,0.0,False,True,False,False,False,False,0.2582922577857971,0.011203661561012268,-0.010547918267548084,2.639642161739175e-06,6.176577880978584e-05,0.37222230434417725,0.27332258224487305,0.0,0.12594887614250183,-0.02917047217488289,0.0,-0.029170513153076172,0.030816327780485153,0.030816327780485153,0.0,0.0,0.0,0.7574937343597412,False,0.0
normal,29,False,-3.313718795776367,0.10079097747802734,-0.45808734069782675,-2.0470571517944336,0.09066363424062729,-1.4470763206481934,0.08586660772562027,0.3724265694618225,0.2735477089881897,0.3724265694618225,0.2735477089881897,7.44853138923645,0.1641286253929138,0.06832239776849747,0.15411905944347382,0.11122073233127594,0.1007908433675766,0.09066358953714371,0.08586660027503967,-0.4580833386338599,0.4580833315849304,0.12287973612546921,0.0,-0.45808734069782675,0.1304512321949005,13,0.3670765161514282,0.0,2.3016173145151697e-07,0.0,False,True,False,False,False,False,0.25838321447372437,0.009527584537863731,-0.010493616573512554,1.7223757140527596e-06,0.0004183019045740366,0.3724265694618225,0.2735477089881897,0.0,0.12598855793476105,-0.03053888864815235,0.0,-0.03053915500640869,0.029620978981256485,0.029620978981256485,0.0,0.0,0.0,0.7560732364654541,False,0.0
normal,30,False,-3.3051395416259766,0.10081940144300461,-0.4787200615199659,-2.0384817123413086,0.09023591876029968,-1.4385026693344116,0.08522283285856247,0.3725227415561676,0.2736441493034363,0.3725227415561676,0.2736441493034363,7.450454831123352,0.16418648958206175,0.0688374787569046,0.15805916488170624,0.11344832181930542,0.10081934183835983,0.09023591130971909,0.08522284775972366,-0.4787177670032916,0.47871777415275574,0.12292961776256561,0.0902354046702385,-0.4787200615199659,0.2753758430480957,15,0.3585028648376465,0.0,2.503552423149813e-07,0.0,False,True,False,False,False,False,0.25849777460098267,0.01206264179199934,-0.009435879066586494,4.414737759361742e-06,-0.0004267253680154681,0.3725227415561676,0.2736441493034363,0.0,0.12602417171001434,-0.031914517283439636,0.2578154504299164,-0.03191467002034187,0.07998058944940567,0.07998058944940567,0.03155851736664772,0.0,0.0,0.8063364028930664,False,0.0
normal,31,False,-3.2965593338012695,0.10084529221057892,-0.4994777534595751,-2.029905319213867,0.08980291336774826,-1.429928183555603,0.08457246422767639,0.3735334277153015,0.2746219038963318,0.3735334277153015,0.2746219038963318,7.47066855430603,0.16477314233779908,0.06936138868331909,0.16128765046596527,0.11532451957464218,0.10084516555070877,0.08980287611484528,0.08457247167825699,-0.4994736980347554,0.4994736909866333,0.11694163829088211,0.08980239927768707,-0.4994777000987222,0.2753758430480957,15,0.3499283790588379,0.0,2.3184614406090986e-07,0.0,False,True,False,False,False,False,0.2586119771003723,0.0121596809476614,-0.010028802789747715,4.594383426592685e-06,-0.0001813386334106326,0.3735334277153015,0.2746219038963318,0.0,0.1260564625263214,-0.033298246562480927,0.2565782964229584,-0.033298514783382416,0.07852093130350113,0.07852093130350113,0.030022032558918,0.0004774332046508789,1.4333515537146013e-05,0.8038990497589111,False,0.0
normal,32,False,-3.2879762649536133,0.10086967796087265,-0.5204227953536836,-2.0213265419006348,0.08936426788568497,-1.4213511943817139,0.08391448855400085,0.37364858388900757,0.2748275399208069,0.37364858388900757,0.2748275399208069,7.472971677780151,0.16489652395248414,0.06971780210733414,0.16383519768714905,0.1167764961719513,0.1008695736527443,0.08936422318220139,0.08391447365283966,-0.5204201273110391,0.5204201340675354,0.1112886443734169,0.08936375379562378,-0.5204227953536836,0.2753758430480957,15,0.34135138988494873,0.0,3.0263763051152637e-07,0.0,False,True,False,False,False,False,0.2585262060165405,0.009917451068758965,-0.010753357782959938,1.970738821910345e-06,0.0004110787995159626,0.37364858388900757,0.2748275399208069,0.0,0.12608696520328522,-0.03469467535614967,0.2553250193595886,-0.034694854170084,0.07704606652259827,0.07704606652259827,0.028469543904066086,0.05765736103057861,0.0016414787387475371,0.8022185564041138,False,0.0
normal,33,False,-3.27939510345459,0.10088984668254852,-0.5415073758781015,-2.012749671936035,0.08891831338405609,-1.4127763509750366,0.08324774354696274,0.37369316816329956,0.27492237091064453,0.37369316816329956,0.27492237091064453,7.473863363265991,0.1649534225463867,0.07026512920856476,0.16582787036895752,0.11804649978876114,0.1008898988366127,0.08891837298870087,0.08324780315160751,-0.541507109073837,0.5415071249008179,0.1060258075594902,0.0889178067445755,-0.5415073758781015,0.2753758430480957,15,0.3327765464782715,0.0,2.765956992334395e-07,0.0,False,True,False,False,False,False,0.2584778666496277,0.009897434152662754,-0.011036362498998642,1.897299966913124e-06,0.0003406922332942486,0.37369316816329956,0.27492237091064453,0.0,0.12611237168312073,-0.03610047325491905,0.2540508806705475,-0.036100491881370544,0.0755564272403717,0.0755564272403717,0.026901502162218094,0.11482298374176025,0.0030889108311384916,0.8006340265274048,False,0.0
normal,34,False,-3.270815372467041,0.1009078323841095,-0.5627255186173048,-2.0041744709014893,0.08846722543239594,-1.4042032957077026,0.08257447183132172,0.3736756443977356,0.2750464081764221,0.3736756443977356,0.2750464081764221,7.473512887954712,0.16502784490585326,0.07081519067287445,0.16753889620304108,0.11917704343795776,0.10090788453817368,0.08846729248762131,0.08257454633712769,-0.5627248782870701,0.5627248883247375,0.1012154296040535,0.08846671879291534,-0.5627255186173048,0.2753758430480957,15,0.3242034912109375,0.0,2.5574266260264267e-07,0.0,False,True,False,False,False,False,0.2585628032684326,0.01085698138922453,-0.009991565719246864,4.276554591342574e-06,-0.002293455181643367,0.3736756443977356,0.2750464081764221,0.0,0.12613485753536224,-0.03751499205827713,0.2527620494365692,-0.03751503303647041,0.07405475527048111,0.07405475527048111,0.02532079443335533,0.17197668552398682,0.004354586359113455,0.7990083694458008,False,0.0
normal,35,False,-3.262234926223755,0.10092466324567795,-0.5841724726937034,-1.9955987930297852,0.08800993114709854,-1.3956298828125,0.08189259469509125,0.3736951947212219,0.27513641119003296,0.3736951947212219,0.27513641119003296,7.4739038944244385,0.16508184671401976,0.07119513303041458,0.16880524158477783,0.12000018358230591,0.10092468559741974,0.08800996094942093,0.08189263194799423,-0.5841718857243217,0.5841718912124634,0.0969226285815239,0.08800942450761795,-0.5841724726937034,0.2753758430480957,15,0.3156299591064453,0.0,1.5911719231098687e-07,0.0,False,True,False,False,False,False,0.25847822427749634,0.008989396505057812,-0.011143858544528484,1.0473761449247831e-06,0.0008022227557376027,0.3736951947212219,0.27513641119003296,0.0,0.12615585327148438,-0.0389447920024395,0.25145551562309265,-0.03894483298063278,0.07253533601760864,0.07253533601760864,0.02372140623629093,0.22913356125354767,0.005435370374470949,0.7973989248275757,False,0.0
normal,36,False,-3.253657579421997,0.10093830525875092,-0.6056617952872974,-1.987026333808899,0.08754850924015045,-1.3870598077774048,0.08120615035295486,0.3737730383872986,0.2751756012439728,0.3737730383872986,0.2751756012439728,7.475460767745972,0.16510536074638366,0.07174979150295258,0.1697828471660614,0.12076631933450699,0.10093814134597778,0.08754844218492508,0.08120612800121307,-0.6056574196973603,0.6056573987007141,0.09322240203619003,0.08754801005125046,-0.6056617952872974,0.2753758430480957,15,0.30706000328063965,0.0,2.2321775361433538e-07,0.0,False,True,False,False,False,False,0.2583678066730499,0.010766497813165188,-0.011185952462255955,2.379747911618324e-06,0.00014063064008951187,0.3737730383872986,0.2751756012439728,0.0,0.12617267668247223,-0.040377162396907806,0.25013718008995056,-0.040377452969551086,0.07100935280323029,0.07100935280323029,0.022115107625722885,0.28626659512519836,0.00633081654086709,0.7958337664604187,False,0.0
normal,37,False,-3.2450780868530273,0.10094863176345825,-0.6273346792148354,-1.9784519672393799,0.087079718708992,-1.3784879446029663,0.08051041513681412,0.3739466071128845,0.2753666043281555,0.3739466071128845,0.2753666043281555,7.47893214225769,0.1652199625968933,0.0723172202706337,0.17053192853927612,0.12142457067966461,0.10094866156578064,0.08707977086305618,0.08051047474145889,-0.627333932162895,0.62733393907547,0.09018239378929138,0.08707921952009201,-0.6273346792148354,0.2753758430480957,15,0.2984882593154907,0.0,3.0746736001674435e-07,0.0,False,True,False,False,False,False,0.25878408551216125,0.009889045730233192,-0.011539512313902378,1.5868806713115191e-06,0.0003754269564524293,0.3739466071128845,0.2753666043281555,0.0,0.1261858344078064,-0.04182226210832596,0.24879777431488037,-0.04182231053709984,0.06946633011102676,0.06946633011102676,0.020490873605012894,0.34341156482696533,0.00703680282458663,0.7940996885299683,False,0.0
normal,38,False,-3.2363712787628174,0.10101735591888428,-0.6556085140883676,-1.9697520732879639,0.0865233987569809,-1.3697913885116577,0.07965803146362305,0.37400397658348083,0.27546048164367676,0.37400397658348083,0.27546048164367676,7.480079531669617,0.16527628898620605,0.07660782337188721,0.17109519243240356,0.12385150790214539,0.10101740807294846,0.08652345836162567,0.07965809106826782,-0.6556081939232503,0.6556081771850586,0.08777196705341339,0.0865229070186615,-0.6556085140883676,0.2753758430480957,15,0.2897915840148926,0.0,2.765935107618134e-07,0.0,False,True,False,False,False,False,0.26012906432151794,0.01981871761381626,-0.02868633158504963,0.00010024010407505557,-0.006229822989553213,0.37400397658348083,0.27546048164367676,0.0,0.12627175450325012,-0.043707214295864105,0.24720831215381622,-0.0437072329223156,0.06751605868339539,0.06751605868339539,0.018437955528497696,0.40138939023017883,0.007400799542665482,0.792055606842041,False,0.0
normal,39,False,-3.2279436588287354,0.10109928250312805,-0.6925090379661847,-1.961333990097046,0.08578958362340927,-1.3613778352737427,0.07853782176971436,0.3746401369571686,0.2762681841850281,0.3746401369571686,0.2762681841850281,7.492802739143372,0.16576091051101685,0.08960193395614624,0.1712852269411087,0.13044357299804688,0.10109913349151611,0.08578953146934509,0.07853781431913376,-0.692504502293689,0.6925045251846313,0.08602307736873627,0.08578909188508987,-0.6925090379661847,0.2753758430480957,15,0.28137803077697754,0.0,2.3430560247561516e-07,0.0,False,True,False,False,False,False,0.2584711015224457,0.025495130568742752,-0.026523428037762642,6.223779678293795e-07,6.653536547673866e-05,0.3746401369571686,0.2762681841850281,0.0,0.12637391686439514,-0.04616696760058403,0.24511170387268066,-0.046167269349098206,0.0649619996547699,0.0649619996547699,0.015749473124742508,0.4574797451496124,0.007205064874142408,0.7886937856674194,False,0.0
normal,40,False,-3.219369888305664,0.10115780681371689,-0.7265121208928882,-1.9527697563171387,0.08509641140699387,-1.3528178930282593,0.07748860120773315,0.37475669384002686,0.2764602303504944,0.37475669384002686,0.2764602303504944,7.495133876800537,0.16587613821029662,0.09387759864330292,0.17144399881362915,0.13266080617904663,0.10115772485733032,0.08509638905525208,0.07748860865831375,-0.726509292767685,0.7265092730522156,0.085125632584095,0.08509592711925507,-0.7265121208928882,0.2753758430480957,15,0.27281808853149414,0.0,2.4998652747854067e-07,0.0,False,True,False,False,False,False,0.25779369473457336,0.012631503865122795,-0.015431718900799751,1.1685959862006712e-06,0.0006980301113799214,0.37475669384002686,0.2764602303504944,0.0,0.1264471560716629,-0.048433952033519745,0.24313122034072876,-0.048434142023324966,0.0625891461968422,0.0625891461968422,0.013251732103526592,0.5145460367202759,0.0068186260759830475,0.7861288785934448,False,0.0
normal,41,False,-3.210660219192505,0.1011485829949379,-0.7754435427460067,-1.944074273109436,0.08400550484657288,-1.344129204750061,0.07588532567024231,0.37464550137519836,0.276334285736084,0.37464550137519836,0.276334285736084,7.492910027503967,0.1658005714416504,0.10433556139469147,0.17227764427661896,0.1383066028356552,0.10114847123622894,0.08400547504425049,0.0758853331208229,-0.7754398608471572,0.7754398584365845,0.08471304178237915,0.08400502055883408,-0.7754435427460067,0.2753758430480957,15,0.2641294002532959,0.0,2.3121053516206302e-07,0.0,False,True,False,False,False,False,0.25999996066093445,0.030428454279899597,-0.02661323733627796,6.882035813760012e-05,0.0030054529197514057,0.37464550137519836,0.276334285736084,0.0,0.12643559277057648,-0.051695991307497025,0.24001434445381165,-0.05169623717665672,0.059068694710731506,0.059068694710731506,0.009545993991196156,0.5724706053733826,0.005464801099151373,0.7827343940734863,False,0.0
normal,42,False,-3.2025370597839355,0.101167231798172,-0.8147003218049195,-1.9359630346298218,0.08315634727478027,-1.3360236883163452,0.07462511211633682,0.37508726119995117,0.2769043743610382,0.37508726119995117,0.2769043743610382,7.501745223999023,0.1661426246166229,0.10897425562143326,0.17143020033836365,0.14020222425460815,0.10116727650165558,0.08315640687942505,0.0746251791715622,-0.8146997348355376,0.8146997690200806,0.08530762046575546,0.08315587043762207,-0.8147003751657723,0.2753758430480957,15,0.25602400302886963,0.0,3.3811372190939437e-07,0.0,False,True,False,False,False,False,0.26239213347435,0.028969231992959976,-0.002268605399876833,0.0,-0.0026490597520023584,0.37508726119995117,0.2769043743610382,0.0,0.12645909190177917,-0.05431331694126129,0.23758821189403534,-0.054313357919454575,0.05627378821372986,0.05627378821372986,0.006603986956179142,0.6265065670013428,0.004137441050261259,0.7793694138526917,False,0.0
normal,43,False,-3.1930980682373047,0.10112106055021286,-0.8842754034550196,-1.9265468120574951,0.08157217502593994,-1.3266183137893677,0.07231242954730988,0.3749803304672241,0.2767859101295471,0.3749803304672241,0.2767859101295471,7.499606609344482,0.16607154607772825,0.11930526047945023,0.1721469610929489,0.14572611451148987,0.10112094134092331,0.08157214522361755,0.07231243699789047,-0.8842713480301999,0.8842713832855225,0.08639220148324966,0.08157170563936234,-0.8842754034550196,0.2753758430480957,15,0.24661850929260254,0.0,2.3200786358756886e-07,0.0,False,True,False,False,False,False,0.25895556807518005,0.02608717605471611,-0.02918465994298458,0.0003176306781824678,-0.011159185320138931,0.3749803304672241,0.2767859101295471,0.0,0.1264011710882187,-0.058951422572135925,0.2330620288848877,-0.05895169451832771,0.05123068019747734,0.05123068019747734,0.0012954521225765347,0.6892098784446716,0.0008928384049795568,0.7744447588920593,False,0.0
normal,44,False,-3.1848671436309814,0.10110345482826233,-0.9301392165971561,-1.9183320999145508,0.0805407240986824,-1.318411111831665,0.07080075889825821,0.37571612000465393,0.27773231267929077,0.37571612000465393,0.27773231267929077,7.514322400093079,0.16663938760757446,0.12315083295106888,0.17210200428962708,0.14762641489505768,0.10110349953174591,0.08054078370332718,0.07080082595348358,-0.9301385762669214,0.9301385879516602,0.08849494904279709,0.0805402621626854,-0.9301392165971561,0.2753758430480957,15,0.23841142654418945,0.0,3.387174274394056e-07,0.0,False,True,False,False,False,False,0.2619965970516205,0.021348685026168823,-0.019282016903162003,8.967272151494399e-06,-0.00036732153967022896,0.37571612000465393,0.27773231267929077,0.0,0.1263793706893921,-0.062009237706661224,0.23011504113674164,-0.06200927868485451,0.04792071878910065,0.04792071878910065,0.0,0.7439237833023071,0.0,0.7701883912086487,False,0.0
normal,45,False,-3.1760425567626953,0.10119358450174332,-0.9704778869484283,-1.909522294998169,0.07973916828632355,-1.3096083402633667,0.06957682967185974,0.37563830614089966,0.27754682302474976,0.37563830614089966,0.27754682302474976,7.512766122817993,0.16652809381484984,0.1259792149066925,0.17265626788139343,0.14931774139404297,0.10119345784187317,0.07973913103342056,0.06957683712244034,-0.9704738315236086,0.9704738259315491,0.09179636090993881,0.07973871380090714,-0.9704778869484283,0.2753758430480957,15,0.22960853576660156,0.0,2.3132911053380667e-07,0.0,False,True,False,False,False,False,0.2625337541103363,0.024409882724285126,-0.027637550607323647,0.000141725831781514,-0.004169067833572626,0.37563830614089966,0.27754682302474976,0.0,0.12649181485176086,-0.06469825655221939,0.22782489657402039,-0.06469852477312088,0.04512939602136612,0.04512939602136612,0.0,0.8026096820831299,0.0,0.7675825357437134,False,0.0
normal,46,False,-3.167511463165283,0.10120386630296707,-1.0211862785636607,-1.901010513305664,0.0786285549402237,-1.3011058568954468,0.0679352805018425,0.37595781683921814,0.27796223759651184,0.37595781683921814,0.27796223759651184,7.519156336784363,0.1667773425579071,0.1323622465133667,0.17336218059062958,0.15286222100257874,0.10120391845703125,0.07862861454486847,0.06793534755706787,-1.0211856382334261,1.0211856365203857,0.09537993371486664,0.07862810790538788,-1.0211862785636607,0.2753758430480957,15,0.2211061716079712,0.0,3.3833018164841633e-07,0.0,False,True,False,False,False,False,0.2655686140060425,0.021928338333964348,0.01843268610537052,0.00012419046834111214,-0.10251405835151672,0.37595781683921814,0.27796223759651184,0.0,0.12650489807128906,-0.06807903945446014,0.2246517390012741,-0.06807908415794373,0.041503600776195526,0.041503600776195526,0.0,0.8592921495437622,0.0,0.7635413408279419,False,0.0
normal,47,False,-3.158766269683838,0.10125803202390671,-1.0655783460222181,-1.8922832012176514,0.07770144939422607,-1.2923870086669922,0.06654338538646698,0.37687164545059204,0.2791600525379181,0.37687164545059204,0.2791600525379181,7.537432909011841,0.16749603152275086,0.13478025794029236,0.17352990806102753,0.15415507555007935,0.10125793516635895,0.07770142704248428,0.06654340028762817,-1.0655748242059273,1.0655748844146729,0.09985455870628357,0.07770100235939026,-1.0655783460222181,0.2753758430480957,15,0.21238720417022705,0.0,2.295775942684486e-07,0.0,False,True,False,False,False,False,0.26441746950149536,0.015493757091462612,-0.02221914939582348,1.8294745132152457e-06,-0.00033945817267522216,0.37687164545059204,0.2791600525379181,0.0,0.1265724152326584,-0.07103832066059113,0.22200286388397217,-0.07103855907917023,0.038380738347768784,0.038380738347768784,0.0,0.9174185991287231,0.0,0.7592207193374634,False,0.0
normal,48,False,-3.149980068206787,0.10131661593914032,-1.1125741029367255,-1.883516788482666,0.07672123610973358,-1.2836298942565918,0.06507112085819244,0.37635624408721924,0.2783966064453125,0.37635624408721924,0.2783966064453125,7.527124881744385,0.1670379638671875,0.13746611773967743,0.1742142289876938,0.1558401733636856,0.10131669044494629,0.07672131061553955,0.06507119536399841,-1.1125742096584315,1.1125742197036743,0.10486191511154175,0.07672079652547836,-1.1125742096584315,0.2753758430480957,15,0.20363008975982666,0.0,3.0691424512951926e-07,0.0,False,True,False,False,False,False,0.26502087712287903,0.022509904578328133,-0.023158647119998932,2.5484889647486852e-06,-0.0019373191753402352,0.37635624408721924,0.2783966064453125,0.0,0.12664586305618286,-0.07417161017656326,0.21920228004455566,-0.07417161017656326,0.035076066851615906,0.035076066851615906,0.0,0.9757993221282959,0.0,0.7566794753074646,False,0.0
normal,49,False,-3.141187906265259,0.10135813802480698,-1.1585363668524455,-1.8747447729110718,0.07574682682752609,-1.2748674154281616,0.06361548602581024,0.3766052722930908,0.2787710726261139,0.3766052722930908,0.2787710726261139,7.532105445861816,0.16726264357566833,0.14030732214450836,0.17439649999141693,0.15735191106796265,0.10135804861783981,0.0757467970252037,0.06361548602581024,-1.158533698809801,1.1585336923599243,0.11035627871751785,0.07574639469385147,-1.1585363668524455,0.2753758430480957,15,0.19486761093139648,0.0,2.7440214012131037e-07,0.0,False,True,False,False,False,False,0.26558414101600647,0.021429572254419327,-0.023480739444494247,1.7423374174541095e-06,0.0009097441798076034,0.3766052722930908,0.2787710726261139,0.0,0.12669755518436432,-0.07723557949066162,0.2164182811975479,-0.07723575830459595,0.03182628005743027,0.03182628005743027,0.0,1.0,0.0,0.753055214881897,False,0.0
normal,50,False,-3.1323888301849365,0.10140825808048248,-1.204424565904353,-1.8659666776657104,0.07478265464305878,-1.266099214553833,0.06217087805271149,0.37669703364372253,0.27897584438323975,0.37669703364372253,0.27897584438323975,7.533940672874451,0.16738550662994384,0.14225414395332336,0.174620121717453,0.15843713283538818,0.10140828788280487,0.07478269189596176,0.06217091530561447,-1.2044241390175299,1.2044241428375244,0.1139417439699173,0.07478222995996475,-1.204424565904353,0.4203006625175476,16,0.18609952926635742,0.0,3.315646210921841e-07,0.0,False,True,False,False,False,False,0.2654520273208618,0.022835873067378998,-0.024279801174998283,3.3892163742166304e-08,-0.0003774084325414151,0.37669703364372253,0.27897584438323975,0.0,0.1267603635787964,-0.08029494434595108,0.2136635184288025,-0.08029496669769287,0.028591502457857132,0.028591502457857132,0.0,1.0,0.0,0.7496156692504883,False,0.0
normal,51,False,-3.1232686042785645,0.1013314351439476,-1.2592001217269164,-1.85687255859375,0.07349512726068497,-1.2570173740386963,0.06030987575650215,0.37690842151641846,0.2792380452156067,0.37690842151641846,0.2792380452156067,7.538168430328369,0.167542827129364,0.14522422850131989,0.175272598862648,0.16024841368198395,0.10133148729801178,0.07349518686532974,0.060309942811727524,-1.259199908283505,1.2591999769210815,0.10635284334421158,0.07349471002817154,-1.2592001217269164,0.4203006625175476,16,0.17701756954193115,0.0,2.1997713872679014e-07,0.0,False,True,False,False,False,False,0.26755931973457336,0.0415474958717823,-0.03960205987095833,0.0003613944863900542,-0.003909699153155088,0.37690842151641846,0.2792380452156067,0.0,0.12666435539722443,-0.08394666016101837,0.2099848836660385,-0.08394667506217957,0.024575352668762207,0.024575352668762207,0.0,1.0,0.0,0.7453373074531555,False,0.0
normal,52,False,-3.114649534225464,0.10137106478214264,-1.305518515974829,-1.8482763767242432,0.07251100242137909,-1.2484320402145386,0.05884082242846489,0.37762442231178284,0.2801439166069031,0.37762442231178284,0.2801439166069031,7.552488446235657,0.16808634996414185,0.14717964828014374,0.17661938071250916,0.16189950704574585,0.10137113183736801,0.07251106947660446,0.05884088948369026,-1.305518622696535,1.305518627166748,0.09959675371646881,0.07251058518886566,-1.305518622696535,0.4203006625175476,16,0.168432354927063,0.0,3.0556623187294463e-07,0.0,False,True,False,False,False,False,0.2668176591396332,0.024357374757528305,-0.025561627000570297,3.2105283025885e-05,-0.002338388003408909,0.37762442231178284,0.2801439166069031,0.0,0.12671391665935516,-0.08703457564115524,0.20717310905456543,-0.08703457564115524,0.02129790000617504,0.02129790000617504,0.0,1.0,0.0,0.7411539554595947,False,0.0
normal,53,False,-3.105834722518921,0.10132618993520737,-1.3577876058154095,-1.8394882678985596,0.0713108628988266,-1.2396568059921265,0.05709347873926163,0.37745019793510437,0.2799491286277771,0.37745019793510437,0.2799491286277771,7.549003958702087,0.16796947717666624,0.14936454594135284,0.1769331693649292,0.16314885020256042,0.10132642090320587,0.07131103426218033,0.05709362030029297,-1.357790273858054,1.357790231704712,0.09286601096391678,0.07131045311689377,-1.3577876058154095,0.4203006625175476,16,0.15965700149536133,0.0,2.520224882118782e-07,0.0,False,True,False,False,False,False,0.2710437476634979,0.029679711908102036,-0.03912067785859108,0.00027247573598288,-0.0004998805816285312,0.37745019793510437,0.2799491286277771,0.0,0.12665802240371704,-0.09051935374736786,0.20374415814876556,-0.09051917493343353,0.017497781664133072,0.017497781664133072,0.0,1.0,0.0,0.7375486493110657,False,0.0
normal,54,False,-3.096897602081299,0.1012270599603653,-1.4032117788905794,-1.8305754661560059,0.07020778208971024,-1.23075532913208,0.055514853447675705,0.37789180874824524,0.2805442810058594,0.37789180874824524,0.2805442810058594,7.557836174964905,0.1683265686035156,0.15267302095890045,0.1776939481496811,0.16518348455429077,0.1012270376086235,0.07020781189203262,0.05551490932703018,-1.4032095377347578,1.4032095670700073,0.08652753382921219,0.070207379758358,-1.403211885612285,0.4203006625175476,16,0.15075552463531494,0.0,2.61413106272812e-07,0.0,False,True,False,False,False,False,0.26883286237716675,0.039177294820547104,-0.019882064312696457,4.466858527507611e-08,3.0999493901617825e-05,0.37789180874824524,0.2805442810058594,0.0,0.12653379142284393,-0.09354729950428009,0.2005925178527832,-0.09354745596647263,0.014127248898148537,0.014127248898148537,0.0,1.0,0.0,0.7335829734802246,False,0.0
normal,55,False,-3.0878851413726807,0.10127782821655273,-1.4642119849245516,-1.821596622467041,0.0689103752374649,-1.2217925786972046,0.053578849881887436,0.37790727615356445,0.2805318832397461,0.37790727615356445,0.2805318832397461,7.558145523071289,0.16831912994384765,0.1537400633096695,0.1772797554731369,0.1655099093914032,0.1012779176235199,0.06891045719385147,0.053578928112983704,-1.4642125185330805,1.4642125368118286,0.08049174398183823,0.06890998035669327,-1.4642120916462573,0.4203006625175476,16,0.141792893409729,0.0,3.0530236472259276e-07,0.0,False,True,False,False,False,False,0.2700282037258148,0.02037886343896389,-0.027246039360761642,9.158632747130468e-05,-0.0009810299379751086,0.37790727615356445,0.2805318832397461,0.0,0.12659740447998047,-0.09761416912078857,0.19688566029071808,-0.09761413931846619,0.009809356182813644,0.009809356182813644,0.0,1.0,0.0,0.729277491569519,False,0.0
normal,56,False,-3.0791831016540527,0.10129033029079437,-1.5144041636489192,-1.8129234313964844,0.06781359761953354,-1.2131329774856567,0.05195663869380951,0.37804457545280457,0.28080201148986816,0.37804457545280457,0.28080201148986816,7.560891509056091,0.1684812068939209,0.15453219413757324,0.17802220582962036,0.1662771999835968,0.10129038244485855,0.06781364977359772,0.051956698298454285,-1.5144040569272135,1.514404058456421,0.0753832757472992,0.0678132101893425,-1.514404270370625,0.4203006625175476,16,0.13313329219818115,0.0,3.045614960228704e-07,0.0,False,True,False,False,False,False,0.2695547044277191,0.021213527768850327,-0.025623735040426254,1.4144611668598372e-06,2.422678517177701e-05,0.37804457545280457,0.28080201148986816,0.0,0.12661297619342804,-0.10096026957035065,0.19375203549861908,-0.10096028447151184,0.006223391741514206,0.006223391741514206,0.0,1.0,0.0,0.7254213690757751,False,0.0
normal,57,False,-3.0700926780700684,0.10129471123218536,-1.5674104870330379,-1.803864598274231,0.0666465312242508,-1.2040890455245972,0.05023469403386116,0.378231942653656,0.2810143232345581,0.378231942653656,0.2810143232345581,7.56463885307312,0.16860859394073485,0.15597599744796753,0.17876717448234558,0.16737158596515656,0.101294606924057,0.06664649397134781,0.05023468658328056,-1.567407498825276,1.567407488822937,0.07079039514064789,0.06664615124464035,-1.5674103803113322,0.4203006625175476,16,0.12408912181854248,0.0,1.580685733415521e-07,0.0,False,True,False,False,False,False,0.26985952258110046,0.02127300202846527,-0.01766682229936123,2.4409719117102213e-05,-0.010073833167552948,0.378231942653656,0.2810143232345581,0.0,0.12661826610565186,-0.10449383407831192,0.1904175728559494,-0.10449402779340744,0.002426436170935631,0.002426436170935631,0.0,1.0,0.0,0.7214121222496033,False,0.0
normal,58,False,-3.0608136653900146,0.1012030616402626,-1.6242266685918485,-1.7946205139160156,0.06529927253723145,-1.194861650466919,0.04829268530011177,0.3784103989601135,0.28142571449279785,0.3784103989601135,0.28142571449279785,7.5682079792022705,0.1688554286956787,0.15725953876972198,0.17958995699882507,0.16842475533485413,0.10120310634374619,0.06529932469129562,0.04829274117946625,-1.6242265618701426,1.6242265701293945,0.06691603362560272,0.0652989000082016,-1.6242267753135542,0.4203006625175476,16,0.11486184597015381,0.0,2.1741185207702074e-07,0.0,False,True,False,False,False,False,0.2704588770866394,0.028589477762579918,-0.031094195321202278,0.00025483439094386995,-0.019867178052663803,0.3784103989601135,0.28142571449279785,0.0,0.12650388479232788,-0.10828176885843277,0.18656828999519348,-0.10828178375959396,-0.0017527099698781967,0.0017527099698781967,0.0,1.0,0.0,0.716821551322937,True,0.2831784188747406
normal,59,False,-3.052183151245117,0.10107119381427765,-1.680771456852857,-1.7860260009765625,0.06391782313585281,-1.1862841844558716,0.046319350600242615,0.37914320826530457,0.28228315711021423,0.37914320826530457,0.28228315711021423,7.582864165306091,0.16936989426612853,0.15898990631103516,0.1804400533437729,0.16971498727798462,0.10107114911079407,0.0639178454875946,0.04631940647959709,-1.680768468645095,1.6807684898376465,0.06420125812292099,0.06391745805740356,-1.680771456852857,0.4203006625175476,16,0.10628437995910645,0.0,2.409762203114951e-07,0.0,False,True,False,False,False,False,0.27232447266578674,0.028458841145038605,-0.029000304639339447,0.0,-0.00034862279426306486,0.37914320826530457,0.28228315711021423,0.0,0.126338928937912,-0.11205123364925385,0.1826213151216507,-0.11205142736434937,-0.005957860499620438,0.005957860499620438,0.0,1.0,0.0,0.7117589712142944,True,0.28824102878570557
normal,60,False,-3.0427513122558594,0.1010717898607254,-1.7353539531096618,-1.776630163192749,0.06271223723888397,-1.1769053936004639,0.04454243183135986,0.37913668155670166,0.2823319435119629,0.37913668155670166,0.2823319435119629,7.582733631134033,0.16939916610717773,0.15975898504257202,0.18050438165664673,0.17013168334960938,0.1010720282793045,0.0627124160528183,0.0445425808429718,-1.7353566211523062,1.7353566884994507,0.06280270963907242,0.06271187961101532,-1.7353539531096618,0.4203006625175476,16,0.09690558910369873,0.0,2.576023803158023e-07,0.0,False,True,False,False,False,False,0.272745817899704,0.021455636247992516,-0.029331229627132416,0.0003226229746360332,-0.005222409497946501,0.37913668155670166,0.2823319435119629,0.0,0.12634003162384033,-0.1156904399394989,0.17917680740356445,-0.11569026112556458,-0.009872164577245712,0.009872164577245712,0.0,1.0,0.0,0.7077958583831787,True,0.2922041118144989
normal,61,False,-3.034146785736084,0.10129958391189575,-1.7583271876612938,-1.7680411338806152,0.06243237480521202,-1.1683236360549927,0.044022105634212494,0.37938809394836426,0.28267621994018555,0.37938809394836426,0.28267621994018555,7.587761878967285,0.16960573196411133,0.16069260239601135,0.18063421547412872,0.17066341638565063,0.10129981487989426,0.06243254244327545,0.044022247195243835,-1.758329962425644,1.75832998752594,0.06356740742921829,0.06243201717734337,-1.7583272943829995,0.4203006625175476,16,0.08832383155822754,0.0,2.536892225180054e-07,0.0,False,True,False,False,False,False,0.27266785502433777,0.024845242500305176,-0.028770646080374718,2.912102843311004e-07,-4.250339407008141e-05,0.37938809394836426,0.28267621994018555,0.0,0.12662476301193237,-0.11722199618816376,0.1783771961927414,-0.11722181737422943,-0.011261608451604843,0.011261608451604843,0.0,1.0,0.0,0.7060621976852417,True,0.2939378321170807
normal,62,False,-3.02504301071167,0.10126012563705444,-1.8119507893916524,-1.758974313735962,0.06120797246694565,-1.1592743396759033,0.04223643243312836,0.37943923473358154,0.2826850414276123,0.37943923473358154,0.2826850414276123,7.588784694671631,0.16961102485656737,0.1616186797618866,0.18094176054000854,0.17128022015094757,0.10126015543937683,0.061208032071590424,0.04223650321364403,-1.8119497221745946,1.8119497299194336,0.0647185742855072,0.06120762228965759,-1.8119507893916524,0.4203006625175476,16,0.07927453517913818,0.0,2.5567493366907e-07,0.0,False,True,False,False,False,False,0.2729291021823883,0.024238966405391693,-0.027659974992275238,2.643647079025868e-08,0.00015691218141000718,0.37943923473358154,0.2826850414276123,0.0,0.12657520174980164,-0.12079665064811707,0.17487892508506775,-0.12079671770334244,-0.01515236683189869,0.01515236683189869,0.0,1.0,0.0,0.7021626234054565,True,0.29783740639686584
normal,63,False,-3.0159738063812256,0.10122440755367279,-1.8656478156555885,-1.7499431371688843,0.059985723346471786,-1.1502611637115479,0.04045215621590614,0.37962639331817627,0.28292515873908997,0.37962639331817627,0.28292515873908997,7.592527866363525,0.16975509524345397,0.1625995934009552,0.1811572015285492,0.1718783974647522,0.10122431069612503,0.059985700994729996,0.04045217111706734,-1.8656446140044152,1.8656446933746338,0.06709471344947815,0.05998538061976433,-1.865648029099,0.4203006625175476,16,0.07026124000549316,0.0,1.706118126776346e-07,0.0,False,True,False,False,False,False,0.2728535532951355,0.02566344290971756,-0.029248427599668503,3.6288734008849133e-06,-0.0005747475079260767,0.37962639331817627,0.28292515873908997,0.0,0.12653039395809174,-0.12437630444765091,0.17138680815696716,-0.12437653541564941,-0.019044149667024612,0.019044149667024612,0.0,1.0,0.0,0.6980307102203369,True,0.3019693195819855
normal,64,False,-3.006991147994995,0.10112710297107697,-1.9046462748256572,-1.7409889698028564,0.059026703238487244,-1.1413203477859497,0.039084967225790024,0.37988975644111633,0.2833125591278076,0.37988975644111633,0.2833125591278076,7.597795128822327,0.16998753547668458,0.16371527314186096,0.18074439465999603,0.1722298264503479,0.10112706571817398,0.05902671441435814,0.03908499702811241,-1.9046445672783647,1.9046446084976196,0.07075316458940506,0.059026364237070084,-1.9046464882690688,0.4203006625175476,16,0.06132042407989502,0.0,1.1353704820749044e-07,0.0,False,True,False,False,False,False,0.27195775508880615,0.02980390563607216,-0.02757558412849903,0.0,-0.00012519473966676742,0.37988975644111633,0.2833125591278076,0.0,0.12640883028507233,-0.12697629630565643,0.16864675283432007,-0.12697643041610718,-0.02195156365633011,0.02195156365633011,0.0,1.0,0.0,0.6947358846664429,True,0.30526411533355713
normal,65,False,-2.9980921745300293,0.10107097029685974,-1.9562460061275764,-1.732128381729126,0.05783045291900635,-1.1324779987335205,0.037348672747612,0.38002869486808777,0.28350934386253357,0.38002869486808777,0.28350934386253357,7.600573897361755,0.17010560631752014,0.1646694540977478,0.18144498765468597,0.17305722832679749,0.1010710597038269,0.05783052369952202,0.037348732352256775,-1.9562470733446342,1.956247091293335,0.07507362961769104,0.057830121368169785,-1.9562460061275764,0.4203006625175476,16,0.05247819423675537,0.0,3.00197285696413e-07,0.0,False,True,False,False,False,False,0.27195054292678833,0.032947372645139694,-0.025177055969834328,2.1804883090226213e-06,2.7033966034650803e-06,0.38002869486808777,0.28350934386253357,0.0,0.12633882462978363,-0.13041646778583527,0.1652289181947708,-0.1304163932800293,-0.02571605145931244,0.02571605145931244,0.0,1.0,0.0,0.6907746195793152,True,0.3092253804206848
normal,66,False,-2.9891345500946045,0.10103397071361542,-2.009093527613492,-1.7232111692428589,0.056625790894031525,-1.123579978942871,0.03559092432260513,0.3802420496940613,0.28375041484832764,0.3802420496940613,0.28375041484832764,7.604840993881226,0.17025024890899657,0.1655895709991455,0.18042856454849243,0.17300906777381897,0.1010340079665184,0.0566258542239666,0.0355909988284111,-2.009092246953023,2.009092330932617,0.080196313560009,0.05662546679377556,-2.0090933141700806,0.4203006625175476,16,0.04358029365539551,0.0,3.9820039887672465e-07,0.0,False,True,False,False,False,False,0.26829764246940613,0.025997351855039597,-0.027788186445832253,1.0020753506978508e-06,-3.916181231033988e-05,0.3802420496940613,0.28375041484832764,0.0,0.12629251182079315,-0.1339394748210907,0.16178704798221588,-0.13393954932689667,-0.029548194259405136,0.029548194259405136,0.0,1.0,0.0,0.6867014169692993,True,0.31329861283302307
normal,67,False,-2.9800660610198975,0.10097938776016235,-2.062604644665957,-1.7141847610473633,0.0553889200091362,-1.1145734786987305,0.033794037997722626,0.3804352879524231,0.28403764963150024,0.3804352879524231,0.28403764963150024,7.608705759048462,0.17042258977890015,0.16611991822719574,0.18101778626441956,0.17356884479522705,0.10097955167293549,0.055389050394296646,0.03379415348172188,-2.06260635221325,2.0626063346862793,0.08602077513933182,0.05538860335946083,-2.062604644665957,0.4203006625175476,16,0.03457379341125488,0.0,3.6669331393568427e-07,0.0,False,True,False,False,False,False,0.27108633518218994,0.017641641199588776,-0.033365510404109955,0.0,0.0016252468340098858,0.3804352879524231,0.28403764963150024,0.0,0.12622444331645966,-0.1375070959329605,0.15825316309928894,-0.13750697672367096,-0.03344796597957611,0.03344796597957611,0.0,1.0,0.0,0.6825143694877625,True,0.31748563051223755
normal,68,False,-2.9710357189178467,0.10097923129796982,-2.114052617702255,-1.7051959037780762,0.054252102971076965,-1.1056041717529297,0.032118819653987885,0.38064199686050415,0.2842596173286438,0.38064199686050415,0.2842596173286438,7.612839937210083,0.17055577039718628,0.1670600324869156,0.18186277151107788,0.17446139454841614,0.10097931325435638,0.05425218492746353,0.03211890161037445,-2.114052617702255,2.1140525341033936,0.09240637719631195,0.05425179377198219,-2.114052617702255,0.4203006625175476,16,0.0256044864654541,0.0,3.3801160270741093e-07,0.0,False,True,False,False,False,False,0.27612367272377014,0.022089380770921707,-0.030802836641669273,0.00033780501689761877,-0.005257262382656336,0.38064199686050415,0.2842596173286438,0.0,0.12622414529323578,-0.14093683660030365,0.15500512719154358,-0.14093683660030365,-0.03713791072368622,0.03713791072368622,0.0,1.0,0.0,0.6786024570465088,True,0.3213975429534912
normal,69,False,-2.9621047973632812,0.10090082883834839,-2.167137488261829,-1.6963087320327759,0.05300091207027435,-1.0967378616333008,0.03031211346387863,0.3809286057949066,0.28461170196533203,0.3809286057949066,0.28461170196533203,7.618572115898132,0.1707670211791992,0.16785253584384918,0.18171918392181396,0.17478585243225098,0.10090082138776779,0.053000934422016144,0.030312148854136467,-2.1671362076013594,2.1671361923217773,0.09906220436096191,0.05300061032176018,-2.167137488261829,0.4203006625175476,16,0.016738057136535645,0.0,1.8851712013656652e-07,0.0,False,True,False,False,False,False,0.273300439119339,0.020578786730766296,-0.02914499305188656,1.8251280380354729e-06,-0.00021388326422311366,0.3809286057949066,0.28461170196533203,0.0,0.1261260211467743,-0.14447574317455292,0.15143032371997833,-0.14447583258152008,-0.04103395342826843,0.04103395342826843,0.0,1.0,0.0,0.6743543148040771,True,0.32564565539360046
normal,70,False,-2.9532599449157715,0.10082763433456421,-2.2211873364850785,-1.6875096559524536,0.051733650267124176,-1.0879604816436768,0.028479255735874176,0.3811470866203308,0.28482499718666077,0.3811470866203308,0.28482499718666077,7.622941732406616,0.17089499831199645,0.16865064203739166,0.1824757307767868,0.17556318640708923,0.10082755982875824,0.051733653992414474,0.02847929112613201,-2.2211839213904936,2.221184015274048,0.0973869115114212,0.0517333559691906,-2.22118754992849,0.5652253031730652,17,0.007960677146911621,0.0,2.8600308610293723e-07,0.0,False,True,False,False,False,False,0.2709704339504242,0.01846102811396122,-0.02503267675638199,0.0,0.01101258210837841,0.3811470866203308,0.28482499718666077,0.0,0.1260344535112381,-0.14807893335819244,0.14780959486961365,-0.14807917177677155,-0.044993214309215546,0.044993214309215546,0.0,1.0,0.0,0.6701817512512207,True,0.3298182189464569
normal,71,False,-2.943871021270752,0.10076994448900223,-2.2767718428374653,-1.6781688928604126,0.050448037683963776,-1.07864248752594,0.026612013578414917,0.3810339868068695,0.28471535444259644,0.3810339868068695,0.28471535444259644,7.62067973613739,0.17082921266555787,0.16926626861095428,0.18306832015514374,0.176167294383049,0.1007700189948082,0.05044811964035034,0.026612095534801483,-2.276771629394054,2.2767715454101562,0.08887456357479095,0.050447750836610794,-2.2767718428374653,0.5652253031730652,17,0.0,0.0013573169708251953,2.823746285685047e-07,0.0,False,True,False,False,False,False,0.2724504768848419,0.014041232876479626,-0.023677878081798553,0.0002511370403226465,-7.971539162099361e-05,0.3810339868068695,0.28471535444259644,0.0,0.1259625256061554,-0.1517847776412964,0.1441364288330078,-0.15178479254245758,-0.04904498904943466,0.04904498904943466,0.0,1.0,0.0,0.6662396192550659,True,0.3337603509426117
normal,72,False,-2.9348766803741455,0.10057790577411652,-2.3239108202811316,-1.6692163944244385,0.049214690923690796,-1.0697097778320312,0.024885423481464386,0.381401389837265,0.2852148413658142,0.381401389837265,0.2852148413658142,7.6280277967453,0.17112890481948853,0.17140178382396698,0.18206174671649933,0.17673176527023315,0.10057768225669861,0.04921460524201393,0.024885402992367744,-2.3239044169787846,2.323904514312744,0.08090629428625107,0.04921440780162811,-2.3239108202811316,0.5652253031730652,17,0.0,0.010290026664733887,2.576087467787147e-07,0.0,False,True,False,False,False,False,0.27207109332084656,0.013869903981685638,-0.029228391125798225,9.868080815067515e-05,0.0013166854623705149,0.381401389837265,0.2852148413658142,0.0,0.12572211027145386,-0.15492695569992065,0.14061260223388672,-0.15492738783359528,-0.052643246948719025,0.052643246948719025,0.002782364608719945,1.0,0.002782364608719945,0.6621419191360474,True,0.33785808086395264
normal,73,False,-2.926015615463257,0.10048819333314896,-2.3770992108953135,-1.6604036092758179,0.04795007035136223,-1.0609198808670044,0.02306428551673889,0.3817291259765625,0.2855750322341919,0.3817291259765625,0.2855750322341919,7.63458251953125,0.17134501934051513,0.17182117700576782,0.1828889548778534,0.1773550659418106,0.10048917680978775,0.04795066639780998,0.02306469716131687,-2.3771167132550617,2.3771166801452637,0.07327187061309814,0.04794979467988014,-2.3770992108953135,0.5652253031730652,17,0.0,0.019080042839050293,1.7314145850377827e-07,0.0,False,True,False,False,False,False,0.27116116881370544,0.02746301144361496,-0.02845824509859085,1.8184811779065058e-05,-0.001132703386247158,0.3817291259765625,0.2855750322341919,0.0,0.12561146914958954,-0.15847444534301758,0.13699941337108612,-0.15847328305244446,-0.056559689342975616,0.056559689342975616,0.006904935464262962,1.0,0.006904935464262962,0.6578652858734131,True,0.3421347141265869
normal,74,False,-2.9170522689819336,0.10013693571090698,-2.4395160408518284,-1.6514983177185059,0.04622011259198189,-1.052042007446289,0.02068127691745758,0.38206714391708374,0.2859843075275421,0.38206714391708374,0.2859843075275421,7.641342878341675,0.17159058451652526,0.1724853664636612,0.1821071207523346,0.1772962510585785,0.10013844817876816,0.04622102901339531,0.02068191207945347,-2.4395429347216857,2.4395430088043213,0.06556211411952972,0.0462198480963707,-2.4395160408518284,0.5652253031730652,17,0.0,0.02795732021331787,6.993805641286599e-07,0.0,False,True,False,False,False,False,0.2734983563423157,0.010303765535354614,-0.0429072342813015,0.0,0.00946162361651659,0.38206714391708374,0.2859843075275421,0.0,0.12517306208610535,-0.1626361906528473,0.13205671310424805,-0.16263440251350403,-0.06143421307206154,0.06143421307206154,0.012036013416945934,1.0,0.012036013416945934,0.6525814533233643,True,0.34741851687431335
normal,75,False,-2.9082305431365967,0.09995093941688538,-2.4985284483939156,-1.6427326202392578,0.04473067820072174,-1.0433030128479004,0.018574438989162445,0.3822835087776184,0.28621336817741394,0.3822835087776184,0.28621336817741394,7.645670175552368,0.17172802090644837,0.17246128618717194,0.1830727607011795,0.17776702344417572,0.09995263814926147,0.044731687754392624,0.01857512630522251,-2.4985593976885925,2.4985594749450684,0.05851993337273598,0.04473042115569115,-2.4985282349505042,0.5652253031730652,17,0.0,0.03669631481170654,7.553342697974585e-07,0.0,False,True,False,False,False,False,0.2722229063510895,0.04541982337832451,-0.03270649537444115,0.0,0.00031388376373797655,0.3822835087776184,0.28621336817741394,0.0,0.12494079768657684,-0.16657061874866486,0.12780120968818665,-0.1665685474872589,-0.06587709486484528,0.06587709486484528,0.01671273075044155,1.0,0.01671273075044155,0.6479095220565796,True,0.3520904779434204
normal,76,False,-2.898956775665283,0.09982550144195557,-2.5596767841555126,-1.6335185766220093,0.04325467720627785,-1.0341172218322754,0.016458719968795776,0.3827701210975647,0.286965548992157,0.3827701210975647,0.286965548992157,7.655402421951294,0.17217932939529418,0.17263948917388916,0.18317121267318726,0.1779053509235382,0.0998268574476242,0.043255507946014404,0.016459302976727486,-2.559700476374196,2.5597004890441895,0.051809992641210556,0.04325443133711815,-2.5596767841555126,0.5652253031730652,17,0.0,0.04588210582733154,7.906262453616364e-07,0.0,False,True,False,False,False,False,0.2727452516555786,0.027641044929623604,-0.029004856944084167,0.0,0.00019103610247839242,0.3827701210975647,0.286965548992157,0.0,0.12478357553482056,-0.17064669728279114,0.1235840916633606,-0.1706451177597046,-0.07040424644947052,0.07040424644947052,0.02147815376520157,1.0,0.02147815376520157,0.6426302194595337,True,0.3573697805404663
normal,77,False,-2.889904737472534,0.0996861681342125,-2.6164068412977577,-1.6245231628417969,0.041862428188323975,-1.025148630142212,0.014472998678684235,0.38285571336746216,0.2870178818702698,0.38285571336746216,0.2870178818702698,7.657114267349243,0.17221072912216187,0.17349672317504883,0.18328408896923065,0.17839041352272034,0.09968756139278412,0.04186328127980232,0.014473593793809414,-2.6164313872900875,2.616431474685669,0.046191081404685974,0.04186218976974487,-2.6164068412977577,0.5652253031730652,17,0.0,0.05485069751739502,7.903034315859259e-07,0.0,False,True,False,False,False,False,0.2733764052391052,0.03070847876369953,-0.03140890225768089,2.8178196771477815e-06,-0.00014652678510174155,0.38285571336746216,0.2870178818702698,0.0,0.12460945546627045,-0.1744287610054016,0.11960625648498535,-0.1744271218776703,-0.07463037222623825,0.07463037222623825,0.025926707312464714,1.0,0.025926707312464714,0.6383517384529114,True,0.3616482615470886
normal,78,False,-2.8805251121520996,0.09957204759120941,-2.6725802380226464,-1.6152009963989258,0.04050774127244949,-1.0158535242080688,0.012530691921710968,0.3831694722175598,0.28740620613098145,0.3831694722175598,0.28740620613098145,7.663389444351196,0.17244372367858887,0.17465165257453918,0.1841517984867096,0.1794017255306244,0.09957349300384521,0.04050862044095993,0.01253130566328764,-2.672605851232034,2.6726059913635254,0.04177244380116463,0.04050751030445099,-2.6725804514660583,0.5652253031730652,17,0.0,0.06414580345153809,7.627629088347021e-07,0.0,False,True,False,False,False,False,0.2716783881187439,0.030135177075862885,-0.029774561524391174,0.00022090872516855597,-0.0016203911509364843,0.3831694722175598,0.28740620613098145,0.0,0.12446686625480652,-0.1781737208366394,0.1157357469201088,-0.1781720221042633,-0.07878793030977249,0.07878793030977249,0.03030308522284031,1.0,0.03030308522284031,0.6338058710098267,True,0.36619412899017334
normal,79,False,-2.8718457221984863,0.09926760196685791,-2.7336826834507573,-1.6065852642059326,0.03885394334793091,-1.007267951965332,0.010237745940685272,0.3832218050956726,0.28763246536254883,0.3832218050956726,0.28763246536254883,7.664436101913452,0.17257947921752928,0.17521536350250244,0.18392115831375122,0.17956826090812683,0.09926898032426834,0.03885478153824806,0.01023833081126213,-2.7337070159996757,2.7337069511413574,0.03888627141714096,0.038853719830513,-2.7336826834507573,0.5652253031730652,17,0.0,0.0727313756942749,7.912623232186888e-07,0.0,False,True,False,False,False,False,0.27328193187713623,0.031012965366244316,-0.02957206591963768,7.050924978102557e-06,-0.0009720075177028775,0.3832218050956726,0.28763246536254883,0.0,0.12408622354269028,-0.182247132062912,0.11101063340902328,-0.18224550783634186,-0.08351464569568634,0.08351464569568634,0.035278573632240295,1.0,0.035278573632240295,0.628852903842926,True,0.371147096157074
normal,80,False,-2.8627734184265137,0.09904596209526062,-2.79373648139786,-1.5975768566131592,0.03730616718530655,-0.998289942741394,0.008061818778514862,0.38350290060043335,0.28799688816070557,0.38350290060043335,0.28799688816070557,7.670058012008667,0.17279813289642335,0.17656730115413666,0.1844492107629776,0.18050825595855713,0.09904732555150986,0.037306997925043106,0.008062394335865974,-2.793760813946778,2.7937607765197754,0.03803752735257149,0.03730595484375954,-2.79373648139786,0.5652253031730652,17,0.0,0.08170932531356812,7.901415983724291e-07,0.0,False,True,False,False,False,False,0.27467238903045654,0.032163046300411224,-0.03130650147795677,7.5757175181934144e-06,-0.0016784161562100053,0.38350290060043335,0.28799688816070557,0.0,0.12380915880203247,-0.1862507164478302,0.1065884456038475,-0.18624909222126007,-0.08807221055030823,0.08807221055030823,0.040076009929180145,1.0,0.040076009929180145,0.6239309310913086,True,0.3760690987110138
normal,81,False,-2.8537404537200928,0.09888170659542084,-2.846751555961853,-1.5886015892028809,0.0359712690114975,-0.9893419742584229,0.0061724185943603516,0.3837021291255951,0.2883343994617462,0.3837021291255951,0.2883343994617462,7.674042582511902,0.17300063967704774,0.1778658926486969,0.1850845217704773,0.1814752072095871,0.09888307005167007,0.035972096025943756,0.006172992289066315,-2.8467756750673594,2.846775770187378,0.03953278064727783,0.03597106412053108,-2.846751342518441,0.5652253031730652,17,0.0,0.0906572937965393,7.904412768766633e-07,0.0,False,True,False,False,False,False,0.2736177444458008,0.04042983055114746,-0.029957108199596405,5.885211749045993e-07,0.0007982412353157997,0.3837021291255951,0.2883343994617462,0.0,0.12360383570194244,-0.18978504836559296,0.1027744710445404,-0.18978342413902283,-0.09205993264913559,0.09205993264913559,0.04427361488342285,1.0,0.04427361488342285,0.6196056604385376,True,0.3803943395614624
normal,82,False,-2.844597339630127,0.09870001673698425,-2.9033970895131187,-1.5795212984085083,0.03453882783651352,-0.980291485786438,0.004147537052631378,0.38399532437324524,0.28867238759994507,0.38399532437324524,0.28867238759994507,7.679906487464905,0.17320343255996704,0.17787416279315948,0.18570488691329956,0.18178951740264893,0.0987013727426529,0.03453965112566948,0.004148109350353479,-2.9034212086186253,2.90342116355896,0.042919643223285675,0.0345386303961277,-2.9033970895131187,0.5652253031730652,17,0.0,0.09970778226852417,7.907443091426103e-07,0.0,False,True,False,False,False,False,0.27295416593551636,0.026351749897003174,-0.029516493901610374,1.3678115351467568e-07,0.00018984914640896022,0.38399532437324524,0.28867238759994507,0.0,0.12337671220302582,-0.1935614049434662,0.09868180006742477,-0.19355981051921844,-0.09632766991853714,0.09632766991853714,0.04876596853137016,1.0,0.04876596853137016,0.6149999499320984,True,0.3850000500679016
normal,83,False,-2.8354320526123047,0.09845278412103653,-2.954232053071408,-1.5704134702682495,0.033169202506542206,-0.9712108373641968,0.002246260643005371,0.384097695350647,0.28878992795944214,0.384097695350647,0.28878992795944214,7.6819539070129395,0.1732739567756653,0.178904727101326,0.18422065675258636,0.18156269192695618,0.09845414012670517,0.033170025795698166,0.0022468308452516794,-2.954256385620326,2.954256534576416,0.04792103171348572,0.033169012516736984,-2.9542322665148193,0.5652253031730652,17,0.0,0.10878843069076538,7.910504677965946e-07,0.0,False,True,False,False,False,False,0.2722605764865875,0.018707573413848877,-0.03269336000084877,7.369901140918955e-05,-0.004069816321134567,0.384097695350647,0.28878992795944214,0.0,0.12306767702102661,-0.19695042073726654,0.09476860612630844,-0.1969488114118576,-0.10025303065776825,0.10025303065776825,0.05289792641997337,1.0,0.05289792641997337,0.6109570264816284,True,0.3890429735183716
normal,84,False,-2.826458692550659,0.09826876223087311,-3.0136167059232606,-1.5615084171295166,0.03167407587170601,-0.9623382091522217,0.0001301020383834839,0.38426655530929565,0.2890504002571106,0.38426655530929565,0.2890504002571106,7.685331106185913,0.17343024015426636,0.17959532141685486,0.1842448115348816,0.18192006647586823,0.09827012568712234,0.03167489543557167,0.00013067020336166024,-3.013641038472179,3.013641119003296,0.053803034126758575,0.031673893332481384,-3.0136169193666724,0.5652253031730652,17,0.0,0.11766105890274048,7.913755553090596e-07,0.0,False,True,False,False,False,False,0.26899635791778564,0.03380299359560013,-0.032644499093294144,4.8144680476980284e-05,0.00574139691889286,0.38426655530929565,0.2890504002571106,0.0,0.12283765524625778,-0.20090940594673157,0.09049683809280396,-0.20090779662132263,-0.10471967607736588,0.10471967607736588,0.05759966000914574,1.0,0.05759966000914574,0.6062299013137817,True,0.3937700688838959
normal,85,False,-2.8172786235809326,0.09794847667217255,-3.0717633869880485,-1.552396535873413,0.030070088803768158,-0.9532585144042969,-0.002081938087940216,0.38439762592315674,0.2892768979072571,0.38439762592315674,0.2892768979072571,7.687952518463135,0.17356613874435425,0.17853674292564392,0.18497994542121887,0.1817583441734314,0.09794982522726059,0.030070900917053223,-0.0020813788287341595,-3.071787719536967,3.0717878341674805,0.06059155985713005,0.03006991744041443,-3.0717633869880485,0.5652253031730652,17,0.0,0.12674075365066528,7.902973493401078e-07,0.0,False,True,False,False,False,False,0.27405261993408203,0.028941789641976357,-0.04323580488562584,0.00021469521743711084,0.00991146545857191,0.38439762592315674,0.2892768979072571,0.0,0.12243728339672089,-0.20478583872318268,0.08591405302286148,-0.20478422939777374,-0.10925199091434479,0.10925199091434479,0.06237051635980606,1.0,0.06237051635980606,0.6014711260795593,True,0.3985288739204407
normal,86,False,-2.8085744380950928,0.0977499857544899,-3.126877037174528,-1.5437581539154053,0.02865491807460785,-0.9446514844894409,-0.004073411226272583,0.38472113013267517,0.28976336121559143,0.38472113013267517,0.28976336121559143,7.694422602653503,0.17385801672935486,0.17925049364566803,0.18466678261756897,0.1819586455821991,0.09775133430957794,0.028655728325247765,-0.004072853364050388,-3.1269011562800344,3.126901149749756,0.0676141306757927,0.028654754161834717,-3.126877037174528,0.5652253031730652,17,0.0,0.13534778356552124,7.906409109637025e-07,0.0,False,True,False,False,False,False,0.27260056138038635,0.02448025904595852,-0.030494891107082367,1.442986331312568e-06,-5.020649405196309e-05,0.38472113013267517,0.28976336121559143,0.0,0.12218916416168213,-0.20846007764339447,0.08187072724103928,-0.20845846831798553,-0.11342865228652954,0.11342865228652954,0.06676700711250305,1.0,0.06676700711250305,0.5968079566955566,True,0.40319201350212097
normal,87,False,-2.7993569374084473,0.09753742814064026,-3.1847001380273863,-1.5346111059188843,0.027165938168764114,-0.9355376958847046,-0.006166994571685791,0.3848959803581238,0.29001110792160034,0.3848959803581238,0.29001110792160034,7.697919607162476,0.1740066647529602,0.1799047589302063,0.18516196310520172,0.1825333535671234,0.0975387692451477,0.027166742831468582,-0.006166442763060331,-3.184724684019716,3.184724807739258,0.07544923573732376,0.027165783569216728,-3.184699924583975,0.5652253031730652,17,0.0,0.14446157217025757,7.901830940681975e-07,0.0,False,True,False,False,False,False,0.27074652910232544,0.032585371285676956,-0.029607674106955528,0.00011287572124274448,-0.0035183809231966734,0.3848959803581238,0.29001110792160034,0.0,0.12192346155643463,-0.21231497824192047,0.07761652767658234,-0.21231332421302795,-0.11781547218561172,0.11781547218561172,0.07138470560312271,1.0,0.07138470560312271,0.5921734571456909,True,0.40782657265663147
normal,88,False,-2.7904043197631836,0.09730306267738342,-3.242594102092884,-1.5257302522659302,0.0256536602973938,-0.9266908168792725,-0.008284583687782288,0.3852238059043884,0.2904644310474396,0.3852238059043884,0.2904644310474396,7.7044761180877686,0.17427865862846373,0.18070374429225922,0.18502762913703918,0.1828656792640686,0.09730440378189087,0.025654464960098267,-0.008284034207463264,-3.2426186480852137,3.2426187992095947,0.08331750333309174,0.02565351314842701,-3.242594102092884,0.5652253031730652,17,0.0,0.1533084511756897,7.905222219051211e-07,0.0,False,True,False,False,False,False,0.27204620838165283,0.0220404714345932,-0.032754819840192795,3.745346475625411e-05,0.0011722319759428501,0.3852238059043884,0.2904644310474396,0.0,0.12163050472736359,-0.21617457270622253,0.07329575717449188,-0.2161729335784912,-0.12223200500011444,0.12223200500011444,0.07603369653224945,1.0,0.07603369653224945,0.5873035788536072,True,0.4126964211463928
normal,89,False,-2.781538486480713,0.09707041084766388,-3.3001943680240706,-1.5169371366500854,0.024149645119905472,-0.9179321527481079,-0.010390803217887878,0.38529491424560547,0.2906784415245056,0.38529491424560547,0.2906784415245056,7.705898284912109,0.17440706491470337,0.1810235232114792,0.18522289395332336,0.18312320113182068,0.09707175195217133,0.024150453507900238,-0.010390250012278557,-3.300218700572989,3.3002188205718994,0.09022893011569977,0.02414950728416443,-3.3001943680240706,0.7101499438285828,18,0.0,0.16206711530685425,7.919859967842058e-07,0.0,False,True,False,False,False,False,0.2715233266353607,0.032190319150686264,-0.032210808247327805,5.50291724721319e-06,-0.0006904610199853778,0.38529491424560547,0.2906784415245056,0.0,0.12133969366550446,-0.2200145721435547,0.06899859756231308,-0.22001296281814575,-0.1266254484653473,0.1266254484653473,0.08065837621688843,1.0,0.08065837621688843,0.5826960802078247,True,0.4173038899898529
normal,90,False,-2.77215576171875,0.09675406664609909,-3.3636466119700774,-1.5076359510421753,0.02243286743760109,-0.9086695909500122,-0.01277092844247818,0.38560500741004944,0.29110264778137207,0.38560500741004944,0.29110264778137207,7.712100148200989,0.17466158866882323,0.18221578001976013,0.18548786640167236,0.18385182321071625,0.09675540775060654,0.022433672100305557,-0.012770378962159157,-3.363670731075584,3.363670825958252,0.08081191033124924,0.022432738915085793,-3.3636466119700774,0.7101499438285828,18,0.0,0.17132967710494995,7.920324378574151e-07,0.0,False,True,False,False,False,False,0.27044519782066345,0.030186988413333893,-0.03270036354660988,0.00026717589935287833,-0.020166415721178055,0.38560500741004944,0.29110264778137207,0.0,0.12094426155090332,-0.22424471378326416,0.06409353762865067,-0.22424310445785522,-0.13153325021266937,0.13153325021266937,0.08582448214292526,1.0,0.08582448214292526,0.5773640871047974,True,0.42263591289520264
normal,91,False,-2.76362943649292,0.09647904336452484,-3.4184048788763044,-1.4991810321807861,0.020949363708496094,-0.900248646736145,-0.014826856553554535,0.38605645298957825,0.29170721769332886,0.38605645298957825,0.29170721769332886,7.721129059791565,0.17502433061599731,0.18114148080348969,0.18563486635684967,0.18338817358016968,0.09648038446903229,0.02095016837120056,-0.014826306141912937,-3.418429424868634,3.418429374694824,0.07228334993124008,0.020949244499206543,-3.4184048788763044,0.7101499438285828,18,0.0,0.17975062131881714,7.926996090645844e-07,0.0,False,True,False,False,False,False,0.27170589566230774,0.027248434722423553,-0.026935769245028496,3.9648421079618856e-07,0.0027667367830872536,0.38605645298957825,0.29170721769332886,0.0,0.12060047686100006,-0.22789528965950012,0.059854984283447266,-0.2278936505317688,-0.13577082753181458,0.13577082753181458,0.09028508514165878,1.0,0.09028508514165878,0.5725219249725342,True,0.42747804522514343
normal,92,False,-2.754459857940674,0.09621836245059967,-3.477300532872267,-1.4900898933410645,0.019388962537050247,-0.8911944627761841,-0.0170028954744339,0.3858972191810608,0.29143765568733215,0.3858972191810608,0.29143765568733215,7.717944383621216,0.1748625934123993,0.18167217075824738,0.18643835186958313,0.18405526876449585,0.09621969610452652,0.019389759749174118,-0.017002353444695473,-3.477325078864596,3.477325201034546,0.06314047425985336,0.019388850778341293,-3.477300532872267,0.7101499438285828,18,0.0,0.18880480527877808,7.919141467027657e-07,0.0,False,True,False,False,False,False,0.2718040943145752,0.030371634289622307,-0.03185916692018509,3.6405972423381172e-06,-0.0014664039481431246,0.3858972191810608,0.29143765568733215,0.0,0.120274618268013,-0.231821671128273,0.05539671704173088,-0.2318200320005417,-0.14028868079185486,0.14028868079185486,0.09504072368144989,1.0,0.09504072368144989,0.568273663520813,True,0.431726336479187
normal,93,False,-2.745511531829834,0.09596369415521622,-3.5351447646228698,-1.48121976852417,0.017857860773801804,-0.8823614120483398,-0.019138604402542114,0.3863435387611389,0.2919963598251343,0.3863435387611389,0.2919963598251343,7.726870775222778,0.17519781589508057,0.1822918951511383,0.18631289899349213,0.18430238962173462,0.09596508741378784,0.017858698964118958,-0.019138026982545853,-3.535169737502023,3.535169839859009,0.0542435348033905,0.017857758328318596,-3.5351445511794584,0.7101499438285828,18,0.0,0.19763785600662231,7.981352609931491e-07,0.0,False,True,False,False,False,False,0.27112582325935364,0.029117632657289505,-0.03244307264685631,2.1884321199650003e-07,3.3238495234400034e-05,0.3863435387611389,0.2919963598251343,0.0,0.1199563592672348,-0.23567798733711243,0.05102216824889183,-0.23567630350589752,-0.14472420513629913,0.14472420513629913,0.09970969706773758,1.0,0.09970969706773758,0.5632794499397278,True,0.4367205500602722
normal,94,False,-2.7365458011627197,0.09569426625967026,-3.593561878490108,-1.472334384918213,0.01629943773150444,-0.8735140562057495,-0.02130758762359619,0.38650086522102356,0.2921597957611084,0.38650086522102356,0.2921597957611084,7.730017304420471,0.17529587745666503,0.182763934135437,0.18663334846496582,0.18469864130020142,0.09569564461708069,0.016300253570079803,-0.02130703814327717,-3.5935874916994957,3.593587636947632,0.04536370933055878,0.01629934459924698,-3.593561878490108,0.7101499438285828,18,0.0,0.20648527145385742,7.625300781910482e-07,0.0,False,True,False,False,False,False,0.27084046602249146,0.02910085953772068,-0.029152894392609596,0.0,6.852505975984968e-06,0.38650086522102356,0.2921597957611084,0.0,0.11961955577135086,-0.23957249522209167,0.04656955599784851,-0.23957079648971558,-0.14921751618385315,0.14921751618385315,0.10443949699401855,1.0,0.10443949699401855,0.5586227178573608,True,0.44137731194496155
normal,95,False,-2.727531671524048,0.09545326232910156,-3.6585075859868206,-1.4634109735488892,0.014625485986471176,-0.8646336793899536,-0.023660287261009216,0.3867408037185669,0.2924913763999939,0.3867408037185669,0.2924913763999939,7.734816074371338,0.17549482583999634,0.1804492324590683,0.18645212054252625,0.18345066905021667,0.09545455127954483,0.014626258052885532,-0.023659758269786835,-3.6585306378752693,3.6585307121276855,0.03647181764245033,0.01462540216743946,-3.6585075859868206,0.7101499438285828,18,0.0,0.21536558866500854,7.946875371089845e-07,0.0,False,True,False,False,False,False,0.2764340341091156,0.03173267841339111,-0.04905715584754944,0.0004261669237166643,-0.005822902545332909,0.3867408037185669,0.2924913763999939,0.0,0.11931818723678589,-0.2439020425081253,0.04178686439990997,-0.24390050768852234,-0.15414640307426453,0.15414640307426453,0.10962779819965363,1.0,0.10962779819965363,0.553362250328064,True,0.4466377794742584
normal,96,False,-2.718168258666992,0.09529929608106613,-3.712733738468021,-1.4541246891021729,0.013275157660245895,-0.8553838729858398,-0.025577299296855927,0.3873268961906433,0.2933797240257263,0.3873268961906433,0.2933797240257263,7.746537923812866,0.1760278344154358,0.1811642199754715,0.18607929348945618,0.18362176418304443,0.0953005999326706,0.013275926932692528,-0.02557678148150444,-3.7127580710169394,3.7127580642700195,0.027535924687981606,0.013275081291794777,-3.712733738468021,0.7101499438285828,18,0.0,0.22461539506912231,7.903765890659997e-07,0.0,False,True,False,False,False,False,0.27535709738731384,0.024470146745443344,-0.03371216356754303,0.00032222529989667237,-0.007406688295304775,0.3873268961906433,0.2933797240257263,0.0,0.11912575364112854,-0.2475171983242035,0.037928804755210876,-0.24751557409763336,-0.15820816159248352,0.15820816159248352,0.11390333622694016,1.0,0.11390333622694016,0.5484120845794678,True,0.45158788561820984
normal,97,False,-2.709394693374634,0.09485473483800888,-3.7731608489419473,-1.445438265800476,0.011497512459754944,-0.8467388153076172,-0.02798638492822647,0.38730645179748535,0.2933369278907776,0.38730645179748535,0.2933369278907776,7.746129035949707,0.17600215673446654,0.18194693326950073,0.1869553178548813,0.1844511330127716,0.09485603868961334,0.011498280800879002,-0.027985870838165283,-3.7731851814908652,3.7731852531433105,0.01924917660653591,0.011497446335852146,-3.77316127582877,0.7101499438285828,18,0.0,0.23326045274734497,7.906787686806638e-07,0.0,False,True,False,False,False,False,0.2749544084072113,0.03261882811784744,-0.033042922616004944,1.2434046766429674e-05,-0.0007207491435110569,0.38730645179748535,0.2933369278907776,0.0,0.11857004463672638,-0.25154566764831543,0.03284984827041626,-0.2515440881252289,-0.1630438268184662,0.1630438268184662,0.11899350583553314,1.0,0.11899350583553314,0.5436192750930786,True,0.4563807547092438
normal,98,False,-2.7002766132354736,0.09452036023139954,-3.8312447776437355,-1.4364054203033447,0.009881842881441116,-0.837746262550354,-0.030208967626094818,0.38755613565444946,0.2936446964740753,0.38755613565444946,0.2936446964740753,7.751122713088989,0.17618681788444518,0.18098904192447662,0.18737581372261047,0.18418243527412415,0.0945216566324234,0.009882609359920025,-0.03020845539867878,-3.8312691101926535,3.8312692642211914,0.011776220984756947,0.009881786070764065,-3.8312447776437355,0.7101499438285828,18,0.0,0.24225300550460815,7.909843020570406e-07,0.0,False,True,False,False,False,False,0.27439403533935547,0.033164042979478836,-0.03263772651553154,9.694233995105606e-06,-0.001224264851771295,0.38755613565444946,0.2936446964740753,0.0,0.11815206706523895,-0.25541794300079346,0.02823367528617382,-0.25541630387306213,-0.16758644580841064,0.16758644580841064,0.12377521395683289,1.0,0.12377521395683289,0.5387688875198364,True,0.46123114228248596
normal,99,False,-2.6912121772766113,0.09419088065624237,-3.8898635955349006,-1.4274282455444336,0.008259348571300507,-0.828810453414917,-0.032443925738334656,0.3878367245197296,0.29388850927352905,0.3878367245197296,0.29388850927352905,7.756734490394592,0.17633310556411744,0.1819871962070465,0.18734297156333923,0.18466508388519287,0.09419218450784683,0.008260113187134266,-0.032443415373563766,-3.8898879280838186,3.889888048171997,0.008650497533380985,0.008259301073849201,-3.8898635955349006,0.7101499438285828,18,0.0,0.25118881464004517,7.913087074484793e-07,0.0,False,True,False,False,False,False,0.2699863314628601,0.05688904970884323,-0.030764738097786903,6.832577525983652e-08,0.002613443648442626,0.3878367245197296,0.29388850927352905,0.0,0.11774022877216339,-0.25932586193084717,0.02359800413250923,-0.25932422280311584,-0.1721617728471756,0.1721617728471756,0.12859134376049042,1.0,0.12859134376049042,0.5339497327804565,True,0.46605026721954346
normal,100,False,-2.6822757720947266,0.0938221663236618,-3.9470886279485597,-1.4185783863067627,0.006628453731536865,-0.820001482963562,-0.034672677516937256,0.3881881833076477,0.2943708300590515,0.3881881833076477,0.2943708300590515,7.763763666152954,0.1766224980354309,0.1818348914384842,0.18664966523647308,0.18424227833747864,0.09382345527410507,0.006629209499806166,-0.034672174602746964,-3.947112960497478,3.947113037109375,0.013205725699663162,0.006628416012972593,-3.947088201061737,0.7101499438285828,18,0.0,0.25999778509140015,7.902326615294442e-07,0.0,False,True,False,False,False,False,0.27131178975105286,0.02643687278032303,-0.03212055191397667,5.652763093166868e-07,-8.612272358732298e-05,0.3881881833076477,0.2943708300590515,0.0,0.11727932095527649,-0.26314085721969604,0.018938332796096802,-0.2631392180919647,-0.17668157815933228,0.17668157815933228,0.13334903120994568,1.0,0.13334903120994568,0.5289475917816162,True,0.4710524082183838
normal,101,False,-2.6731796264648438,0.09346197545528412,-4.003668207485653,-1.4095687866210938,0.005020413547754288,-0.8110330104827881,-0.03687179088592529,0.38823625445365906,0.29441195726394653,0.38823625445365906,0.29441195726394653,7.764725089073181,0.1766471743583679,0.1820651888847351,0.18668633699417114,0.18437576293945312,0.09346326440572739,0.005021167919039726,-0.0368712916970253,-4.003692540034571,4.003692626953125,0.021039053797721863,0.005020384676754475,-4.00366778059883,0.7101499438285828,18,0.0,0.2689662575721741,7.905755410320126e-07,0.0,False,True,False,False,False,False,0.26540446281433105,0.0593508705496788,-0.04583466053009033,3.2591091439826414e-05,-0.009543306194245815,0.38823625445365906,0.29441195726394653,0.0,0.11682908236980438,-0.2669128477573395,0.014343956485390663,-0.26691117882728577,-0.18114537000656128,0.18114537000656128,0.13804776966571808,1.0,0.13804776966571808,0.5244426727294922,True,0.4755573272705078
normal,102,False,-2.6641876697540283,0.09310746192932129,-4.061773907415421,-1.4006671905517578,0.0033844634890556335,-0.8021742105484009,-0.03911471366882324,0.389026403427124,0.29539984464645386,0.389026403427124,0.29539984464645386,7.7805280685424805,0.1772399067878723,0.18207602202892303,0.18737909197807312,0.18472754955291748,0.09310875087976456,0.0033852120395749807,-0.039114221930503845,-4.061797813077516,4.061798095703125,0.029527481645345688,0.0033844441641122103,-4.061773907415421,0.7101499438285828,18,0.0,0.2778250575065613,7.901186904746282e-07,0.0,False,True,False,False,False,False,0.26978325843811035,0.02165343426167965,-0.03214339539408684,5.7291639677714556e-05,-0.0007973568863235414,0.389026403427124,0.29539984464645386,0.0,0.11638593673706055,-0.2707865238189697,0.009669840335845947,-0.2707849144935608,-0.18571200966835022,0.18571200966835022,0.1428547501564026,1.0,0.1428547501564026,0.5188881158828735,True,0.4811118543148041
normal,103,False,-2.654991388320923,0.09258528798818588,-4.124102371799549,-1.3915693759918213,0.0014878436923027039,-0.7931230068206787,-0.04166237264871597,0.3887327313423157,0.2949327826499939,0.3887327313423157,0.2949327826499939,7.7746546268463135,0.17695966958999634,0.18254122138023376,0.188331738114357,0.18543648719787598,0.09258656948804855,0.0014885903801769018,-0.041661880910396576,-4.124126704348467,4.12412691116333,0.03845947980880737,0.0014878351939842105,-4.124102371799549,0.7101499438285828,18,0.0,0.28687626123428345,7.904571361905255e-07,0.0,False,True,False,False,False,False,0.26315537095069885,0.04342302307486534,-0.032379698008298874,0.0003718865045811981,-0.047484204173088074,0.3887327313423157,0.2949327826499939,0.0,0.11573321372270584,-0.2749417722225189,0.004250957630574703,-0.27494016289711,-0.19077131152153015,0.19077131152153015,0.14818033576011658,1.0,0.14818033576011658,0.5142959356307983,True,0.48570409417152405
normal,104,False,-2.646584987640381,0.09234324097633362,-4.168484941026292,-1.3832337856292725,0.0002671480178833008,-0.7848210334777832,-0.04334662854671478,0.38974255323410034,0.2962537407875061,0.38974255323410034,0.2962537407875061,7.794851064682007,0.17775224447250365,0.18274468183517456,0.18851932883262634,0.18563200533390045,0.09234452992677689,0.00026789866387844086,-0.04334613308310509,-4.16850927357521,4.168509483337402,0.04676704481244087,0.0002671464753802866,-4.168484941026292,0.7101499438285828,18,0.0,0.29517823457717896,7.919179552118294e-07,0.0,False,True,False,False,False,False,0.2629261314868927,0.024731161072850227,-0.05355645716190338,5.150362994754687e-06,0.011796146631240845,0.38974255323410034,0.2962537407875061,0.0,0.11543066054582596,-0.2779006063938141,0.0007632756605744362,-0.27789899706840515,-0.19422666728496552,0.19422666728496552,0.15181756019592285,1.0,0.15181756019592285,0.5095195770263672,True,0.4904804229736328
normal,105,False,-2.637798547744751,0.09184138476848602,-4.230794195503379,-1.3745481967926025,-0.0016085505485534668,-0.7761832475662231,-0.04587307572364807,0.38932016491889954,0.29572218656539917,0.38932016491889954,0.29572218656539917,7.786403298377991,0.1774333119392395,0.18295036256313324,0.18892252445220947,0.18593645095825195,0.0918426662683487,-0.001607803045772016,-0.045872583985328674,-4.230818528052298,4.230818748474121,0.05547519400715828,-0.0016085413517430425,-4.230794195503379,0.7101499438285828,18,0.0,0.303816020488739,7.919643962850387e-07,0.0,False,True,False,False,False,False,0.2714826166629791,0.021420905366539955,-0.02318352833390236,0.0002655772550497204,-0.0038866964168846607,0.38932016491889954,0.29572218656539917,0.0,0.11480332911014557,-0.2820545732975006,-0.00459583243355155,-0.2820529341697693,-0.1992613524198532,0.1992613524198532,0.15711721777915955,1.0,0.15711721777915955,0.5050164461135864,True,0.4949835538864136
