Su2050/forklift_sim/outputs/exp83_single_point_steer_diag/exp83_force_steering_guidance_v3_seed42_point_y0_yawpos4_zero_steer_steps.csv
mode,step,done,root_x,root_y,root_yaw_deg,fork_center_x,fork_center_y,tip_x,tip_y,raw_drive,raw_steer,applied_drive,applied_steer,drive_target_rad_s,steer_target_rad,left_steer_joint_pos_rad,right_steer_joint_pos_rad,mean_steer_joint_pos_rad,root_y_signed_m,center_y_signed_m,tip_y_signed_m,yaw_err_signed_deg,yaw_err_abs_deg,d_traj_m,d_traj_signed_m,yaw_traj_signed_deg,traj_s_norm,traj_closest_idx,dist_front_m,insert_depth_m,pallet_disp_xy_m,hold_counter,inserted,push_free,hold_entry,clean_insert_ready,dirty_insert,success,policy_vx_r,policy_vy_r,policy_yaw_rate,policy_lift_pos,policy_lift_vel,policy_prev_drive,policy_prev_steer,policy_prev_lift,policy_y_err_obs,policy_yaw_err_obs,policy_d_traj_signed_obs,policy_yaw_traj_err_obs,steer_target_cmd,steer_target_abs,steer_guidance_gate,steer_enforce_gate,steer_penalty_gate,steer_match,steer_wrong_sign,steer_shortfall
zero_steer,0,False,-3.5,0.0,3.9999995421277097,-2.2363834381103516,0.08836066722869873,-1.6378450393676758,0.13021454215049744,nan,nan,nan,nan,nan,nan,0.0,0.0,0.0,0.0,0.08836066722869873,0.13021454215049744,3.999999115240887,3.9999990463256836,0.0,0.0,6.173086552043443,0.0,0,0.5578449964523315,0.0,0.0,0.0,False,True,False,False,False,False,0.0,0.0,0.0,0.0,0.0,0.0,0.0,0.0,0.0,0.26666659116744995,0.0,0.41153910756111145,0.2725875973701477,0.2725875973701477,0.23430274426937103,0.0,0.0,0.7274124026298523,False,0.2725875973701477
zero_steer,1,False,-3.4997785091400146,1.4491379261016846e-05,3.9998740374017108,-2.236161708831787,0.0883723720908165,-1.6376233100891113,0.13022494316101074,0.3052433729171753,0.19165940582752228,0.3052433729171753,0.0,6.104867458343506,0.0,0.00011962043208768591,-0.00011959010589635,1.516309566795826e-08,1.4470834685198497e-05,0.0883723571896553,0.13022492825984955,3.9998740374017108,3.9998741149902344,0.00022203801199793816,2.0102655980736017e-05,6.172961047317444,0.0,0,0.557623028755188,0.0,1.7901595583680319e-07,0.0,False,True,False,False,False,False,-0.0010050758719444275,6.730129825882614e-06,-0.00011451936006778851,0.0,4.822434493689798e-05,0.3052433729171753,0.0,0.0,1.8088543583871797e-05,0.2666582763195038,5.743616202380508e-05,0.4115307331085205,0.27259984612464905,0.27259984612464905,0.2343156337738037,0.0,0.0,0.9190595746040344,False,0.08094044029712677
zero_steer,2,False,-3.499152183532715,5.529448390007019e-05,3.999524417093571,-2.235535144805908,0.08840547502040863,-1.6369962692260742,0.13025438785552979,0.3218989372253418,0.2110055536031723,0.3218989372253418,0.0,6.437978744506836,0.0,0.00021876850223634392,-0.0002175403933506459,6.140544428490102e-07,5.525131928152405e-05,0.08840543776750565,0.1302543580532074,3.999524417093571,3.9995243549346924,0.0008494759094901383,7.69361067796126e-05,6.1726110001224805,0.0,0,0.5569959878921509,0.0,2.996440287006408e-07,0.0,False,True,False,False,False,False,-0.002024205634370446,1.3386510545387864e-05,-0.0002275796578032896,0.0,2.8618080250453204e-05,0.3218989372253418,0.0,0.0,6.906414637342095e-05,0.2666349709033966,0.0002198174479417503,0.41150739789009094,0.2726345956325531,0.2726345956325531,0.2343522161245346,0.0,0.0,0.938370943069458,False,0.0616290420293808
zero_steer,3,False,-3.498701572418213,8.544325828552246e-05,3.999408730764504,-2.235084056854248,0.08843307197093964,-1.6365453004837036,0.1302807778120041,0.32283109426498413,0.2119968980550766,0.32283109426498413,0.0,6.456621885299683,0.0,0.0002484748838469386,-0.00024153990671038628,3.467488568276167e-06,8.537746907677501e-05,0.08843301236629486,0.13028071820735931,3.999408730764504,3.999408721923828,0.001301396987400949,0.00012161461199866608,6.172495740680237,0.0,0,0.5565448999404907,0.0,4.206798962513858e-07,0.0,False,True,False,False,False,False,0.03397644683718681,3.701774403452873e-05,-3.829361503449036e-06,0.0,-6.952897092560306e-05,0.32283109426498413,0.0,0.0,0.00010672183998394758,0.2666272521018982,0.0003474703407846391,0.4114997088909149,0.27267026901245117,0.27267026901245117,0.2343897670507431,0.0,0.0,0.9393266439437866,False,0.06067337095737457
zero_steer,4,False,-3.496896266937256,0.0002112947404384613,3.9993805562341773,-2.233278751373291,0.08855830878019333,-1.6347399950027466,0.1304057240486145,0.3232032060623169,0.21238549053668976,0.3232032060623169,0.0,6.464064121246338,0.0,0.00022164192341733724,-0.00021128660591784865,5.177658749744296e-06,0.00021120633755344898,0.08855822682380676,0.13040564954280853,3.9993805562341773,3.999380588531494,0.0031109710689634085,0.0003152021090500057,6.17246756614991,0.0,0,0.5547393560409546,0.0,5.418503405962838e-07,0.0,False,True,False,False,False,False,0.07060100138187408,-0.00018244003877043724,-5.6106098782038316e-05,0.0,0.00025775248650461435,0.3232032060623169,0.0,0.0,0.0002640079183038324,0.26662537455558777,0.0009005774627439678,0.4114978313446045,0.272849977016449,0.272849977016449,0.234578937292099,0.0,0.0,0.9395354986190796,False,0.060464486479759216
zero_steer,5,False,-3.493875503540039,0.00042228400707244873,3.9993711647240686,-2.230257987976074,0.08876907825469971,-1.6317192316055298,0.13061639666557312,0.323198527097702,0.2124258130788803,0.323198527097702,0.0,6.4639705419540405,0.0,0.0002028145972872153,-0.00018732494208961725,7.74482759879902e-06,0.00042217300506308675,0.08876897394657135,0.13061629235744476,3.9993711647240686,3.999371290206909,0.006139050237834454,0.000640339741948992,6.172458174639802,0.0,0,0.5517185926437378,0.0,6.630816073993628e-07,0.0,False,True,False,False,False,False,0.1070668175816536,-0.0003362465649843216,1.2437116311048158e-05,6.937090546443869e-08,0.0001887551770778373,0.323198527097702,0.0,0.0,0.0005277162417769432,0.2666247487068176,0.0018295422196388245,0.41149720549583435,0.2731539011001587,0.2731539011001587,0.23489885032176971,0.0,0.0,0.9392719268798828,False,0.06072808802127838
zero_steer,6,False,-3.489687442779541,0.0007158108055591583,3.999409157651327,-2.226069927215576,0.08906344324350357,-1.6275311708450317,0.13091115653514862,0.32325479388237,0.21247324347496033,0.32325479388237,0.0,6.4650958776474,0.0,0.0001490807335358113,-0.0001082464077626355,2.0417162886587903e-05,0.0007160929380916059,0.08906353265047073,0.13091114163398743,3.999400193028041,3.9994001388549805,0.004101122729480267,2.0728795789182186e-05,21.34467754310647,0.01185582671314478,1,0.547531247138977,0.0,2.87792289555e-07,0.0,False,True,False,False,False,False,0.14071966707706451,-4.394259303808212e-05,-0.0001733459794195369,2.4164890533029393e-07,3.6303812521509826e-05,0.32325479388237,0.0,0.0,0.0008951161871664226,0.2666266858577728,5.922513082623482e-05,1.0,0.4200921058654785,0.4200921058654785,0.3895706534385681,0.0,0.0,0.7923811674118042,False,0.2076188623905182
zero_steer,7,False,-3.484520435333252,0.0010768622159957886,3.9993775680264156,-2.220902919769287,0.08942379802465439,-1.6223641633987427,0.13127118349075317,0.2905997633934021,0.17197538912296295,0.2905997633934021,0.0,5.811995267868042,0.0,7.761642336845398e-05,-7.602274308737833e-06,3.500707316561602e-05,0.0010780561715364456,0.08942444622516632,0.1312715709209442,3.9993528085906744,3.9993529319763184,0.0020379016641527414,0.0019049716647714376,21.344648514802497,0.01185582671314478,1,0.5423640012741089,0.0,3.133466464078083e-07,0.0,False,True,False,False,False,False,0.16800576448440552,-0.0003909990191459656,0.00015173444990068674,0.0,-0.0005222512991167605,0.2905997633934021,0.0,0.0,0.001347570214420557,0.26662352681159973,0.0054427762515842915,1.0,0.42137038707733154,0.42137038707733154,0.39091619849205017,0.0,0.0,0.7506049871444702,False,0.2493949979543686
zero_steer,8,False,-3.478562831878662,0.0014924518764019012,3.9993801293473545,-2.2149453163146973,0.08983945846557617,-1.6164065599441528,0.13168686628341675,0.28888314962387085,0.16992664337158203,0.28888314962387085,0.0,5.777662992477417,0.0,-3.505737549858168e-05,0.00015755629283376038,6.124946230556816e-05,0.0014938738895580173,0.08984028548002243,0.13168740272521973,3.9993528085906744,3.9993529319763184,0.006801800336688757,0.002321820240467787,38.22106923685269,0.021627316251397133,2,0.5364066362380981,0.0,3.286369292254676e-07,0.0,False,True,False,False,False,False,0.19007034599781036,-0.00012353714555501938,-0.00017835843027569354,2.3657258907405776e-07,-0.00020799889171030372,0.28888314962387085,0.0,0.0,0.001867342391051352,0.26662352681159973,0.006633772049099207,1.0,0.4218425154685974,0.4218425154685974,0.3914131820201874,0.0,0.0,0.7480841279029846,False,0.2519158720970154
zero_steer,9,False,-3.4719715118408203,0.0019530244171619415,3.999355796798436,-2.2083539962768555,0.09029948711395264,-1.6098151206970215,0.13214664161205292,0.28887999057769775,0.16993698477745056,0.28887999057769775,0.0,5.777599811553955,0.0,-0.00015850247291382402,0.0002025844732997939,2.204100019298494e-05,0.0019545031245797873,0.09030034393072128,0.13214720785617828,3.99932762226811,3.9993276596069336,0.006521046627312899,0.006408750079572201,38.221045331190595,0.021627316251397133,2,0.5298151969909668,0.0,3.0674857498524943e-07,0.0,False,True,False,False,False,False,0.20748797059059143,-0.0003253556787967682,8.348183473572135e-05,1.5116276586013555e-07,-0.00024321403179783374,0.28887999057769775,0.0,0.0,0.002443128963932395,0.26662182807922363,0.01831071451306343,1.0,0.42443591356277466,0.42443591356277466,0.39414307475090027,0.0,0.0,0.7455010414123535,False,0.2544989287853241
zero_steer,10,False,-3.46486759185791,0.0024502500891685486,3.9993703109504226,-2.2012500762939453,0.09079702198505402,-1.6027113199234009,0.13264432549476624,0.28883832693099976,0.17000389099121094,0.28883832693099976,0.0,5.776766538619995,0.0,-0.00018665482639335096,0.0003859618736896664,9.965352364815772e-05,0.0024526112247258425,0.09079844504594803,0.13264530897140503,3.99932762226811,3.9993276596069336,0.01167385559529066,0.010814947076141834,38.22105899156894,0.021627316251397133,2,0.5227115154266357,0.0,3.676679796171811e-07,0.0,False,True,False,False,False,False,0.2217579334974289,0.00015649478882551193,-0.00027064987807534635,1.6721837425848207e-07,-0.00028646597638726234,0.28883832693099976,0.0,0.0,0.003065763972699642,0.26662182807922363,0.03089984878897667,1.0,0.4272339344024658,0.4272339344024658,0.39708834886550903,0.0,0.0,0.7427699565887451,False,0.2572300434112549
zero_steer,11,False,-3.4573521614074707,0.002975866198539734,3.999359211893021,-2.193734645843506,0.0913223996758461,-1.5951957702636719,0.13316959142684937,0.28906309604644775,0.17023640871047974,0.28906309604644775,0.0,5.781261920928955,0.0,-0.00043407303746789694,0.00038187988684512675,-2.6096575311385095e-05,0.0029791374690830708,0.09132441133260727,0.13317100703716278,3.9993020090587224,3.9993021488189697,0.015478857792913914,0.014896401204168797,53.09171611666943,0.0304144024848938,3,0.5151960849761963,0.0,5.314750524121337e-07,0.0,False,True,False,False,False,False,0.2331610918045044,-0.00027444586157798767,0.00030501355649903417,1.6347557618701103e-07,-0.0002660083118826151,0.28906309604644775,0.0,0.0,0.0037239217199385166,0.26662012934684753,0.04256114736199379,1.0,0.42986124753952026,0.42986124753952026,0.3998539447784424,0.0,0.0,0.7403751611709595,False,0.2596248388290405
zero_steer,12,False,-3.4495081901550293,0.0035249926149845123,3.9992951788695525,-2.1858906745910645,0.09187010675668716,-1.587351679801941,0.1337166279554367,0.28922465443611145,0.17040731012821198,0.28922465443611145,0.0,5.784493088722229,0.0,-0.0006837592809461057,0.0005922081181779504,-4.577558138407767e-05,0.0035287856590002775,0.09187248349189758,0.1337183266878128,3.9992311458460836,3.9992311000823975,0.021191123872995377,0.02118266373872757,53.09165122987232,0.0304144024848938,3,0.5073521137237549,0.0,5.99913107635075e-07,0.0,False,True,False,False,False,False,0.24194346368312836,0.00048228539526462555,-0.00030044515733607113,2.087048756038712e-07,-0.0005364546086639166,0.28922465443611145,0.0,0.0,0.004410982131958008,0.2666154205799103,0.06052189692854881,1.0,0.43375957012176514,0.43375957012176514,0.40395745635032654,0.0,0.0,0.7366477251052856,False,0.26335227489471436
zero_steer,13,False,-3.4414029121398926,0.0040926747024059296,3.999229011411968,-2.1777853965759277,0.09243634343147278,-1.5792462825775146,0.1342821717262268,0.28940004110336304,0.17062678933143616,0.28940004110336304,0.0,5.788000822067261,0.0,-0.001232607988640666,0.00077759416308254,-0.00022750691277906299,0.004096739925444126,0.09243891388177872,0.13428403437137604,3.999161136407091,3.9991612434387207,0.028125520795583725,0.026310645043849945,63.574915851047614,0.039061952382326126,4,0.49924659729003906,0.0,5.367472795114736e-07,0.0,False,True,False,False,False,False,0.24925529956817627,-0.0010196715593338013,0.000411037151934579,4.263912671831349e-07,-0.00021254312014207244,0.28940004110336304,0.0,0.0,0.005120924673974514,0.2666107416152954,0.0751732736825943,1.0,0.4370063543319702,0.4370063543319702,0.4073750972747803,0.0,0.0,0.7336204051971436,False,0.26637956500053406
zero_steer,14,False,-3.4330878257751465,0.004673585295677185,3.9993404288728036,-2.1694703102111816,0.09301970899105072,-1.5709314346313477,0.13486669957637787,0.2895272970199585,0.1706862449645996,0.2895272970199585,0.0,5.79054594039917,0.0,-0.0017062047263607383,0.0011316273594275117,-0.0002872886834666133,0.004678006283938885,0.09302248060703278,0.13486869633197784,3.99926615056558,3.9992661476135254,0.03434747830033302,0.0337754525244236,63.5750319642635,0.039061952382326126,4,0.49093174934387207,0.0,4.4982843405705353e-07,0.0,False,True,False,False,False,False,0.2551164925098419,-0.0005380772054195404,0.00035299279261380434,1.5856791435453488e-07,-0.00024239937192760408,0.2895272970199585,0.0,0.0,0.00584750808775425,0.2666177451610565,0.09650129824876785,1.0,0.4416033923625946,0.4416033923625946,0.41221410036087036,0.0,0.0,0.7290828227996826,False,0.270917147397995
zero_steer,15,False,-3.4246108531951904,0.0052685849368572235,3.999110336875139,-2.1609930992126465,0.09360963106155396,-1.5624538660049438,0.1354542225599289,0.2898460030555725,0.1708637923002243,0.2898460030555725,0.0,5.79692006111145,0.0,-0.0024442782159894705,0.0013157021021470428,-0.0005642880569212139,0.005273283459246159,0.09361255913972855,0.13545630872249603,3.9990300821523914,3.999030113220215,0.04145916551351547,0.04138336703181267,63.574799737831725,0.039061952382326126,4,0.48245418071746826,0.0,5.46388605471293e-07,0.0,False,True,False,False,False,False,0.25916174054145813,0.0006446726620197296,-0.00048206647625193,1.2061224197168485e-07,-6.0479549574665725e-05,0.2898460030555725,0.0,0.0,0.006591604091227055,0.2666020095348358,0.11823819577693939,1.0,0.44627559185028076,0.44627559185028076,0.4171321988105774,0.0,0.0,0.7245882153511047,False,0.27541178464889526
zero_steer,16,False,-3.416008949279785,0.005872394889593124,3.9987897448709715,-2.152390718460083,0.09420637786388397,-1.5538513660430908,0.1360476166009903,0.29009610414505005,0.171182781457901,0.29009610414505005,0.0,5.801922082901001,0.0,-0.0033547994680702686,0.00148000696208328,-0.0009373962529934943,0.0058769769966602325,0.094209223985672,0.13604962825775146,3.998711197695516,3.998711347579956,0.04912721738219261,0.04910266399383545,63.57447871894073,0.039061952382326126,4,0.4738515615463257,0.0,5.189043008613226e-07,0.0,False,True,False,False,False,False,0.2625463604927063,-0.0010747835040092468,0.0006965684588067234,2.504317819784774e-07,0.0004214820801280439,0.29009610414505005,0.0,0.0,0.007346221245825291,0.266580730676651,0.14029332995414734,1.0,0.45101267099380493,0.45101267099380493,0.422118604183197,0.0,0.0,0.7201701402664185,False,0.27982988953590393
zero_steer,17,False,-3.4073121547698975,0.006483722478151321,3.998300959458492,-2.143692970275879,0.09480691701173782,-1.5451533794403076,0.13664305210113525,0.29022908210754395,0.17129822075366974,0.29022908210754395,0.0,5.804581642150879,0.0,-0.004279786255210638,0.0014823758974671364,-0.0013987051788717508,0.006488489452749491,0.09480989724397659,0.13664516806602478,3.9982198509620983,3.9982199668884277,0.05715649202466011,0.05690610408782959,63.57399377550966,0.039061952382326126,4,0.4651535749435425,0.0,4.820536787519814e-07,0.0,False,True,False,False,False,False,0.2650071382522583,-0.0016977228224277496,0.0010005191434174776,2.94093212005464e-07,0.0001106749550672248,0.29022908210754395,0.0,0.0,0.008110611699521542,0.2665479779243469,0.16258887946605682,1.0,0.45579493045806885,0.45579493045806885,0.4271525740623474,0.0,0.0,0.7155032753944397,False,0.2844967246055603
zero_steer,18,False,-3.3985414505004883,0.0070984847843647,3.9978433367841015,-2.1349215507507324,0.09541158378124237,-1.5363816022872925,0.13724294304847717,0.29040729999542236,0.1713818907737732,0.29040729999542236,0.0,5.808145999908447,0.0,-0.00512522691860795,0.001700148219242692,-0.0017125393496826291,0.007103407755494118,0.09541463106870651,0.13724510371685028,3.9977583863062995,3.997758388519287,0.06479866057634354,0.06427185237407684,69.51441420234485,0.047984909266233444,5,0.45638179779052734,0.0,5.199497650210105e-07,0.0,False,True,False,False,False,False,0.2670770585536957,-0.0014195330440998077,0.0004706301842816174,5.848202135894098e-07,-0.0002842796384356916,0.29040729999542236,0.0,0.0,0.00887925922870636,0.2665172219276428,0.18363386392593384,1.0,0.4603302478790283,0.4603302478790283,0.43192657828330994,0.0,0.0,0.7110516428947449,False,0.2889483571052551
zero_steer,19,False,-3.3897147178649902,0.00771716982126236,3.997353697597976,-2.126094341278076,0.09601948410272598,-1.5275537967681885,0.1378457248210907,0.290449857711792,0.17152105271816254,0.290449857711792,0.0,5.80899715423584,0.0,-0.005897181108593941,0.0019007092341780663,-0.0019982359372079372,0.00772204902023077,0.09602248668670654,0.13784784078598022,3.997268747120174,3.9972686767578125,0.07274175435304642,0.0725565180182457,69.51392242872461,0.047984909266233444,5,0.4475541114807129,0.0,6.469306867984415e-07,0.0,False,True,False,False,False,False,0.26862964034080505,-0.0005466211587190628,1.3308024790603667e-05,3.816670641754172e-07,-0.0003200614592060447,0.290449857711792,0.0,0.0,0.009652561508119106,0.2664845883846283,0.20730434358119965,1.0,0.4653915762901306,0.4653915762901306,0.43725427985191345,0.0,0.0,0.7061294913291931,False,0.2938705086708069
zero_steer,20,False,-3.380845069885254,0.008341096341609955,3.9967752659526408,-2.1172237396240234,0.09663066267967224,-1.5186829566955566,0.13845086097717285,0.290769100189209,0.17181847989559174,0.290769100189209,0.0,5.81538200378418,0.0,-0.006586956791579723,0.0019265491282567382,-0.0023302037734538317,0.008345984853804111,0.09663369506597519,0.13845302164554596,3.9966911692484848,3.9966912269592285,0.08091343194246292,0.08088202029466629,69.51334186264516,0.047984909266233444,5,0.43868303298950195,0.0,3.941322006539849e-07,0.0,False,True,False,False,False,False,0.26959937810897827,-0.0015032757073640823,0.0006287472788244486,5.448511615213647e-07,1.1365977115929127e-05,0.290769100189209,0.0,0.0,0.010432480834424496,0.2664460837841034,0.23109149932861328,1.0,0.4704754948616028,0.4704754948616028,0.44260579347610474,0.0,0.0,0.7013429999351501,False,0.29865700006484985
zero_steer,21,False,-3.3719446659088135,0.008963625878095627,3.996182747042142,-2.1083223819732666,0.09724011272192001,-1.5097811222076416,0.13905411958694458,0.29092371463775635,0.1719750612974167,0.29092371463775635,0.0,5.818474292755127,0.0,-0.007164585404098034,0.0021666057873517275,-0.002498989924788475,0.008968641050159931,0.09724320471286774,0.13905629515647888,3.9960960890170476,3.996096134185791,0.0892503634095192,0.08923479914665222,69.51274763618737,0.047984909266233444,5,0.429781436920166,0.0,6.065796469556517e-07,0.0,False,True,False,False,False,False,0.2705312967300415,7.231906056404114e-05,-0.0004740566364489496,2.4590011094005604e-07,-0.0002787209814414382,0.29092371463775635,0.0,0.0,0.01121080107986927,0.26640641689300537,0.25495657324790955,1.0,0.47557348012924194,0.47557348012924194,0.4479720890522003,0.0,0.0,0.6964015960693359,False,0.30359840393066406
zero_steer,22,False,-3.363018751144409,0.00959021970629692,3.9956546880419355,-2.099395751953125,0.09785505384206772,-1.5008540153503418,0.13966354727745056,0.291210412979126,0.17222191393375397,0.291210412979126,0.0,5.8242082595825195,0.0,-0.007701064459979534,0.0023719649761915207,-0.0026645497418940067,0.009595128707587719,0.09785809367895126,0.13966570794582367,3.9955701644509567,3.995570182800293,0.09771623462438583,0.09761285781860352,69.51222171162128,0.047984909266233444,5,0.4208540916442871,0.0,3.9273061247513397e-07,0.0,False,True,False,False,False,False,0.2711004614830017,-0.00041888095438480377,-0.000268758914899081,3.3019657053046103e-07,-0.00032055648625828326,0.291210412979126,0.0,0.0,0.011993911117315292,0.26637133955955505,0.2788938879966736,1.0,0.4806910455226898,0.4806910455226898,0.4533590078353882,0.0,0.0,0.6915308833122253,False,0.30846911668777466
zero_steer,23,False,-3.3540759086608887,0.010217912495136261,3.99498746393739,-2.090451717376709,0.09846802055835724,-1.4919096231460571,0.14026954770088196,0.2913656234741211,0.1723727285861969,0.2913656234741211,0.0,5.827312469482422,0.0,-0.00809064507484436,0.002621655585244298,-0.002734494861215353,0.01022286992520094,0.09847107529640198,0.14027169346809387,3.9949012327991187,3.994901180267334,0.10607850551605225,0.10581596195697784,71.49564717489045,0.057234663516283035,6,0.411909818649292,0.0,5.16379486725782e-07,0.0,False,True,False,False,False,False,0.2717689871788025,-5.554407835006714e-05,-0.0002347824483877048,2.2749219397155684e-07,-0.0003127224335912615,0.2913656234741211,0.0,0.0,0.012778587639331818,0.26632675528526306,0.3023313283920288,1.0,0.4857032895088196,0.4857032895088196,0.45863503217697144,0.0,0.0,0.6866694688796997,False,0.3133305609226227
zero_steer,24,False,-3.3451170921325684,0.010847147554159164,3.994274989829593,-2.0814919471740723,0.09908156096935272,-1.4829492568969727,0.14087563753128052,0.2914547920227051,0.1725529432296753,0.2914547920227051,0.0,5.829095840454102,0.0,-0.008460940793156624,0.0028633512556552887,-0.0027987947687506676,0.010851902887225151,0.09908450394868851,0.14087772369384766,3.9941926006727297,3.994192600250244,0.110318623483181,0.0,3.994275416716416,0.12531575560569763,13,0.4029494524002075,0.0,4.4928486886419705e-07,0.0,False,True,False,False,False,False,0.2721765637397766,0.00011683814227581024,-0.00038273324025794864,2.58479303738568e-07,-0.0001347633369732648,0.2914547920227051,0.0,0.0,0.013564879074692726,0.26627951860427856,0.0,0.2662850320339203,0.2421320676803589,0.2421320676803589,0.20224429666996002,0.0,0.0,0.9304208755493164,False,0.0695791244506836
zero_steer,25,False,-3.3361339569091797,0.011477705091238022,3.9933627326885732,-2.072507381439209,0.09969199448823929,-1.473963975906372,0.14147654175758362,0.3300347328186035,0.22086969017982483,0.3300347328186035,0.0,6.60069465637207,0.0,-0.008894742466509342,0.0028633379843086004,-0.003015702124685049,0.011482784524559975,0.0996951088309288,0.1414787322282791,3.99327351334254,3.9932734966278076,0.11508218199014664,0.0,3.9933627326885732,0.12531575560569763,13,0.39396417140960693,0.0,5.478125331137562e-07,0.0,False,True,False,False,False,False,0.27267390489578247,-0.00042330287396907806,4.3043204641435295e-05,2.436138117900555e-07,-0.000407000829000026,0.3300347328186035,0.0,0.0,0.014353480190038681,0.26621824502944946,0.0,0.2662241756916046,0.24243274331092834,0.24243274331092834,0.20256079733371735,0.0,0.0,0.9784369468688965,False,0.021563053131103516
zero_steer,26,False,-3.3271355628967285,0.012109622359275818,3.9925324378175935,-2.063507556915283,0.10030559450387955,-1.464963674545288,0.14208146929740906,0.3319888710975647,0.2231244593858719,0.3319888710975647,0.0,6.639777421951294,0.0,-0.00919234100729227,0.0029881068039685488,-0.0031021172180771828,0.012114240787923336,0.10030845552682877,0.14208349585533142,3.992452609981669,3.992452621459961,0.12034314125776291,0.0,3.9925324378175935,0.12531575560569763,13,0.38496387004852295,0.0,4.769093493450782e-07,0.0,False,True,False,False,False,False,0.2730025351047516,-0.00021419301629066467,1.6157446225406602e-05,2.5236894884983485e-07,-3.026392005267553e-05,0.3319888710975647,0.0,0.0,0.015142801217734814,0.26616349816322327,0.0,0.26616883277893066,0.24273928999900818,0.24273928999900818,0.20288346707820892,0.0,0.0,0.9803851842880249,False,0.01961483061313629
zero_steer,27,False,-3.318126916885376,0.012742996215820312,3.991668418887587,-2.054497718811035,0.10091991722583771,-1.4559531211853027,0.14268676936626434,0.33212608098983765,0.2232767790555954,0.33212608098983765,0.0,6.642521619796753,0.0,-0.009442896582186222,0.0031150742433965206,-0.0031639111693948507,0.012747702188789845,0.10092279314994812,0.1426887810230255,3.9915851759570775,3.9915852546691895,0.12603746354579926,0.0,3.991668418887587,0.12531575560569763,13,0.3759533166885376,0.0,4.848985213357082e-07,0.0,False,True,False,False,False,False,0.27332475781440735,0.00016475655138492584,-0.00040556275052949786,2.3265984339104762e-07,-0.0001503678213339299,0.33212608098983765,0.0,0.0,0.015934627503156662,0.26610568165779114,0.0,0.26611122488975525,0.2430444359779358,0.2430444359779358,0.2032046765089035,0.0,0.0,0.9802323579788208,False,0.019767656922340393
zero_steer,28,False,-3.309108257293701,0.013377727940678596,3.990712192403785,-2.0454776287078857,0.10153355449438095,-1.446932315826416,0.1432904154062271,0.3322001099586487,0.2234354168176651,0.3322001099586487,0.0,6.644002199172974,0.0,-0.00965990498661995,0.0031624489929527044,-0.0032487278804183006,0.013382825069129467,0.10153665393590927,0.14329256117343903,3.9906216923972826,3.99062180519104,0.13211023807525635,0.0,3.990711765516962,0.12531575560569763,13,0.3669325113296509,0.0,5.524396442524449e-07,0.0,False,True,False,False,False,False,0.27351003885269165,-0.0005413256585597992,0.00018378865206614137,2.746005236531346e-07,-7.767270290059969e-05,0.3322001099586487,0.0,0.0,0.016728531569242477,0.26604145765304565,0.0,0.2660474479198456,0.24334487318992615,0.24334487318992615,0.20352092385292053,0.0,0.0,0.9800905585289001,False,0.019909456372261047
zero_steer,29,False,-3.300083875656128,0.01400996558368206,3.9896953479910993,-2.036451578140259,0.10214336961507797,-1.4379055500030518,0.14388960599899292,0.3322449326515198,0.2235114425420761,0.3322449326515198,0.0,6.6448986530303955,0.0,-0.009772216901183128,0.0032978246454149485,-0.0032371962442994118,0.014014851301908493,0.10214631259441376,0.14389163255691528,3.9896069824187124,3.989607095718384,0.13064302504062653,0.10214278846979141,3.9896953479910993,0.27109628915786743,15,0.3579059839248657,0.0,6.787167308175412e-07,0.0,False,True,False,False,False,False,0.273607075214386,-0.0005138404667377472,7.771592208882794e-05,3.054075818909041e-07,-0.0003015624824911356,0.3322449326515198,0.0,0.0,0.01751856505870819,0.2659738063812256,0.29183655977249146,0.26597967743873596,0.3020077347755432,0.3020077347755432,0.26527130603790283,0.0,0.0,0.9215037226676941,False,0.0784962922334671
zero_steer,30,False,-3.291063070297241,0.014643071219325066,3.9886703927287743,-2.0274291038513184,0.10275387763977051,-1.4288824796676636,0.14448940753936768,0.3335811495780945,0.2249443531036377,0.3335811495780945,0.0,6.67162299156189,0.0,-0.009632622823119164,0.0035045526456087828,-0.0030640349723398685,0.014648005366325378,0.10275687277317047,0.14449147880077362,3.9885820271563874,3.988582134246826,0.1257151961326599,0.10275328904390335,3.9886703927287743,0.27109628915786743,15,0.3488825559616089,0.0,3.805376422860718e-07,0.0,False,True,False,False,False,False,0.2734602093696594,-0.00018927082419395447,-0.0002600735751911998,3.2218878232015413e-07,-0.00022542965598404408,0.3335811495780945,0.0,0.0,0.018310006707906723,0.2659054696559906,0.2935808300971985,0.26591137051582336,0.3026522099971771,0.3026522099971771,0.26594969630241394,0.007449586875736713,0.0019812153186649084,0.9222921133041382,False,0.07770785689353943
zero_steer,31,False,-3.28204607963562,0.015277877449989319,3.9875890884057967,-2.0184104442596436,0.10336482524871826,-1.419862985610962,0.1450890600681305,0.3336288630962372,0.22503317892551422,0.3336288630962372,0.0,6.672577261924744,0.0,-0.009659935720264912,0.003596889553591609,-0.0030315229669213295,0.015282941050827503,0.1033678874373436,0.14509117603302002,3.987498161512471,3.9874982833862305,0.12126480042934418,0.1033642366528511,3.9875890884057967,0.27109628915786743,15,0.3398631811141968,0.0,5.52548215182469e-07,0.0,False,True,False,False,False,False,0.2735031545162201,-0.0010188724845647812,0.0004938074853271246,2.909405907303153e-07,-0.00029824167722836137,0.3336288630962372,0.0,0.0,0.019103676080703735,0.26583319902420044,0.2953264117240906,0.26583927869796753,0.30329447984695435,0.30329447984695435,0.2666257619857788,0.0675787478685379,0.01801823452115059,0.9217386841773987,False,0.07826130092144012
zero_steer,32,False,-3.273027181625366,0.015911318361759186,3.9864898548362477,-2.009389877319336,0.10397402942180634,-1.410841703414917,0.1456867754459381,0.33365654945373535,0.22494708001613617,0.33365654945373535,0.0,6.673130989074707,0.0,-0.009633086621761322,0.003731361124664545,-0.0029508627485483885,0.015916334465146065,0.10397703945636749,0.14568883180618286,3.986399354829745,3.9863994121551514,0.11734069883823395,0.10397343337535858,3.9864898548362477,0.27109628915786743,15,0.33084213733673096,0.0,6.812163633185264e-07,0.0,False,True,False,False,False,False,0.27338075637817383,-0.0004627704620361328,1.0545420991547871e-05,3.0952963925301447e-07,7.482792716473341e-05,0.33365654945373535,0.0,0.0,0.019895417615771294,0.2657599449157715,0.29706695675849915,0.2657659947872162,0.3039339482784271,0.3039339482784271,0.2672988772392273,0.12771904468536377,0.034139156341552734,0.9210131168365479,False,0.07898686826229095
zero_steer,33,False,-3.2640156745910645,0.016543874517083168,3.985350067018502,-2.0003767013549805,0.10458145290613174,-1.4018275737762451,0.14628230035305023,0.33379507064819336,0.22501905262470245,0.33379507064819336,0.0,6.675901412963867,0.0,-0.009518908336758614,0.003941614646464586,-0.0027886468451470137,0.016548672690987587,0.10458437353372574,0.1462843269109726,3.985264262767054,3.985264301300049,0.11400136351585388,0.10458085685968399,3.985350067018502,0.27109628915786743,15,0.32182776927948,0.0,4.798899340130447e-07,0.0,False,True,False,False,False,False,0.27308928966522217,-0.00016186200082302094,-0.0002636271819937974,3.2714370945541305e-07,-0.00034062162740156054,0.33379507064819336,0.0,0.0,0.020685840398073196,0.2656842768192291,0.2988024652004242,0.26568999886512756,0.30456963181495667,0.30456963181495667,0.2679680287837982,0.1878148317337036,0.050328370183706284,0.920449435710907,False,0.07955057919025421
zero_steer,34,False,-3.2550132274627686,0.017176810652017593,3.984003665978363,-1.9913721084594727,0.10518468916416168,-1.392822027206421,0.14687146246433258,0.33377158641815186,0.22500033676624298,0.33377158641815186,0.0,6.675431728363037,0.0,-0.009477228857576847,0.0040548075921833515,-0.0027112106326967478,0.017181552946567535,0.1051875501871109,0.14687344431877136,3.9839191423873843,3.983919143676758,0.11129572242498398,0.10518408566713333,3.984003665978363,0.27109628915786743,15,0.31282222270965576,0.0,4.86090243612125e-07,0.0,False,True,False,False,False,False,0.2729438245296478,-0.0016023293137550354,0.0015509366057813168,0.0,-0.0017654909752309322,0.33377158641815186,0.0,0.0,0.02147694118320942,0.26559460163116455,0.300525963306427,0.2656002342700958,0.3051908016204834,0.3051908016204834,0.26862189173698425,0.24785180389881134,0.06657841801643372,0.9198095202445984,False,0.08019046485424042
zero_steer,35,False,-3.2460172176361084,0.01780897192656994,3.9827772201355227,-1.9823743104934692,0.10578980296850204,-1.383823275566101,0.14746376872062683,0.3338046371936798,0.22499971091747284,0.3338046371936798,0.0,6.676092743873596,0.0,-0.009395682252943516,0.004251422826200724,-0.002572129713371396,0.017813557758927345,0.10579259693622589,0.14746570587158203,3.982696111639129,3.982696056365967,0.10927408933639526,0.1057891994714737,3.9827772201355227,0.27109628915786743,15,0.3038233518600464,0.0,4.1798162442319153e-07,0.0,False,True,False,False,False,False,0.27269449830055237,-0.00027423538267612457,0.0005316913593560457,0.0,-0.0007067713886499405,0.3338046371936798,0.0,0.0,0.022266946732997894,0.2655130624771118,0.302254855632782,0.2655184864997864,0.3058198094367981,0.3058198094367981,0.2692840099334717,0.30784428119659424,0.08289754390716553,0.9191799163818359,False,0.08082009851932526
zero_steer,36,False,-3.2370247840881348,0.01844087801873684,3.9815234535360022,-1.9733798503875732,0.10639404505491257,-1.3748279809951782,0.14805491268634796,0.33383995294570923,0.22502587735652924,0.33383995294570923,0.0,6.676799058914185,0.0,-0.009350528009235859,0.004387363791465759,-0.00248158210888505,0.018445737659931183,0.10639695823192596,0.14805689454078674,3.9814350879636153,3.9814350605010986,0.10796993225812912,0.10639343410730362,3.9815234535360022,0.27109628915786743,15,0.29482829570770264,0.0,5.532821205633809e-07,0.0,False,True,False,False,False,False,0.2725510895252228,-9.849295020103455e-05,-0.00039097058470360935,2.2462143078882946e-07,-0.0001377047155983746,0.33383995294570923,0.0,0.0,0.02305717207491398,0.26542899012565613,0.3039812445640564,0.2654348909854889,0.3064463138580322,0.3064463138580322,0.2699434757232666,0.36781132221221924,0.09928826987743378,0.9185795783996582,False,0.08142043650150299
zero_steer,37,False,-3.2280304431915283,0.01907346583902836,3.9801241185297958,-1.9643833637237549,0.10699578374624252,-1.365830421447754,0.14864203333854675,0.3339303135871887,0.22512447834014893,0.3339303135871887,0.0,6.678606271743774,0.0,-0.009338435716927052,0.004470286425203085,-0.0024340746458619833,0.01907828263938427,0.10699865967035294,0.14864400029182434,3.9800366067310553,3.980036735534668,0.10740642994642258,0.10699517279863358,3.9801241185297958,0.27109628915786743,15,0.28583061695098877,0.0,4.950194352204562e-07,0.0,False,True,False,False,False,False,0.27271410822868347,-0.0005744490772485733,4.612209158949554e-05,0.0,-5.0129907322116196e-05,0.3339303135871887,0.0,0.0,0.023847853764891624,0.2653357684612274,0.30570051074028015,0.2653416097164154,0.30706334114074707,0.30706334114074707,0.27059298753738403,0.4277958273887634,0.11575855314731598,0.9180611371994019,False,0.08193886280059814
zero_steer,38,False,-3.2190349102020264,0.019705919548869133,3.978800342491283,-1.9553859233856201,0.10759904235601425,-1.3568320274353027,0.1492314636707306,0.33396145701408386,0.22508575022220612,0.33396145701408386,0.0,6.679229140281677,0.0,-0.009415565989911556,0.004606091417372227,-0.0024047372862696648,0.019710373133420944,0.10760173201560974,0.14923331141471863,3.9787205146553584,3.9787206649780273,0.10759973526000977,0.10759842395782471,3.978800769378106,0.27109628915786743,15,0.27683234214782715,0.0,5.675621537193365e-07,0.0,False,True,False,False,False,False,0.2727760076522827,-0.0003211256116628647,-0.0001446445530746132,3.9974412402443704e-07,-0.0002786729601211846,0.33396145701408386,0.0,0.0,0.024637967348098755,0.26524803042411804,0.30742406845092773,0.2652533948421478,0.3076857626438141,0.3076857626438141,0.2712481617927551,0.48778432607650757,0.13231059908866882,0.9174000024795532,False,0.08260001242160797
zero_steer,39,False,-3.2100374698638916,0.02033820003271103,3.977392896635437,-1.9463863372802734,0.10820028185844421,-1.34783136844635,0.14981800317764282,0.3339483141899109,0.22518479824066162,0.3339483141899109,0.0,6.678966283798218,0.0,-0.009344439953565598,0.004742909222841263,-0.0023007653653621674,0.020342672243714333,0.10820295661687851,0.14981982111930847,3.97731136125222,3.977311372756958,0.10854261368513107,0.10819966346025467,3.9773933235222603,0.27109628915786743,15,0.2678314447402954,0.0,4.2641383402042266e-07,0.0,False,True,False,False,False,False,0.27241194248199463,-3.622099757194519e-05,-0.0001906053366838023,0.0,-0.00031587600824423134,0.3339483141899109,0.0,0.0,0.02542833983898163,0.265154093503952,0.3091419041156769,0.265159547328949,0.30830174684524536,0.30830174684524536,0.2718965709209442,0.5477902889251709,0.14894230663776398,0.9168830513954163,False,0.08311694860458374
zero_steer,40,False,-3.2010483741760254,0.020969459787011147,3.975889401244388,-1.9373948574066162,0.10879838466644287,-1.338838815689087,0.15040040016174316,0.333989679813385,0.22523434460163116,0.333989679813385,0.0,6.6797935962677,0.0,-0.0094076506793499,0.004826806485652924,-0.002290422096848488,0.0209736917167902,0.10880094766616821,0.15040215849876404,3.9758138422766947,3.975813865661621,0.11021359264850616,0.10879775881767273,3.975889401244388,0.27109628915786743,15,0.2588390111923218,0.0,4.1734634237400314e-07,0.0,False,True,False,False,False,False,0.2724933326244354,-0.000519145280122757,4.8982645239448175e-05,2.970483876651997e-07,-0.00026038382202386856,0.333989679813385,0.0,0.0,0.026217114180326462,0.26505425572395325,0.31085073947906494,0.26505929231643677,0.30890992283821106,0.30890992283821106,0.2725367546081543,0.6077398657798767,0.16563144326210022,0.9163244366645813,False,0.0836755782365799
zero_steer,41,False,-3.1920547485351562,0.02160213515162468,3.974454207745039,-1.9283990859985352,0.10939940065145493,-1.3298419713974,0.1509864181280136,0.3339961767196655,0.22523051500320435,0.3339961767196655,0.0,6.6799235343933105,0.0,-0.00940170232206583,0.004961557220667601,-0.002220072550699115,0.02160685695707798,0.10940220206975937,0.15098831057548523,3.9743675497199447,3.974367618560791,0.11258705705404282,0.10939877480268478,3.974454207745039,0.27109628915786743,15,0.24984228610992432,0.0,5.537660285881429e-07,0.0,False,True,False,False,False,False,0.27266547083854675,-0.00011137127876281738,0.00010842371557373554,1.087969536683886e-07,0.00012201150821056217,0.3339961767196655,0.0,0.0,0.027008570730686188,0.26495784521102905,0.31256794929504395,0.2649635970592499,0.309524267911911,0.309524267911911,0.2731834352016449,0.6677180528640747,0.18240951001644135,0.9157062768936157,False,0.08429375290870667
zero_steer,42,False,-3.1830599308013916,0.022234488278627396,3.972960530750922,-1.9194018840789795,0.10999881476163864,-1.3208438158035278,0.15157023072242737,0.3339802622795105,0.2252335101366043,0.3339802622795105,0.0,6.67960524559021,0.0,-0.00946600828319788,0.0050982083193957806,-0.0021838999819010496,0.02223917655646801,0.11000160872936249,0.1515721082687378,3.9728742996126507,3.972874402999878,0.11561564356088638,0.1099981889128685,3.972960957637745,0.27109628915786743,15,0.2408440113067627,0.0,4.58009139947535e-07,0.0,False,True,False,False,False,False,0.2726297676563263,0.00017303414642810822,-0.00015026902838144451,1.1474734407102005e-07,0.00028239478706382215,0.3339802622795105,0.0,0.0,0.0277989711612463,0.26485827565193176,0.31428053975105286,0.264864057302475,0.31013426184654236,0.31013426184654236,0.2738255262374878,0.7277065515518188,0.19926463067531586,0.9150992631912231,False,0.08490075170993805
zero_steer,43,False,-3.1740665435791016,0.02286558784544468,3.9713225660105884,-1.9104061126708984,0.11059379577636719,-1.3118467330932617,0.15214809775352478,0.33393657207489014,0.22519324719905853,0.33393657207489014,0.0,6.678731441497803,0.0,-0.009531495161354542,0.005180689971894026,-0.002175402594730258,0.022870531305670738,0.11059672385454178,0.15215006470680237,3.971230785343616,3.9712307453155518,0.11924603581428528,0.11059316247701645,3.9713225660105884,0.27109628915786743,15,0.23184692859649658,0.0,4.648074707347405e-07,0.0,False,True,False,False,False,False,0.27261871099472046,-0.0003970414400100708,-1.3632906302518677e-05,3.431065920267429e-07,-0.0001377792505081743,0.33393657207489014,0.0,0.0,0.02858816459774971,0.2647487223148346,0.315980464220047,0.2647548317909241,0.310732364654541,0.310732364654541,0.27445513010025024,0.7876870632171631,0.21618475019931793,0.9144608974456787,False,0.08553911745548248
zero_steer,44,False,-3.165071487426758,0.023497430607676506,3.9697652828798256,-1.9014085531234741,0.1111912801861763,-1.3028481006622314,0.1527293175458908,0.33388519287109375,0.2252010852098465,0.33388519287109375,0.0,6.677703857421875,0.0,-0.009543199092149734,0.005322199780493975,-0.00211049965582788,0.023502027615904808,0.11119402945041656,0.15273118019104004,3.9696811861756696,3.9696812629699707,0.12343242019414902,0.11119064688682556,3.9697652828798256,0.27109628915786743,15,0.2228482961654663,0.0,5.080839855509112e-07,0.0,False,True,False,False,False,False,0.2727333903312683,-0.00010823085904121399,-5.99168879489298e-06,3.426864054745238e-07,1.8960708985105157e-05,0.33388519287109375,0.0,0.0,0.029377534985542297,0.26464539766311646,0.3176875710487366,0.26465103030204773,0.31133735179901123,0.31133735179901123,0.2750919461250305,0.8476779460906982,0.23318937420845032,0.9138637185096741,False,0.08613626658916473
zero_steer,45,False,-3.1560745239257812,0.02412925846874714,3.9681298794604305,-1.892409086227417,0.11178703606128693,-1.2938474416732788,0.1533079892396927,0.33392274379730225,0.2252132147550583,0.33392274379730225,0.0,6.678454875946045,0.0,-0.009548192843794823,0.005454269703477621,-0.002046961570158601,0.024133922532200813,0.11178980767726898,0.1533098667860031,3.968043648322159,3.968043804168701,0.12811706960201263,0.11178639531135559,3.9681298794604305,0.27109628915786743,15,0.21384775638580322,0.0,5.701928103007958e-07,0.0,False,True,False,False,False,False,0.27267763018608093,3.47774475812912e-05,-0.0006085733184590936,1.0188713872594235e-07,0.00041994472849182785,0.33392274379730225,0.0,0.0,0.03016740269958973,0.2645362317562103,0.3193897008895874,0.26454198360443115,0.31193649768829346,0.31193649768829346,0.2757226228713989,0.9076815843582153,0.2502683401107788,0.913276731967926,False,0.08672328293323517
zero_steer,46,False,-3.147078514099121,0.024760713800787926,3.966394157637601,-1.8834104537963867,0.11238022148609161,-1.284847617149353,0.15388303995132446,0.3340389132499695,0.22527407109737396,0.3340389132499695,0.0,6.68077826499939,0.0,-0.009564870037138462,0.005545396823436022,-0.00200973660685122,0.024765606969594955,0.11238310486078262,0.15388497710227966,3.966303230744275,3.9663033485412598,0.13324563205242157,0.11237958073616028,3.966394584524424,0.27109628915786743,15,0.20484793186187744,0.0,5.466060315484356e-07,0.0,False,True,False,False,False,False,0.27260762453079224,-0.00040998682379722595,-0.0002246824442408979,8.774632220820422e-08,0.0001428890973329544,0.3340389132499695,0.0,0.0,0.03095700964331627,0.26442021131515503,0.32108452916145325,0.2644262909889221,0.3125280737876892,0.3125280737876892,0.2763453423976898,0.9676803946495056,0.2674139738082886,0.912746012210846,False,0.08725400269031525
zero_steer,47,False,-3.1380836963653564,0.02539242058992386,3.964735275442934,-1.874413013458252,0.11297532916069031,-1.2758489847183228,0.1544608175754547,0.33417385816574097,0.2253873348236084,0.33417385816574097,0.0,6.683477163314819,0.0,-0.009606369771063328,0.0056847818195819855,-0.001960793975740671,0.025397006422281265,0.11297804117202759,0.15446262061595917,3.964649898078309,3.9646499156951904,0.1387721598148346,0.11297468096017838,3.964735275442934,0.27109628915786743,15,0.19584929943084717,0.0,5.431262479760335e-07,0.0,False,True,False,False,False,False,0.2727077901363373,-0.00014753639698028564,-0.00031807119376026094,2.760664017387171e-07,-0.0003471901873126626,0.33417385816574097,0.0,0.0,0.03174625709652901,0.26431000232696533,0.32278481125831604,0.2643156945705414,0.31312552094459534,0.31312552094459534,0.27697423100471497,1.0,0.27697423100471497,0.9122618436813354,False,0.08773818612098694
zero_steer,48,False,-3.129087209701538,0.026023348793387413,3.9630187635271454,-1.865414023399353,0.11356839537620544,-1.2668486833572388,0.15503594279289246,0.33410632610321045,0.22549225389957428,0.33410632610321045,0.0,6.682126522064209,0.0,-0.009604088962078094,0.005825817584991455,-0.0018891356885433197,0.026027878746390343,0.11357105523347855,0.15503771603107452,3.962933813049343,3.9629337787628174,0.14210326969623566,0.11356774717569351,3.9630187635271454,0.41687700152397156,16,0.18684875965118408,0.0,4.2964151703017706e-07,0.0,False,True,False,False,False,False,0.27278777956962585,6.545707583427429e-05,-0.0006736628129146993,1.6306196926052507e-07,0.00015416265523526818,0.33410632610321045,0.0,0.0,0.032534848898649216,0.26419559121131897,0.32447928190231323,0.26420125365257263,0.31371793150901794,0.31371793150901794,0.2775978147983551,1.0,0.2775978147983551,0.9117743372917175,False,0.08822567760944366
zero_steer,49,False,-3.120089054107666,0.026655254885554314,3.9611669284884257,-1.8564131259918213,0.1141594797372818,-1.2578463554382324,0.1556076854467392,0.3342159390449524,0.22555312514305115,0.3342159390449524,0.0,6.684318780899048,0.0,-0.00963432714343071,0.005911748390644789,-0.0018612893763929605,0.026659972965717316,0.11416223645210266,0.15560950338840485,3.9610781360292155,3.96107816696167,0.13737305998802185,0.11415882408618927,3.9611669284884257,0.41687700152397156,16,0.17784655094146729,0.0,5.224383698987367e-07,0.0,False,True,False,False,False,False,0.27274617552757263,-0.00039946846663951874,-0.00032261019805446267,2.9674657753275824e-07,0.0002418126241536811,0.3342159390449524,0.0,0.0,0.033324964344501495,0.26407188177108765,0.32616809010505676,0.2640777826309204,0.31430166959762573,0.31430166959762573,0.2782122790813446,1.0,0.2782122790813446,0.911251425743103,False,0.08874854445457458
zero_steer,50,False,-3.1110928058624268,0.027286866679787636,3.9593646123211883,-1.8474140167236328,0.11475133150815964,-1.2488460540771484,0.1561807096004486,0.334277868270874,0.2255929559469223,0.334277868270874,0.0,6.6855573654174805,0.0,-0.009624014608561993,0.00605413131415844,-0.0017849416472017765,0.02729129046201706,0.11475393176078796,0.1561824381351471,3.959281796277502,3.9592819213867188,0.1330883949995041,0.11475067585706711,3.9593646123211883,0.41687700152397156,16,0.1688462495803833,0.0,5.418745558927185e-07,0.0,False,True,False,False,False,False,0.27270984649658203,-0.00010681338608264923,-0.0003704817791003734,2.820462157160364e-07,-0.00010108237620443106,0.334277868270874,0.0,0.0,0.03411411494016647,0.2639521062374115,0.3278590738773346,0.2639576494693756,0.31488874554634094,0.31488874554634094,0.27883026003837585,1.0,0.27883026003837585,0.9107041954994202,False,0.08929578959941864
zero_steer,51,False,-3.1020965576171875,0.027918608859181404,3.957538390491856,-1.8384150266647339,0.11534279584884644,-1.2398457527160645,0.15675309300422668,0.3343057632446289,0.22567059099674225,0.3343057632446289,0.0,6.686115264892578,0.0,-0.009676325134932995,0.006194837857037783,-0.001740743638947606,0.027923505753278732,0.11534567177295685,0.1567550152540207,3.9574474635985304,3.9574475288391113,0.12929144501686096,0.11534213274717331,3.9575388173786794,0.41687700152397156,16,0.15984594821929932,0.0,4.2153305912506767e-07,0.0,False,True,False,False,False,False,0.27270764112472534,0.0001821182668209076,-0.0005271345726214349,2.91441381250479e-07,0.00013692484935745597,0.3343057632446289,0.0,0.0,0.03490438312292099,0.2638298273086548,0.3295489549636841,0.2638359069824219,0.31547412276268005,0.31547412276268005,0.27944645285606384,1.0,0.27944645285606384,0.9101964831352234,False,0.0898035317659378
zero_steer,52,False,-3.093104600906372,0.028549592941999435,3.9556092889381507,-1.8294200897216797,0.11593122780323029,-1.2308493852615356,0.15732137858867645,0.33431655168533325,0.2256699651479721,0.33431655168533325,0.0,6.686331033706665,0.0,-0.009499937295913696,0.006283670198172331,-0.0016081335488706827,0.02855411171913147,0.1159338727593422,0.15732313692569733,3.9555243384603487,3.955524444580078,0.12602537870407104,0.11593056470155716,3.9556092889381507,0.41687700152397156,16,0.15084969997406006,0.0,5.70626013995934e-07,0.0,False,True,False,False,False,False,0.27234315872192383,-0.0002831704914569855,-0.00021481529984157532,2.623036152726854e-07,-0.00015366484876722097,0.33431655168533325,0.0,0.0,0.03569263964891434,0.2637016177177429,0.33123019337654114,0.2637072801589966,0.3160513937473297,0.3160513937473297,0.28005409240722656,1.0,0.28005409240722656,0.9096185564994812,False,0.0903814285993576
zero_steer,53,False,-3.084120988845825,0.029179474338889122,3.953713057669826,-1.8204336166381836,0.11651928722858429,-1.221861481666565,0.15788961946964264,0.3342666029930115,0.2256159484386444,0.3342666029930115,0.0,6.6853320598602295,0.0,-0.009474698454141617,0.0064211320132017136,-0.0015267832204699516,0.029184458777308464,0.11652221530675888,0.15789157152175903,3.9536199963423844,3.953619956970215,0.12333541363477707,0.11651862412691116,3.953712630783003,0.41687700152397156,16,0.14186155796051025,0.0,4.187640456621011e-07,0.0,False,True,False,False,False,False,0.2723403871059418,-0.00014136172831058502,-0.0006035589030943811,9.09981920926839e-08,0.00043806195026263595,0.3342666029930115,0.0,0.0,0.03648057207465172,0.26357465982437134,0.33291035890579224,0.2635808289051056,0.3166296184062958,0.3166296184062958,0.28066274523735046,1.0,0.28066274523735046,0.9089863300323486,False,0.09101366996765137
zero_steer,54,False,-3.075136184692383,0.02980968914926052,3.951772003285073,-1.811445713043213,0.11710668355226517,-1.2128722667694092,0.1584567427635193,0.3342703580856323,0.22563739120960236,0.3342703580856323,0.0,6.6854071617126465,0.0,-0.009450148791074753,0.006564651150256395,-0.0014427488204091787,0.029814334586262703,0.11710939556360245,0.15845853090286255,3.9516849183731555,3.9516849517822266,0.12125514447689056,0.11710601300001144,3.951772003285073,0.41687700152397156,16,0.1328725814819336,0.0,5.986667019897141e-07,0.0,False,True,False,False,False,False,0.27229976654052734,0.00016839802265167236,-0.0008674372802488506,2.734410315952118e-07,0.0003057760768570006,0.3342703580856323,0.0,0.0,0.03726791962981224,0.263445645570755,0.3345886170864105,0.2634514570236206,0.31720516085624695,0.31720516085624695,0.2812685966491699,1.0,0.2812685966491699,0.9084322452545166,False,0.09156776964664459
zero_steer,55,False,-3.066153049468994,0.03043905273079872,3.949636288508975,-1.8024593591690063,0.11768895387649536,-1.2038843631744385,0.1590166985988617,0.33424368500709534,0.22563426196575165,0.33424368500709534,0.0,6.684873700141907,0.0,-0.009488298557698727,0.006663779728114605,-0.0014122594147920609,0.0304438304156065,0.11769173294305801,0.15901853144168854,3.949545788502472,3.9495458602905273,0.11981283128261566,0.11768828332424164,3.949636288508975,0.41687700152397156,16,0.12388455867767334,0.0,4.827407451557519e-07,0.0,False,True,False,False,False,False,0.2722351551055908,-0.0001317150890827179,-0.00010004621435655281,2.8963788167857274e-07,7.345614721998572e-05,0.33424368500709534,0.0,0.0,0.03805478662252426,0.2633030414581299,0.33625224232673645,0.2633090913295746,0.3177657127380371,0.3177657127380371,0.2818586528301239,1.0,0.2818586528301239,0.9078685641288757,False,0.09213145077228546
zero_steer,56,False,-3.0571703910827637,0.03106973133981228,3.947662363838841,-1.793473720550537,0.11827608942985535,-1.1948972940444946,0.1595832109451294,0.3343442380428314,0.22573144733905792,0.3343442380428314,0.0,6.686884760856628,0.0,-0.009487747214734554,0.006801910698413849,-0.0013429182581603527,0.031074151396751404,0.11827865242958069,0.1595848947763443,3.9475786940215083,3.9475786685943604,0.1190410628914833,0.11827541142702103,3.947662363838841,0.41687700152397156,16,0.11489748954772949,0.0,5.116017973705311e-07,0.0,False,True,False,False,False,False,0.2725248336791992,-3.8798898458480835e-05,-0.0005479654646478593,1.198759491671808e-07,1.5956407878547907e-05,0.3343442380428314,0.0,0.0,0.038842689245939255,0.263171911239624,0.33792975544929504,0.2631774842739105,0.31833943724632263,0.31833943724632263,0.28246256709098816,1.0,0.28246256709098816,0.9073920249938965,False,0.09260798990726471
zero_steer,57,False,-3.0481858253479004,0.03169944882392883,3.945572325952817,-1.7844860553741455,0.11885972321033478,-1.1859080791473389,0.16014501452445984,0.3342812657356262,0.22573424875736237,0.3342812657356262,0.0,6.685625314712524,0.0,-0.009409810416400433,0.00695469556376338,-0.0012275574263185263,0.031704265624284744,0.11886251717805862,0.16014684736728668,3.945480545285845,3.9454805850982666,0.11894434690475464,0.11885904520750046,3.945572325952817,0.41687700152397156,16,0.10590827465057373,0.0,4.209854012060532e-07,0.0,False,True,False,False,False,False,0.27227845788002014,0.0002996474504470825,-0.0007027214160189033,3.7063122704239504e-07,-0.00010404482600279152,0.3342812657356262,0.0,0.0,0.039630331099033356,0.2630320191383362,0.33959728479385376,0.26303815841674805,0.3189035654067993,0.3189035654067993,0.283056378364563,1.0,0.283056378364563,0.9068306684494019,False,0.09316931664943695
zero_steer,58,False,-3.0392005443573,0.0323297455906868,3.94335208758574,-1.7754974365234375,0.11944106221199036,-1.1769179105758667,0.1607031524181366,0.33439385890960693,0.22583819925785065,0.33439385890960693,0.0,6.687877178192139,0.0,-0.0094793401658535,0.007045685779303312,-0.001216827193275094,0.03233414143323898,0.11944360285997391,0.1607048064470291,3.943268417768407,3.9432685375213623,0.11952590197324753,0.11944037675857544,3.94335208758574,0.41687700152397156,16,0.09691822528839111,0.0,5.705443868464499e-07,0.0,False,True,False,False,False,False,0.2723730802536011,-9.460374712944031e-05,-0.00017930501780938357,4.0018741742642305e-07,7.23137054592371e-05,0.33439385890960693,0.0,0.0,0.04041767865419388,0.26288455724716187,0.3412582278251648,0.26289013028144836,0.3194592297077179,0.3194592297077179,0.2836412787437439,1.0,0.2836412787437439,0.906378984451294,False,0.09362103044986725
zero_steer,59,False,-3.0302162170410156,0.03296058624982834,3.9412505237554916,-1.7665098905563354,0.12002553045749664,-1.1679288148880005,0.16126567125320435,0.3344196677207947,0.22586779296398163,0.3344196677207947,0.0,6.6883933544158936,0.0,-0.009452498517930508,0.00718464981764555,-0.001133924350142479,0.03296545520424843,0.12002835422754288,0.16126751899719238,3.941157035541227,3.941157102584839,0.12078125029802322,0.12002484500408173,3.9412505237554916,0.41687700152397156,16,0.0879288911819458,0.0,4.1923894400497375e-07,0.0,False,True,False,False,False,False,0.27232861518859863,7.230974733829498e-05,-0.0005281183402985334,2.596214869754476e-07,-5.065737059339881e-05,0.3344196677207947,0.0,0.0,0.04120681807398796,0.2627438008785248,0.3429281413555145,0.2627500295639038,0.3200238049030304,0.3200238049030304,0.28423556685447693,1.0,0.28423556685447693,0.90584397315979,False,0.09415601193904877
zero_steer,60,False,-3.0212340354919434,0.033589188009500504,3.9390388231248767,-1.7575243711471558,0.12060534954071045,-1.1589417457580566,0.1618223786354065,0.334555983543396,0.22605381906032562,0.334555983543396,0.0,6.69111967086792,0.0,-0.009467825293540955,0.007334050256758928,-0.0010668875183910131,0.033593568950891495,0.1206078752875328,0.16182401776313782,3.9389547264207208,3.9389548301696777,0.12268171459436417,0.12060465663671494,3.9390388231248767,0.41687700152397156,16,0.0789419412612915,0.0,4.80339451769396e-07,0.0,False,True,False,False,False,False,0.2722848057746887,0.0003709085285663605,-0.0007096150075085461,4.2946314238179184e-07,0.00015536820865236223,0.334555983543396,0.0,0.0,0.041991960257291794,0.2625969648361206,0.34458473324775696,0.2626025974750519,0.3205781579017639,0.3205781579017639,0.284819096326828,1.0,0.284819096326828,0.9054756760597229,False,0.0945243388414383
zero_steer,61,False,-3.0122547149658203,0.03421834111213684,3.9367566861684464,-1.7485415935516357,0.12118417769670486,-1.149957299232483,0.16237737238407135,0.33463603258132935,0.22613106667995453,0.33463603258132935,0.0,6.692720651626587,0.0,-0.009456885978579521,0.00742374500259757,-0.0010165704879909754,0.034222908318042755,0.12118680030107498,0.16237907111644745,3.936668320596059,3.9366683959960938,0.1252007782459259,0.12118348479270935,3.9367566861684464,0.41687700152397156,16,0.06995749473571777,0.0,5.120840000927274e-07,0.0,False,True,False,False,False,False,0.27209699153900146,5.0943344831466675e-05,-0.00045545052853412926,2.1558700780133222e-07,-0.00023659603903070092,0.33463603258132935,0.0,0.0,0.042778633534908295,0.26244455575942993,0.34623852372169495,0.2624504566192627,0.3211279511451721,0.3211279511451721,0.28539782762527466,1.0,0.28539782762527466,0.9050031304359436,False,0.09499688446521759
zero_steer,62,False,-3.003274917602539,0.03484655171632767,3.9344694265701383,-1.739558219909668,0.12176194041967392,-1.140972375869751,0.16293123364448547,0.3346126675605774,0.22617240250110626,0.3346126675605774,0.0,6.692253351211548,0.0,-0.00951103214174509,0.007571353577077389,-0.0009698392823338509,0.03485114127397537,0.12176456302404404,0.16293291747570038,3.934380634110928,3.9343807697296143,0.12830239534378052,0.12176124006509781,3.9344694265701383,0.41687700152397156,16,0.06097257137298584,0.0,5.144035526427615e-07,0.0,False,True,False,False,False,False,0.27211031317710876,0.0002701207995414734,-0.00034751658677123487,2.84639185110791e-07,0.00010981976811308414,0.3346126675605774,0.0,0.0,0.043563924729824066,0.2622920274734497,0.3478892743587494,0.26229795813560486,0.3216763436794281,0.3216763436794281,0.2859750986099243,1.0,0.2859750986099243,0.9044960737228394,False,0.09550394117832184
zero_steer,63,False,-2.994297742843628,0.0354759618639946,3.932228697635551,-1.7305777072906494,0.12234193086624146,-1.1319901943206787,0.16348782181739807,0.3345775306224823,0.22612620890140533,0.3345775306224823,0.0,6.691550612449646,0.0,-0.009565340355038643,0.00771871255710721,-0.0009233138989657164,0.03548051416873932,0.12234451621770859,0.16348949074745178,3.932139905176341,3.9321398735046387,0.1319473683834076,0.12234123051166534,3.932228697635551,0.41687700152397156,16,0.051990389823913574,0.0,4.2766271235450404e-07,0.0,False,True,False,False,False,False,0.272117018699646,0.00045424140989780426,-0.000726600585039705,4.1779568960009783e-07,9.366523590870202e-05,0.3345775306224823,0.0,0.0,0.04435064271092415,0.2621426582336426,0.3495463728904724,0.26214858889579773,0.32222941517829895,0.32222941517829895,0.28655728697776794,1.0,0.28655728697776794,0.9038968086242676,False,0.09610320627689362
zero_steer,64,False,-2.9853217601776123,0.0361044742166996,3.9298116644430126,-1.7215980291366577,0.12291713058948517,-1.1230087280273438,0.1640377640724182,0.33465486764907837,0.22620703279972076,0.33465486764907837,0.0,6.693097352981567,0.0,-0.009538508951663971,0.007812677882611752,-0.0008629155345261097,0.03610898554325104,0.12291970103979111,0.16403941810131073,3.929723725757449,3.9297237396240234,0.13608603179454803,0.12291643023490906,3.9298116644430126,0.41687700152397156,16,0.04300892353057861,0.0,4.816065484192222e-07,0.0,False,True,False,False,False,False,0.272085040807724,-8.879788219928741e-05,-0.0003658195782918483,5.472561426245193e-08,-8.649664232507348e-05,0.33465486764907837,0.0,0.0,0.0451362319290638,0.2619815766811371,0.35118982195854187,0.26198744773864746,0.3227688670158386,0.3227688670158386,0.2871251106262207,1.0,0.2871251106262207,0.903438150882721,False,0.09656183421611786
zero_steer,65,False,-2.9763457775115967,0.036733463406562805,3.9274902538988545,-1.7126185894012451,0.12349491566419601,-1.1140276193618774,0.16459129750728607,0.33469289541244507,0.22622403502464294,0.33469289541244507,0.0,6.693857908248901,0.0,-0.00951872207224369,0.007956869900226593,-0.0007809260860085487,0.0367380753159523,0.12349750846624374,0.1645929366350174,3.9273989001187055,3.927398920059204,0.14068135619163513,0.1234942078590393,3.9274906807856778,0.41687700152397156,16,0.034027814865112305,0.0,5.256039230516762e-07,0.0,False,True,False,False,False,False,0.2721014618873596,0.00018620118498802185,-0.0006695971824228764,2.3402645865644445e-07,-8.881185203790665e-05,0.33469289541244507,0.0,0.0,0.04592259228229523,0.26182660460472107,0.3528406023979187,0.26183271408081055,0.3233156204223633,0.3233156204223633,0.2877006530761719,1.0,0.2877006530761719,0.902908444404602,False,0.09709158539772034
zero_steer,66,False,-2.9675817489624023,0.03734607622027397,3.9251466452398938,-1.7038509845733643,0.12405584007501602,-1.1052583456039429,0.1651277393102646,0.33465343713760376,0.22624239325523376,0.33465343713760376,0.0,6.693068742752075,0.0,-0.009730150923132896,0.00808750931173563,-0.0008213208056986332,0.03793376311659813,0.12390951067209244,0.16463373601436615,3.8918686829431226,3.891868829727173,0.1455627679824829,0.12405513226985931,3.925147072126717,0.41687700152397156,16,0.03351855278015137,0.0,0.00843319296836853,0.0,False,True,False,False,False,False,0.26465538144111633,0.0004972182214260101,-0.0007990295416675508,5.049459872452644e-08,-0.0001475163153372705,0.33465343713760376,0.0,0.0,0.047417204827070236,0.25945791602134705,0.3544432520866394,0.26167646050453186,0.32276293635368347,0.32276293635368347,0.2871188819408417,1.0,0.2871188819408417,0.9034794569015503,False,0.09652054309844971
zero_steer,67,False,-2.9588959217071533,0.03795299306511879,3.92265917572154,-1.6951613426208496,0.12460789084434509,-1.096566915512085,0.165653795003891,0.3346571922302246,0.22634156048297882,0.3346571922302246,0.0,6.693143844604492,0.0,-0.00976383127272129,0.008182605728507042,-0.0007906127721071243,0.0391305536031723,0.1243070438504219,0.16465267539024353,3.8556336756225584,3.8556337356567383,0.15074720978736877,0.12460717558860779,3.92265917572154,0.41687700152397156,16,0.033339738845825195,0.0,0.017120426520705223,0.0,False,True,False,False,False,False,0.2625226080417633,-3.056973218917847e-05,-0.0006490692612715065,2.1274042083518907e-08,-4.5905704610049725e-05,0.3346571922302246,0.0,0.0,0.04891319200396538,0.2570422291755676,0.3560205101966858,0.26151061058044434,0.32217347621917725,0.32217347621917725,0.28649839758872986,1.0,0.28649839758872986,0.9041680693626404,False,0.09583191573619843
zero_steer,68,False,-2.950266122817993,0.03855697810649872,3.920317701496695,-1.6865280866622925,0.12516021728515625,-1.0879319906234741,0.16618166863918304,0.33483409881591797,0.22643853724002838,0.33483409881591797,0.0,6.696681976318359,0.0,-0.009903864935040474,0.008317658677697182,-0.0007931031286716461,0.0405220091342926,0.12476763129234314,0.1646723449230194,3.813434205609281,3.813434362411499,0.14937171339988708,0.12515950202941895,3.920317701496695,0.5626575350761414,17,0.0331273078918457,0.0,0.02575148642063141,0.0,False,True,False,False,False,False,0.26118892431259155,0.0005976390093564987,-0.0006512929685413837,0.0,-0.0022844187915325165,0.33483409881591797,0.0,0.0,0.05065251141786575,0.25422894954681396,0.35759857296943665,0.2613545060157776,0.3214431405067444,0.3214431405067444,0.28572961688041687,1.0,0.28572961688041687,0.9049953818321228,False,0.095004603266716
zero_steer,69,False,-2.9416794776916504,0.039157334715127945,3.9178345008465723,-1.677937626838684,0.1257058084011078,-1.0793397426605225,0.1667013168334961,0.3350120186805725,0.2266535609960556,0.3350120186805725,0.0,6.70024037361145,0.0,-0.009895570576190948,0.008466687053442001,-0.0007144417613744736,0.04206090793013573,0.12527799606323242,0.16469551622867584,3.766808346127012,3.766808271408081,0.14533355832099915,0.12570509314537048,3.9178345008465723,0.5626575350761414,17,0.03289532661437988,0.0,0.03434301167726517,0.0,False,True,False,False,False,False,0.2599092125892639,0.0004876554012298584,-0.0010127929272130132,0.0,-0.0016236797673627734,0.3350120186805725,0.0,0.0,0.05257613584399223,0.25112056732177734,0.35915741324424744,0.26118895411491394,0.32060185074806213,0.32060185074806213,0.2848440408706665,1.0,0.2848440408706665,0.9060516953468323,False,0.09394828975200653
zero_steer,70,False,-2.9331257343292236,0.039754465222358704,3.9152642152845316,-1.6693799495697021,0.12624624371528625,-1.0707802772521973,0.16721490025520325,0.3351078927516937,0.2268037050962448,0.3351078927516937,0.0,6.7021578550338745,0.0,-0.010079681873321533,0.008565318770706654,-0.0007571815513074398,0.04362734407186508,0.12579692900180817,0.16471831500530243,3.719327005451199,3.719326972961426,0.14171411097049713,0.12624552845954895,3.9152642152845316,0.5626575350761414,17,0.03265666961669922,0.0,0.04289870336651802,0.0,False,True,False,False,False,False,0.2589835822582245,0.0003056693822145462,-0.0006146118394099176,3.127283889625687e-07,-7.357710273936391e-05,0.3351078927516937,0.0,0.0,0.0545341819524765,0.24795512855052948,0.3607015311717987,0.2610176205635071,0.3197352886199951,0.3197352886199951,0.2839318811893463,1.0,0.2839318811893463,0.9070684313774109,False,0.0929315835237503
zero_steer,71,False,-2.9246034622192383,0.04034934192895889,3.91281260425932,-1.6608541011810303,0.12678705155849457,-1.0622526407241821,0.16773009300231934,0.335321307182312,0.22692643105983734,0.335321307182312,0.0,6.70642614364624,0.0,-0.010230934247374535,0.008696273900568485,-0.0007673301734030247,0.04506845027208328,0.1262768656015396,0.16474296152591705,3.6757606438302726,3.6757607460021973,0.1385447084903717,0.12678632140159607,3.91281260425932,0.5626575350761414,17,0.03243815898895264,0.0,0.051421068608760834,0.0,False,False,False,False,False,False,0.2579953074455261,0.00037489645183086395,-0.0005101552233099937,1.2450418296339194e-07,5.679466994479299e-07,0.335321307182312,0.0,0.0,0.056335560977458954,0.24505071341991425,0.36224663257598877,0.26085418462753296,0.31896644830703735,0.31896644830703735,0.28312256932258606,1.0,0.28312256932258606,0.9079599976539612,False,0.09204001724720001
zero_steer,72,False,-2.9161124229431152,0.04094288870692253,3.9102739083221913,-1.652359127998352,0.12732461094856262,-1.0537558794021606,0.16824112832546234,0.335456520318985,0.22712062299251556,0.335456520318985,0.0,6.7091304063797,0.0,-0.010232037864625454,0.008825130760669708,-0.0007034535519778728,0.046411801129579544,0.12672244012355804,0.16476325690746307,3.6350689380762757,3.635068893432617,0.13584712147712708,0.12732388079166412,3.9102739083221913,0.5626575350761414,17,0.0322345495223999,0.0,0.05991034582257271,0.0,False,False,False,False,False,False,0.2569397985935211,0.00014605745673179626,-0.000430270069045946,1.936698339477516e-07,-0.0009767009178176522,0.335456520318985,0.0,0.0,0.058014750480651855,0.2423379272222519,0.36378252506256104,0.26068493723869324,0.31826117634773254,0.31826117634773254,0.28238019347190857,1.0,0.28238019347190857,0.9088594317436218,False,0.09114055335521698
zero_steer,73,False,-2.907651424407959,0.04153367877006531,3.907664349172423,-1.6438941955566406,0.12785783410072327,-1.0452890396118164,0.16874708235263824,0.3356429636478424,0.2272924780845642,0.3356429636478424,0.0,6.712859272956848,0.0,-0.010085014626383781,0.008945876732468605,-0.0005695689469575882,0.04772518575191498,0.1271580457687378,0.16478309035301208,3.595286074368713,3.5952861309051514,0.1336427479982376,0.12785710394382477,3.907664349172423,0.5626575350761414,17,0.03203725814819336,0.0,0.0683698058128357,0.0,False,False,False,False,False,False,0.25631657242774963,-0.0009032115340232849,0.00018154938879888505,0.0,8.030957542359829e-05,0.3356429636478424,0.0,0.0,0.05965648218989372,0.23968572914600372,0.36530601978302,0.26051095128059387,0.3175739049911499,0.3175739049911499,0.28165674209594727,1.0,0.28165674209594727,0.9097185730934143,False,0.0902814269065857
zero_steer,74,False,-2.899204969406128,0.04212182015180588,3.9050799763452195,-1.635443925857544,0.12838898599147797,-1.0368369817733765,0.1692512333393097,0.33571332693099976,0.227363720536232,0.33571332693099976,0.0,6.714266538619995,0.0,-0.010172762908041477,0.009077216498553753,-0.0005477732047438622,0.048988983035087585,0.12757515907287598,0.16479913890361786,3.5569130043945236,3.556913137435913,0.13194909691810608,0.12838825583457947,3.9050799763452195,0.5626575350761414,17,0.031844258308410645,0.0,0.076810821890831,0.0,False,False,False,False,False,False,0.25597384572029114,0.0006366800516843796,-0.0007020682678557932,1.8085442832216359e-07,-0.00036105391336604953,0.33571332693099976,0.0,0.0,0.06123622879385948,0.23712752759456635,0.36682358384132385,0.2603386640548706,0.3169178068637848,0.3169178068637848,0.2809661030769348,1.0,0.2809661030769348,0.9104459285736084,False,0.0895540863275528
zero_steer,75,False,-2.8907761573791504,0.04270957410335541,3.902529754463866,-1.6270112991333008,0.12892048060894012,-1.0284024477005005,0.16975608468055725,0.33586227893829346,0.22756090760231018,0.33586227893829346,0.0,6.717245578765869,0.0,-0.010149398818612099,0.009195199236273766,-0.00047709979116916656,0.050428442656993866,0.12805138528347015,0.1648191213607788,3.513261265408972,3.513261318206787,0.13078603148460388,0.12891973555088043,3.902529754463866,0.5626575350761414,17,0.03162825107574463,0.0,0.08524046838283539,0.0,False,False,False,False,False,False,0.25546661019325256,0.0008258111774921417,-0.0010509067215025425,0.0,-0.0015132211847230792,0.33586227893829346,0.0,0.0,0.06303555518388748,0.23421742022037506,0.3683421015739441,0.2601686418056488,0.3161373436450958,0.3161373436450958,0.2801445722579956,1.0,0.2801445722579956,0.9114235639572144,False,0.08857643604278564
zero_steer,76,False,-2.8823554515838623,0.043297018855810165,3.8997310844514534,-1.6185863018035889,0.12944619357585907,-1.0199755430221558,0.17025256156921387,0.335960328578949,0.2276981770992279,0.335960328578949,0.0,6.7192065715789795,0.0,-0.010210723616182804,0.009322190657258034,-0.0004442664794623852,0.05184350162744522,0.12852196395397186,0.16484232246875763,3.4704607387487334,3.470460891723633,0.1301572173833847,0.12944544851779938,3.8997310844514534,0.5626575350761414,17,0.03141188621520996,0.0,0.09365376830101013,0.0,False,False,False,False,False,False,0.2550743818283081,-6.708316504955292e-05,-0.00010447215754538774,4.913518978355569e-07,-0.0006367882015183568,0.335960328578949,0.0,0.0,0.06480437517166138,0.23136404156684875,0.36984413862228394,0.25998207926750183,0.3153717815876007,0.3153717815876007,0.2793387174606323,1.0,0.2793387174606323,0.9123263955116272,False,0.0876736044883728
zero_steer,77,False,-2.873948812484741,0.04388323426246643,3.8971262210567397,-1.6101757287979126,0.12997496128082275,-1.0115630626678467,0.1707541048526764,0.33611124753952026,0.22785861790180206,0.33611124753952026,0.0,6.722224950790405,0.0,-0.010279685258865356,0.009450472891330719,-0.0004146061837673187,0.05330923572182655,0.12900646030902863,0.1648620367050171,3.4259966341387735,3.425996780395508,0.13007797300815582,0.12997421622276306,3.8971262210567397,0.5626575350761414,17,0.03119027614593506,0.0,0.1020587682723999,0.0,False,False,False,False,False,False,0.2549622654914856,0.0005764681845903397,-0.0008354508318006992,0.0,-0.001483299769461155,0.33611124753952026,0.0,0.0,0.06663654744625092,0.22839976847171783,0.3713549077510834,0.25980842113494873,0.3145691156387329,0.3145691156387329,0.2784937918186188,1.0,0.2784937918186188,0.913289487361908,False,0.08671049773693085
zero_steer,78,False,-2.8655412197113037,0.04446792975068092,3.8943185864210412,-1.6017639636993408,0.13049772381782532,-1.0031492710113525,0.17124754190444946,0.33634281158447266,0.2280942052602768,0.33634281158447266,0.0,6.726856231689453,0.0,-0.01036803238093853,0.00957559421658516,-0.00039621908217668533,0.05489487946033478,0.12953124940395355,0.16488432884216309,3.3779272568641048,3.377927303314209,0.13053783774375916,0.13049697875976562,3.8943185864210412,0.5626575350761414,17,0.030948996543884277,0.0,0.11046220362186432,0.0,False,False,False,False,False,False,0.25467824935913086,0.0004161875694990158,-0.0005502061103470623,2.859626704321272e-07,-0.0013113534078001976,0.33634281158447266,0.0,0.0,0.06861859560012817,0.22519515454769135,0.3728485107421875,0.2596212327480316,0.3136741518974304,0.3136741518974304,0.2775517404079437,1.0,0.2775517404079437,0.9144200682640076,False,0.08557994663715363
zero_steer,79,False,-2.8571434020996094,0.04505288600921631,3.891570715940581,-1.5933620929718018,0.13102206587791443,-0.9947454929351807,0.17174316942691803,0.33652034401893616,0.2282862365245819,0.33652034401893616,0.0,6.730406880378723,0.0,-0.010356128215789795,0.009677045978605747,-0.00033954111859202385,0.05648448318243027,0.13005591928958893,0.16490456461906433,3.32967538547255,3.3296754360198975,0.13153791427612305,0.13102132081985474,3.891570715940581,0.5626575350761414,17,0.030709505081176758,0.0,0.11885904520750046,0.0,False,False,False,False,False,False,0.25468799471855164,0.0004165433347225189,-0.0006926769856363535,0.0,-0.002324431436136365,0.33652034401893616,0.0,0.0,0.07060560584068298,0.2219783514738083,0.37434664368629456,0.25943803787231445,0.31277555227279663,0.31277555227279663,0.27660584449768066,1.0,0.27660584449768066,0.9155106544494629,False,0.08448931574821472
zero_steer,80,False,-2.8487436771392822,0.045638103038072586,3.8888493124431536,-1.5849581956863403,0.1315472573041916,-0.9863396883010864,0.17223992943763733,0.33666253089904785,0.2284577637910843,0.33666253089904785,0.0,6.733250617980957,0.0,-0.010483168065547943,0.009804604575037956,-0.00033928174525499344,0.05799504369497299,0.1305554211139679,0.16492515802383423,3.2838661604829205,3.2838661670684814,0.13306522369384766,0.1315464973449707,3.8888493124431536,0.5626575350761414,17,0.03047966957092285,0.0,0.1272534728050232,0.0,False,False,False,False,False,False,0.254608690738678,0.0006887763738632202,-0.000964286969974637,1.9095418224424066e-07,-0.00020378454064484686,0.33666253089904785,0.0,0.0,0.07249380648136139,0.2189244031906128,0.37584713101387024,0.25925663113594055,0.31193700432777405,0.31193700432777405,0.2757231593132019,1.0,0.2757231593132019,0.9165207743644714,False,0.08347924053668976
zero_steer,81,False,-2.840350866317749,0.04622083157300949,3.886054057525326,-1.5765612125396729,0.13206832110881805,-0.9779406785964966,0.17273178696632385,0.3366504907608032,0.22850145399570465,0.3366504907608032,0.0,6.7330098152160645,0.0,-0.010387122631072998,0.009924055077135563,-0.00023153377696871758,0.05936583876609802,0.13100838661193848,0.1649433672428131,3.2422839688158827,3.242284059524536,0.13509555160999298,0.13206756114959717,3.886054057525326,0.5626575350761414,17,0.03027164936065674,0.0,0.13563784956932068,0.0,False,False,False,False,False,False,0.2543276250362396,0.0008380115032196045,-0.0011125539895147085,0.0,-0.0018948223441839218,0.3366504907608032,0.0,0.0,0.07420729845762253,0.21615226566791534,0.37733590602874756,0.2590702772140503,0.3111954927444458,0.3111954927444458,0.2749426066875458,1.0,0.2749426066875458,0.9173059463500977,False,0.08269403874874115
zero_steer,82,False,-2.831961154937744,0.0468054935336113,3.883218675246124,-1.5681672096252441,0.13259045779705048,-0.9695447683334351,0.1732243001461029,0.33687424659729004,0.22873826324939728,0.33687424659729004,0.0,6.737484931945801,0.0,-0.01049052458256483,0.010042582638561726,-0.00022397097200155258,0.06087677925825119,0.1315077841281891,0.16496364772319794,3.1964568145796823,3.1964569091796875,0.13761135935783386,0.1325896978378296,3.8832182483593014,0.5626575350761414,17,0.030041933059692383,0.0,0.144020214676857,0.0,False,False,False,False,False,False,0.25454026460647583,0.00044537149369716644,-0.0004966132692061365,0.0,-0.0020814628805965185,0.33687424659729004,0.0,0.0,0.07609597593545914,0.21309712529182434,0.3788277208805084,0.25888121128082275,0.3103526830673218,0.3103526830673218,0.27405545115470886,1.0,0.27405545115470886,0.9183855652809143,False,0.0816144198179245
zero_steer,83,False,-2.8235678672790527,0.04738754406571388,3.8803756090041066,-1.559769630432129,0.13310979306697845,-0.9611451625823975,0.17371393740177155,0.3370915651321411,0.22900541126728058,0.3370915651321411,0.0,6.741831302642822,0.0,-0.010609765537083149,0.010169004090130329,-0.0002203807234764099,0.06245717778801918,0.13202854990959167,0.16498248279094696,3.148454031649421,3.148453950881958,0.14058451354503632,0.13310903310775757,3.8803756090041066,0.5626575350761414,17,0.029799461364746094,0.0,0.1524048149585724,0.0,False,False,False,False,False,False,0.2543570101261139,0.0007506627589464188,-0.0009251340525224805,1.2721024233997014e-07,0.00016367938951589167,0.3370915651321411,0.0,0.0,0.0780714750289917,0.20989693701267242,0.380311518907547,0.2586916983127594,0.30945491790771484,0.30945491790771484,0.27311044931411743,1.0,0.27311044931411743,0.9195504784584045,False,0.08044950664043427
zero_steer,84,False,-2.8151891231536865,0.04796993359923363,3.877512905968225,-1.5513865947723389,0.13362903892993927,-0.9527601003646851,0.1742032766342163,0.33718812465667725,0.22912730276584625,0.33718812465667725,0.0,6.743762493133545,0.0,-0.010311872698366642,0.010292444378137589,-9.714160114526749e-06,0.06392866373062134,0.1325169950723648,0.16500532627105713,3.103922692364819,3.1039228439331055,0.14398305118083954,0.13362827897071838,3.877512905968225,0.5626575350761414,17,0.029579758644104004,0.0,0.16077712178230286,0.0,False,False,False,False,False,False,0.25387975573539734,0.0008681584149599075,-0.0012701395899057388,1.9075624635433996e-08,-0.00021923717577010393,0.33718812465667725,0.0,0.0,0.07991082966327667,0.20692817866802216,0.38179507851600647,0.2585008442401886,0.308642715215683,0.308642715215683,0.27225548028945923,1.0,0.27225548028945923,0.9204846024513245,False,0.07951541244983673
zero_steer,85,False,-2.8068158626556396,0.04855111986398697,3.8743697382895497,-1.5430086851119995,0.13414089381694794,-0.9443799257278442,0.17468228936195374,0.33739617466926575,0.22933706641197205,0.33739617466926575,0.0,6.747923493385315,0.0,-0.010356264188885689,0.010423799976706505,3.376789391040802e-05,0.06530918926000595,0.13297207653522491,0.16502201557159424,3.062001766003631,3.0620017051696777,0.14777247607707977,0.13414011895656586,3.8743697382895497,0.5626575350761414,17,0.029368877410888672,0.0,0.16913612186908722,0.0,False,False,False,False,False,False,0.25376737117767334,0.00017237849533557892,-8.230334788095206e-05,3.7270342545525637e-07,-0.0019262102432549,0.33739617466926575,0.0,0.0,0.08163648843765259,0.20413345098495483,0.3832574784755707,0.2582913041114807,0.3078811764717102,0.3078811764717102,0.271453857421875,1.0,0.271453857421875,0.9214558601379395,False,0.07854411005973816
zero_steer,86,False,-2.798445463180542,0.049132175743579865,3.8714097050579954,-1.5346338748931885,0.13465666770935059,-0.9360029697418213,0.17516714334487915,0.3374654948711395,0.22947236895561218,0.3374654948711395,0.0,6.7493098974227905,0.0,-0.010435731150209904,0.010554156266152859,5.921255797147751e-05,0.06684768199920654,0.1334787905216217,0.1650400012731552,3.015265556277584,3.015265703201294,0.15193358063697815,0.1346558928489685,3.8714097050579954,0.5626575350761414,17,0.029134392738342285,0.0,0.177496075630188,0.0,False,False,False,False,False,False,0.2538771629333496,0.0010885056108236313,-0.0011779734632000327,0.0,-0.002543566981330514,0.3374654948711395,0.0,0.0,0.08355960249900818,0.20101770758628845,0.38473114371299744,0.2580939829349518,0.3070095181465149,0.3070095181465149,0.270536333322525,1.0,0.270536333322525,0.9224628210067749,False,0.07753714919090271
zero_steer,87,False,-2.7900731563568115,0.049713388085365295,3.8684915067351073,-1.5262571573257446,0.135173499584198,-0.9276242256164551,0.17565347254276276,0.33769863843917847,0.22968797385692596,0.33769863843917847,0.0,6.753972768783569,0.0,-0.010432337410748005,0.01066739670932293,0.00011752964928746223,0.06835301220417023,0.1339782178401947,0.16506297886371613,2.9697056331926603,2.969705581665039,0.15643629431724548,0.13517272472381592,3.8684915067351073,0.5626575350761414,17,0.028906583786010742,0.0,0.18585717678070068,0.0,False,False,False,False,False,False,0.2537797689437866,0.0008470825850963593,-0.0013591352617368102,1.44817761338345e-07,-0.0005536056123673916,0.33769863843917847,0.0,0.0,0.08544126152992249,0.1979803740978241,0.38620778918266296,0.2578994333744049,0.30617034435272217,0.30617034435272217,0.26965299248695374,1.0,0.26965299248695374,0.923517644405365,False,0.0764823704957962
zero_steer,88,False,-2.7817134857177734,0.050293754786252975,3.8652569852762833,-1.517892837524414,0.13568252325057983,-0.9192575216293335,0.17612871527671814,0.33773308992385864,0.2297879159450531,0.33773308992385864,0.0,6.754661798477173,0.0,-0.010219668969511986,0.010800712741911411,0.00029052188619971275,0.0696863979101181,0.13442008197307587,0.16508254408836365,2.929325554819545,2.929325580596924,0.16123712062835693,0.13568174839019775,3.8652569852762833,0.5626575350761414,17,0.02870333194732666,0.0,0.19419889152050018,0.0,False,False,False,False,False,False,0.25325027108192444,-0.0002547241747379303,-0.00011671194806694984,3.8739622709726973e-07,4.260431160219014e-05,0.33773308992385864,0.0,0.0,0.08710800111293793,0.19528837502002716,0.3876621425151825,0.25768378376960754,0.3054444491863251,0.3054444491863251,0.2688888907432556,1.0,0.2688888907432556,0.924343466758728,False,0.07565653324127197
zero_steer,89,False,-2.7733654975891113,0.05087261274456978,3.8620946076905676,-1.50954008102417,0.13619162142276764,-0.9109026193618774,0.176604762673378,0.3377588093280792,0.22985585033893585,0.3377588093280792,0.0,6.7551761865615845,0.0,-0.01008192915469408,0.010928119532763958,0.0004230951890349388,0.0709739699959755,0.13484562933444977,0.16509978473186493,2.890284620410575,2.890284538269043,0.15771737694740295,0.13619084656238556,3.8620946076905676,0.7084380388259888,18,0.028510212898254395,0.0,0.20253212749958038,0.0,False,False,False,False,False,False,0.2528470754623413,0.0004905480891466141,-0.0005262226914055645,6.080949788156431e-07,-0.0016152980970218778,0.3377588093280792,0.0,0.0,0.08871746063232422,0.19268563389778137,0.38911670446395874,0.257472962141037,0.3047507703304291,0.3047507703304291,0.2681587040424347,1.0,0.2681587040424347,0.925105094909668,False,0.07489491999149323
zero_steer,90,False,-2.7650210857391357,0.051448773592710495,3.8590611499254357,-1.5011911392211914,0.13670088350772858,-0.902551531791687,0.17708232998847961,0.3378954827785492,0.22997377812862396,0.3378954827785492,0.0,6.757909655570984,0.0,-0.0100952023640275,0.011042443104088306,0.00047362037003040314,0.07235739380121231,0.13529998064041138,0.16511404514312744,2.8482068131418883,2.8482067584991455,0.1541275531053543,0.1367001086473465,3.8590611499254357,0.7084380388259888,18,0.02829921245574951,0.0,0.2108612209558487,0.0,False,False,False,False,False,False,0.25279349088668823,0.00021718814969062805,-0.0009154285653494298,0.0,-0.002718037459999323,0.3378954827785492,0.0,0.0,0.09044674038887024,0.18988044559955597,0.3905717432498932,0.2572707533836365,0.30398446321487427,0.30398446321487427,0.26735207438468933,1.0,0.26735207438468933,0.9259893298149109,False,0.0740106850862503
zero_steer,91,False,-2.75667405128479,0.05202769488096237,3.8558078454463938,-1.4928392171859741,0.13720804452896118,-0.8941973447799683,0.17755550146102905,0.33808380365371704,0.23017291724681854,0.33808380365371704,0.0,6.761676073074341,0.0,-0.010254998691380024,0.011178867891430855,0.0004619346000254154,0.07411977648735046,0.13588117063045502,0.16513574123382568,2.794714052222818,2.7947139739990234,0.15091323852539062,0.1372072547674179,3.8558078454463938,0.7084380388259888,18,0.0280301570892334,0.0,0.219194233417511,0.0,False,False,False,False,False,False,0.2530668079853058,0.0001248326152563095,-0.0005381558439694345,6.883752945441302e-08,-0.0014946555020287633,0.33808380365371704,0.0,0.0,0.09264972060918808,0.18631426990032196,0.39202073216438293,0.25705385208129883,0.3029421865940094,0.3029421865940094,0.2662549316883087,1.0,0.2662549316883087,0.927230715751648,False,0.07276926934719086
zero_steer,92,False,-2.748328924179077,0.05260603502392769,3.852584849931794,-1.4844893217086792,0.13771528005599976,-0.8858451843261719,0.17802906036376953,0.3382759690284729,0.23038378357887268,0.3382759690284729,0.0,6.765519380569458,0.0,-0.010136520490050316,0.011297422461211681,0.0005804509855806828,0.07598959654569626,0.13649749755859375,0.16515836119651794,2.737950697908369,2.7379508018493652,0.148103266954422,0.13771449029445648,3.852584849931794,0.7084380388259888,18,0.02774524688720703,0.0,0.22752656042575836,0.0,False,False,False,False,False,False,0.25273600220680237,0.000477837398648262,-0.0009448432247154415,3.923692588614358e-07,-0.0012992214178666472,0.3382759690284729,0.0,0.0,0.09498699754476547,0.18253004550933838,0.39346998929977417,0.25683897733688354,0.30182209610939026,0.30182209610939026,0.2650758922100067,1.0,0.2650758922100067,0.9285616874694824,False,0.07143831253051758
zero_steer,93,False,-2.7399919033050537,0.05318142846226692,3.849361427530371,-1.4761474132537842,0.13821956515312195,-0.8775010108947754,0.17849966883659363,0.3384448289871216,0.230550616979599,0.3384448289871216,0.0,6.768896579742432,0.0,-0.010130627080798149,0.011458243243396282,0.0006638080812990665,0.07784268260002136,0.13710692524909973,0.16517868638038635,2.681634294097733,2.6816344261169434,0.14571967720985413,0.13821877539157867,3.849361000643548,0.7084380388259888,18,0.027465224266052246,0.0,0.23585252463817596,0.0,False,False,False,False,False,False,0.2528355121612549,0.0013332460075616837,-0.0014410893199965358,0.0,-0.0024908031336963177,0.3384448289871216,0.0,0.0,0.0973033532500267,0.1787756234407425,0.3949107825756073,0.2566240727901459,0.3007098436355591,0.3007098436355591,0.2639051079750061,1.0,0.2639051079750061,0.9298408031463623,False,0.07015922665596008
zero_steer,94,False,-2.731652021408081,0.05375971272587776,3.8460991584280437,-1.4678027629852295,0.1387258768081665,-0.8691540956497192,0.17897190153598785,0.3385699987411499,0.2307286560535431,0.3385699987411499,0.0,6.771399974822998,0.0,-0.01017562672495842,0.011565241031348705,0.0006948071531951427,0.07971855252981186,0.13772976398468018,0.16520802676677704,2.6248965529926718,2.62489652633667,0.14378425478935242,0.13872508704662323,3.8460991584280437,0.7084380388259888,18,0.027181148529052734,0.0,0.24417752027511597,0.0,False,False,False,False,False,False,0.25281599164009094,0.0007511954754590988,-0.0010877476306632161,0.0,-0.0020757780876010656,0.3385699987411499,0.0,0.0,0.09964819252490997,0.174993097782135,0.39635738730430603,0.25640660524368286,0.2995930314064026,0.2995930314064026,0.2627295255661011,1.0,0.2627295255661011,0.9311356544494629,False,0.0688643753528595
zero_steer,95,False,-2.723313093185425,0.054334934800863266,3.842783528472826,-1.4594589471817017,0.1392279863357544,-0.8608078956604004,0.17943936586380005,0.3386971354484558,0.23086263239383698,0.3386971354484558,0.0,6.773942708969116,0.0,-0.010235792957246304,0.011692802421748638,0.0007285047322511673,0.08155418932437897,0.13833388686180115,0.16522876918315887,2.569133394504807,2.5691335201263428,0.14231042563915253,0.13922719657421112,3.842783528472826,0.7084380388259888,18,0.02689993381500244,0.0,0.2524987459182739,0.0,False,False,False,False,False,False,0.2529757618904114,0.0007612761110067368,-0.0010472097201272845,0.0,-0.0011809761635959148,0.3386971354484558,0.0,0.0,0.10194273293018341,0.1712755560874939,0.3977920114994049,0.2561855614185333,0.29849159717559814,0.29849159717559814,0.26157012581825256,1.0,0.26157012581825256,0.9323710203170776,False,0.06762896478176117
zero_steer,96,False,-2.714965343475342,0.0549117773771286,3.8394866815378252,-1.451106309890747,0.13973209261894226,-0.8524529933929443,0.17990902066230774,0.3388403654098511,0.23104636371135712,0.3388403654098511,0.0,6.7768073081970215,0.0,-0.010464230552315712,0.011817502789199352,0.0006766361184418201,0.08349724113941193,0.13897189497947693,0.16524864733219147,2.510046708655496,2.5100467205047607,0.14131712913513184,0.1397312879562378,3.8394866815378252,0.7084380388259888,18,0.026602864265441895,0.0,0.2608305513858795,0.0,False,False,False,False,False,False,0.25311312079429626,0.0012464486062526703,-0.0013938519405201077,1.1049819192976429e-07,0.00010739732533693314,0.3388403654098511,0.0,0.0,0.10437154769897461,0.16733644902706146,0.39923226833343506,0.2559657692909241,0.297311007976532,0.297311007976532,0.26032739877700806,1.0,0.26032739877700806,0.9337353706359863,False,0.06626464426517487
zero_steer,97,False,-2.7066233158111572,0.05548897013068199,3.8359627308129216,-1.4427590370178223,0.14023156464099884,-0.844103217124939,0.18037167191505432,0.3389699459075928,0.23120291531085968,0.3389699459075928,0.0,6.7793989181518555,0.0,-0.010387679561972618,0.011927040293812752,0.0007696803659200668,0.08540526032447815,0.13960157334804535,0.1652728021144867,2.4521698200629234,2.452169895172119,0.1408108025789261,0.14023075997829437,3.8359627308129216,0.7084380388259888,18,0.026314258575439453,0.0,0.269155353307724,0.0,False,False,False,False,False,False,0.25256821513175964,0.00036279112100601196,-0.0007965584518387914,4.721597974821634e-07,-0.0008508210303261876,0.3389699459075928,0.0,0.0,0.10675657540559769,0.16347798705101013,0.40065932273864746,0.25573083758354187,0.29615557193756104,0.29615557193756104,0.2591111361980438,1.0,0.2591111361980438,0.9350473284721375,False,0.06495265662670135
zero_steer,98,False,-2.698288917541504,0.05606376752257347,3.83253056075499,-1.4344196319580078,0.14073064923286438,-0.835761308670044,0.18083490431308746,0.3391781151294708,0.23144687712192535,0.3391781151294708,0.0,6.7835623025894165,0.0,-0.01039696205407381,0.01206425204873085,0.0008336449973285198,0.08721502125263214,0.14019709825515747,0.1652931571006775,2.397197042528076,2.3971970081329346,0.14080002903938293,0.1407298445701599,3.83253056075499,0.7084380388259888,18,0.02603733539581299,0.0,0.27746856212615967,0.0,False,False,False,False,False,False,0.252682089805603,0.0003929026424884796,-0.0009971526451408863,2.5103341272370017e-07,-0.00046268789446912706,0.3391781151294708,0.0,0.0,0.10901877284049988,0.15981313586235046,0.4020852744579315,0.25550204515457153,0.2950693368911743,0.2950693368911743,0.2579677402973175,1.0,0.2579677402973175,0.9363775253295898,False,0.06362245976924896
zero_steer,99,False,-2.6899592876434326,0.05663830786943436,3.8290894260737733,-1.4260849952697754,0.1412292718887329,-0.8274242877960205,0.18129757046699524,0.3393648862838745,0.23161886632442474,0.3393648862838745,0.0,6.78729772567749,0.0,-0.010340273380279541,0.01220577210187912,0.0009327493607997894,0.0889536514878273,0.1407701075077057,0.16531407833099365,2.344429562321496,2.3444294929504395,0.1412835270166397,0.14122846722602844,3.8290894260737733,0.7084380388259888,18,0.025774359703063965,0.0,0.28577786684036255,0.0,False,False,False,False,False,False,0.2524315118789673,0.0016909707337617874,-0.001672984566539526,0.0,-0.0026458962820470333,0.3393648862838745,0.0,0.0,0.11119206249713898,0.1562952995300293,0.4035099148750305,0.25527262687683105,0.29403620958328247,0.29403620958328247,0.2568802237510681,1.0,0.2568802237510681,0.9375826716423035,False,0.06241734325885773
zero_steer,100,False,-2.6816301345825195,0.057213544845581055,3.8255014423254012,-1.417750597000122,0.1417253613471985,-0.8190873861312866,0.1817561686038971,0.3395952582359314,0.2319646030664444,0.3395952582359314,0.0,6.791905164718628,0.0,-0.010316211730241776,0.012328763492405415,0.0010062758810818195,0.09065384417772293,0.14132989943027496,0.16533368825912476,2.292803790923366,2.2928037643432617,0.14225374162197113,0.14172455668449402,3.8255014423254012,0.7084380388259888,18,0.025516390800476074,0.0,0.2940838634967804,0.0,False,False,False,False,False,False,0.2524011433124542,0.00032109953463077545,-0.0007750013028271496,2.1446334130814648e-07,-0.000990411383099854,0.3395952582359314,0.0,0.0,0.11331730335950851,0.1528535783290863,0.4049273133277893,0.2550334334373474,0.2930259704589844,0.2930259704589844,0.25581681728363037,1.0,0.25581681728363037,0.9389386177062988,False,0.06106136739253998
zero_steer,101,False,-2.6732993125915527,0.05778719484806061,3.8220287180192725,-1.409414529800415,0.14222240447998047,-0.8107489347457886,0.18221692740917206,0.3396108150482178,0.2320687472820282,0.3396108150482178,0.0,6.7922163009643555,0.0,-0.010340330190956593,0.012453516945242882,0.0010565933771431446,0.0923052728176117,0.14187270402908325,0.16535137593746185,2.242619616326932,2.242619752883911,0.14370447397232056,0.1422215849161148,3.8220282911324497,0.7084380388259888,18,0.02526402473449707,0.0,0.30238965153694153,0.0,False,False,False,False,False,False,0.2525847256183624,0.0013200175017118454,-0.0017650154186412692,0.0,-0.0027422471903264523,0.3396108150482178,0.0,0.0,0.11538159102201462,0.14950796961784363,0.406347393989563,0.254801869392395,0.29205191135406494,0.29205191135406494,0.2547914981842041,1.0,0.2547914981842041,0.9400168657302856,False,0.05998316407203674
zero_steer,102,False,-2.6649680137634277,0.05836138129234314,3.8184411611577236,-1.4010779857635498,0.14271746575832367,-0.8024098873138428,0.18267449736595154,0.3398009240627289,0.23225265741348267,0.3398009240627289,0.0,6.796018481254578,0.0,-0.010257554240524769,0.012596584856510162,0.0011695153079926968,0.09389952570199966,0.14240038394927979,0.16537384688854218,2.1943397838484624,2.1943397521972656,0.14561854302883148,0.142716646194458,3.8184411611577236,0.7084380388259888,18,0.025020360946655273,0.0,0.3106918931007385,0.0,False,False,False,False,False,False,0.25246280431747437,0.0008833035826683044,-0.0010858961613848805,2.08673299084694e-07,-0.0006756207440048456,0.3398009240627289,0.0,0.0,0.11737440526485443,0.14628931879997253,0.4077618420124054,0.25456273555755615,0.2911234498023987,0.2911234498023987,0.253814160823822,1.0,0.253814160823822,0.941129207611084,False,0.058870792388916016
zero_steer,103,False,-2.65664005279541,0.05893450602889061,3.8147468825903927,-1.392744541168213,0.14320909976959229,-0.7940739393234253,0.1831275224685669,0.33986902236938477,0.23235037922859192,0.33986902236938477,0.0,6.797380447387695,0.0,-0.010180606506764889,0.012724249623715878,0.0012718215584754944,0.09532362222671509,0.14286839962005615,0.16538897156715393,2.151061784276558,2.151061773300171,0.14797574281692505,0.14320828020572662,3.8147468825903927,0.7084380388259888,18,0.02480638027191162,0.0,0.3189929723739624,0.0,False,False,False,False,False,False,0.2524367868900299,0.00026522204279899597,-0.0008832743624225259,3.7520587170547515e-07,-0.0005837598582729697,0.33986902236938477,0.0,0.0,0.11915452778339386,0.14340411126613617,0.40916651487350464,0.25431644916534424,0.2903077304363251,0.2903077304363251,0.25295552611351013,1.0,0.25295552611351013,0.9420426487922668,False,0.057957351207733154
zero_steer,104,False,-2.648311138153076,0.05950739234685898,3.8111853658250543,-1.3844103813171387,0.1437034159898758,-0.7857372760772705,0.18358463048934937,0.33996447920799255,0.23247526586055756,0.33996447920799255,0.0,6.799289584159851,0.0,-0.010229850187897682,0.012842451222240925,0.0013063005171716213,0.0967133566737175,0.14332565665245056,0.1654045581817627,2.1088556975175217,2.108855724334717,0.1507617086172104,0.14370259642601013,3.8111853658250543,0.7084380388259888,18,0.024593710899353027,0.0,0.3272911012172699,0.0,False,False,False,False,False,False,0.25251874327659607,0.0010891743004322052,-0.0012810968328267336,0.0,-0.002014046534895897,0.33996447920799255,0.0,0.0,0.12089169770479202,0.1405903846025467,0.4105788469314575,0.25407901406288147,0.28952187299728394,0.28952187299728394,0.2521283030509949,1.0,0.2521283030509949,0.9429534077644348,False,0.05704660713672638
zero_steer,105,False,-2.639981508255005,0.06008034944534302,3.8075047476360635,-1.376075267791748,0.14419519901275635,-0.7773996591567993,0.1840379536151886,0.3400709629058838,0.2326277196407318,0.3400709629058838,0.0,6.801419258117676,0.0,-0.010320655070245266,0.012999273836612701,0.0013393093831837177,0.09813330322504044,0.1437906175851822,0.1654171645641327,2.065630205024861,2.0656301975250244,0.15394848585128784,0.14419437944889069,3.8075047476360635,0.7084380388259888,18,0.024377822875976562,0.0,0.33559128642082214,0.0,False,False,False,False,False,False,0.2525434195995331,0.0017007067799568176,-0.0020741880871355534,0.0,-0.0027874880470335484,0.3400709629058838,0.0,0.0,0.1226666271686554,0.13770867884159088,0.4119839370250702,0.2538336515426636,0.28870633244514465,0.28870633244514465,0.2512698471546173,1.0,0.2512698471546173,0.9439213871955872,False,0.05607861280441284
zero_steer,106,False,-2.631655693054199,0.06065179407596588,3.8036384336790134,-1.3677438497543335,0.14468134939670563,-0.7690654993057251,0.18448370695114136,0.3403119742870331,0.23290269076824188,0.3403119742870331,0.0,6.806239485740662,0.0,-0.010250546038150787,0.013140043243765831,0.0014447486028075218,0.09919670969247818,0.14414259791374207,0.1654321700334549,2.0334301319564823,2.0334300994873047,0.15750724077224731,0.14468051493167877,3.8036388605658367,0.7084380388259888,18,0.024215340614318848,0.0,0.34387966990470886,0.0,False,False,False,False,False,False,0.25231635570526123,0.0004375651478767395,-0.000664631777908653,7.348826898123662e-07,-0.0013733449159190059,0.3403119742870331,0.0,0.0,0.12399588525295258,0.135562002658844,0.4133729040622711,0.2535759210586548,0.28815168142318726,0.28815168142318726,0.25068598985671997,1.0,0.25068598985671997,0.9447510242462158,False,0.055248990654945374
zero_steer,107,False,-2.6233348846435547,0.061222922056913376,3.799972756528832,-1.3594176769256592,0.1451716125011444,-0.7607368230819702,0.18493567407131195,0.34034597873687744,0.23292067646980286,0.34034597873687744,0.0,6.806919574737549,0.0,-0.010295048356056213,0.0132684838026762,0.0014867177233099937,0.10012301057577133,0.14444714784622192,0.16544221341609955,2.005289112245795,2.005289077758789,0.1614207923412323,0.14517077803611755,3.799972756528832,0.7084380388259888,18,0.024074435234069824,0.0,0.35216572880744934,0.0,False,False,False,False,False,False,0.252179354429245,0.0016025733202695847,-0.0017549899639561772,0.0,-0.002907960908487439,0.34034597873687744,0.0,0.0,0.12515376508235931,0.13368594646453857,0.4147736728191376,0.2533315122127533,0.28769779205322266,0.28769779205322266,0.2502082288265228,1.0,0.2502082288265228,0.9452228546142578,False,0.0547771155834198
zero_steer,108,False,-2.6150169372558594,0.061794571578502655,3.7962067609752164,-1.3510942459106445,0.1456601768732071,-0.7524107694625854,0.18538488447666168,0.3405163586139679,0.2331080585718155,0.3405163586139679,0.0,6.810327172279358,0.0,-0.010346638038754463,0.01336602121591568,0.0015096915885806084,0.10064174234867096,0.14461778104305267,0.16544798016548157,1.9895350674817491,1.9895350933074951,0.1656593382358551,0.14565934240818024,3.7962067609752164,0.7084380388259888,18,0.023995280265808105,0.0,0.3604457378387451,0.0,False,False,False,False,False,False,0.25211969017982483,0.0009377282112836838,-0.0014175871619954705,1.0050094800817533e-07,-0.0005087878089398146,0.3405163586139679,0.0,0.0,0.1258021742105484,0.1326356679201126,0.41616955399513245,0.25308045744895935,0.2875376045703888,0.2875376045703888,0.25003960728645325,1.0,0.25003960728645325,0.9455704689025879,False,0.0544295459985733
zero_steer,109,False,-2.6067004203796387,0.06236325204372406,3.792280255976105,-1.3427720069885254,0.14614224433898926,-0.7440857887268066,0.185825914144516,0.3404439389705658,0.23307523131370544,0.3404439389705658,0.0,6.808878779411316,0.0,-0.01021838840097189,0.013516130857169628,0.0016488712280988693,0.10121236741542816,0.14480380713939667,0.1654518097639084,1.9721285438253833,1.9721285104751587,0.1701948493719101,0.1461414098739624,3.792280255976105,0.7084380388259888,18,0.023907780647277832,0.0,0.36872413754463196,0.0,False,False,False,False,False,False,0.25203993916511536,0.0004967972636222839,-0.0007978615467436612,1.1611150796397851e-07,-0.0010994963813573122,0.3404439389705658,0.0,0.0,0.1265154629945755,0.13147523999214172,0.4175468981266022,0.25281867384910583,0.2873300611972809,0.2873300611972809,0.24982112646102905,1.0,0.24982112646102905,0.9457451701164246,False,0.05425482988357544
