Su2050/forklift_sim/outputs/exp83_single_point_steer_diag/exp83_force_steering_guidance_v3_seed42_point_yneg0p1_yaw0_normal_steps.csv
mode,step,done,root_x,root_y,root_yaw_deg,fork_center_x,fork_center_y,tip_x,tip_y,raw_drive,raw_steer,applied_drive,applied_steer,drive_target_rad_s,steer_target_rad,left_steer_joint_pos_rad,right_steer_joint_pos_rad,mean_steer_joint_pos_rad,root_y_signed_m,center_y_signed_m,tip_y_signed_m,yaw_err_signed_deg,yaw_err_abs_deg,d_traj_m,d_traj_signed_m,yaw_traj_signed_deg,traj_s_norm,traj_closest_idx,dist_front_m,insert_depth_m,pallet_disp_xy_m,hold_counter,inserted,push_free,hold_entry,clean_insert_ready,dirty_insert,success,policy_vx_r,policy_vy_r,policy_yaw_rate,policy_lift_pos,policy_lift_vel,policy_prev_drive,policy_prev_steer,policy_prev_lift,policy_y_err_obs,policy_yaw_err_obs,policy_d_traj_signed_obs,policy_yaw_traj_err_obs,steer_target_cmd,steer_target_abs,steer_guidance_gate,steer_enforce_gate,steer_penalty_gate,steer_match,steer_wrong_sign,steer_shortfall
normal,0,False,-3.5,-0.10000000149011612,0.0,-2.233297824859619,-0.10000000149011612,-1.6332979202270508,-0.10000000149011612,nan,nan,nan,nan,nan,nan,0.0,0.0,0.0,-0.10000000149011612,-0.10000000149011612,-0.10000000149011612,0.0,0.0,0.0,0.0,-6.537130939050068,0.0,0,0.5532978773117065,0.0,0.0,0.0,False,True,False,False,False,False,0.0,0.0,0.0,0.0,0.0,0.0,0.0,0.0,-0.125,0.0,0.0,-0.4358087182044983,-0.16520217061042786,0.16520217061042786,0.12126544862985611,0.0,0.0,0.8347978591918945,False,0.16520217061042786
normal,1,False,-3.4997687339782715,-0.10017795860767365,-0.017110756121479217,-2.2330667972564697,-0.10055623948574066,-1.6330667734146118,-0.10073542594909668,0.35469815135002136,0.25487327575683594,0.35469815135002136,0.25487327575683594,7.093963027000427,0.15292396545410156,0.0333634689450264,0.03311794996261597,0.03324070945382118,-0.10017795860767365,-0.10055623203516006,-0.10073541849851608,-0.017110561020860834,0.017110561951994896,0.0006023076130077243,-0.000578884151764214,-6.554241416694596,0.0,0,0.553066611289978,0.0,6.125415552560298e-08,0.0,False,True,False,False,False,False,-0.0010011529084295034,0.0007098129135556519,-0.012125113047659397,0.0,1.3011275768803898e-05,0.35469815135002136,0.25487327575683594,0.0,-0.12522244453430176,-0.0011407040292397141,-0.001653954735957086,-0.4369494318962097,-0.16664433479309082,0.16664433479309082,0.12278351932764053,0.0,0.0,0.5784823894500732,True,0.42151761054992676
normal,2,False,-3.499136209487915,-0.10043776035308838,-0.043839342404102054,-2.2324345111846924,-0.10140696913003922,-1.6324347257614136,-0.10186605155467987,0.3824876844882965,0.2882397770881653,0.3824876844882965,0.2882397770881653,7.64975368976593,0.17294386625289918,0.06667817384004593,0.0662296935915947,0.06645393371582031,-0.10043776035308838,-0.10140696167945862,-0.10186604410409927,-0.04383914563595702,0.043839145451784134,0.0016507175751030445,-0.0014960045227780938,-6.580969654464149,0.0,0,0.5524345636367798,0.0,6.125415552560298e-08,0.0,False,True,False,False,False,False,-0.002016243292018771,0.000927925924770534,-0.016046153381466866,0.0,7.287203516170848e-06,0.3824876844882965,0.2882397770881653,0.0,-0.12554720044136047,-0.002922609681263566,-0.004274298902601004,-0.43873131275177,-0.16889427602291107,0.16889427602291107,0.1251518726348877,0.0,0.0,0.5428659319877625,True,0.45713406801223755
normal,3,False,-3.4987683296203613,-0.10050550103187561,-0.05172219112425005,-2.2320668697357178,-0.1016489788889885,-1.632067084312439,-0.10219061374664307,0.38515976071357727,0.2914893627166748,0.38515976071357727,0.2914893627166748,7.703195214271545,0.17489361763000488,0.07403116673231125,0.08273886889219284,0.07838501781225204,-0.10050550103187561,-0.1016489714384079,-0.10219060629606247,-0.051721994356105014,0.05172199383378029,0.0020577602554112673,-0.0017782766371965408,-6.588852973426813,0.0,0,0.5520669221878052,0.0,6.125415552560298e-08,0.0,False,True,False,False,False,False,0.027025561779737473,0.0025566676631569862,-0.0014144013402983546,4.461271601030603e-06,-0.0011691763065755367,0.38515976071357727,0.2914893627166748,0.0,-0.12563186883926392,-0.0034481328912079334,-0.005080790724605322,-0.43925684690475464,-0.16955958306789398,0.16955958306789398,0.12585219740867615,0.0,0.0,0.53895103931427,True,0.46104896068573
normal,4,False,-3.4972190856933594,-0.10048775374889374,-0.055756111520230155,-2.230517625808716,-0.1017204150557518,-1.630517840385437,-0.10230429470539093,0.38536208868026733,0.2917056679725647,0.38536208868026733,0.2917056679725647,7.707241773605347,0.1750234007835388,0.0742698535323143,0.10274799168109894,0.08850891888141632,-0.10048775374889374,-0.1017204076051712,-0.10230428725481033,-0.05575591475208512,0.055755916982889175,0.0032694542314857244,-0.0020256084389984608,-6.592886200131706,0.0,0,0.5505176782608032,0.0,6.125415552560298e-08,0.0,False,True,False,False,False,False,0.05937124788761139,0.004287637770175934,-0.002355731325224042,5.129486908117542e-06,-0.0009347029263153672,0.38536208868026733,0.2917056679725647,0.0,-0.12560969591140747,-0.003717060899361968,-0.005787452682852745,-0.4395257532596588,-0.16992932558059692,0.16992932558059692,0.12624140083789825,0.0,0.0,0.5383650064468384,True,0.4616349935531616
normal,5,False,-3.494611978530884,-0.10045652836561203,-0.06244791265332412,-2.2279105186462402,-0.10183713585138321,-1.6279109716415405,-0.10249108821153641,0.3854050040245056,0.2917923927307129,0.3854050040245056,0.2917923927307129,7.708100080490112,0.17507543563842773,0.07436748594045639,0.11933990567922592,0.09685369580984116,-0.10045639425516129,-0.10183706134557724,-0.10249103605747223,-0.06245042061340998,0.06245042011141777,0.005691935308277607,-0.0024383538402616978,-6.599578504857848,0.0,0,0.5479109287261963,0.0,3.641417123390056e-08,0.0,False,True,False,False,False,False,0.09041720628738403,0.00365583598613739,-0.004252052865922451,3.027078264494776e-06,-0.0039569176733493805,0.3854050040245056,0.2917923927307129,0.0,-0.12557049095630646,-0.00416336115449667,-0.006966725457459688,-0.4399718940258026,-0.17054317891597748,0.17054317891597748,0.12688755989074707,0.0,0.0,0.5376644134521484,True,0.46233558654785156
normal,6,False,-3.4910130500793457,-0.10041485726833344,-0.07184109028874448,-2.2243118286132812,-0.10200313478708267,-1.624312400817871,-0.10275544971227646,0.38554733991622925,0.29198479652404785,0.38554733991622925,0.29198479652404785,7.710946798324585,0.1751908779144287,0.07450809329748154,0.13359788060188293,0.10405299067497253,-0.10041455924510956,-0.10200293362140656,-0.10275529325008392,-0.07184530579612286,0.07184530794620514,0.006797556299716234,-0.0012218391057103872,-22.56568314027297,0.012250503525137901,1,0.544312596321106,0.0,2.709583668547566e-07,0.0,False,True,False,False,False,False,0.11919853836297989,0.004495004191994667,-0.006298138294368982,3.9748974245412683e-07,-0.000947476364672184,0.38554733991622925,0.29198479652404785,0.0,-0.12551820278167725,-0.004789687227457762,-0.0034909690730273724,-1.0,-0.31023019552230835,0.31023019552230835,0.2739265263080597,0.0,0.0,0.3977850079536438,True,0.6022149920463562
normal,7,False,-3.486542224884033,-0.10036501288414001,-0.08329025491593786,-2.219841480255127,-0.10220640897750854,-1.6198421716690063,-0.10307861864566803,0.4032222032546997,0.3163601756095886,0.4032222032546997,0.3163601756095886,8.064444065093994,0.18981610536575316,0.07476145774126053,0.14790618419647217,0.11133381724357605,-0.10036485642194748,-0.1022062823176384,-0.10307849943637848,-0.08329148221555435,0.08329148590564728,0.004083428531885147,-0.0031197776552289724,-22.577132244869205,0.012250503525137901,1,0.5398423671722412,0.0,2.522081388178776e-07,0.0,False,True,False,False,False,False,0.1429835706949234,0.005575563292950392,-0.007772606331855059,5.43548708265007e-07,-0.0017967335879802704,0.4032222032546997,0.3163601756095886,0.0,-0.1254560649394989,-0.0055527654476463795,-0.00891365110874176,-1.0,-0.31177249550819397,0.31177249550819397,0.275549978017807,0.0,0.0,0.371867299079895,True,0.628132700920105
normal,8,False,-3.481365442276001,-0.10030641406774521,-0.09691376757672249,-2.214665174484253,-0.10244899243116379,-1.6146659851074219,-0.10346387326717377,0.40470317006111145,0.3182309865951538,0.40470317006111145,0.3182309865951538,8.094063401222229,0.19093859195709229,0.0749458372592926,0.15973415970802307,0.11733999848365784,-0.10030621290206909,-0.10244883596897125,-0.10346373915672302,-0.09691587533041167,0.09691587835550308,0.005707457195967436,-0.005324098281562328,-22.590756764716087,0.012250503525137901,1,0.5346661806106567,0.0,2.779334522529098e-07,0.0,False,True,False,False,False,False,0.16285233199596405,0.005578015465289354,-0.008046714588999748,6.331693498395907e-07,-0.002394325565546751,0.40470317006111145,0.3182309865951538,0.0,-0.12538276612758636,-0.0064610582776367664,-0.015211709775030613,-1.0,-0.3135772943496704,0.3135772943496704,0.2774497866630554,0.0,0.0,0.3681917190551758,True,0.6318082809448242
normal,9,False,-3.4755823612213135,-0.10019033402204514,-0.12389138729225968,-2.208883285522461,-0.10292933881282806,-1.608884572982788,-0.1042267233133316,0.404836505651474,0.31837308406829834,0.404836505651474,0.31837308406829834,8.09673011302948,0.191023850440979,0.08711130172014236,0.16332916915416718,0.12522023916244507,-0.10019023716449738,-0.1029292494058609,-0.10422663390636444,-0.1238918008388696,0.12389180064201355,0.009438920766115189,-0.0061118812300264835,-39.98166660863937,0.02239859662950039,2,0.528884768486023,0.0,2.505702525468223e-07,0.0,False,True,False,False,False,False,0.17790040373802185,0.015474461019039154,-0.013157516717910767,1.3139019756636117e-05,-0.0004535512998700142,0.404836505651474,0.31837308406829834,0.0,-0.12523779273033142,-0.008259452879428864,-0.01746251806616783,-1.0,-0.31510695815086365,0.31510695815086365,0.2790599465370178,0.0,0.0,0.3665199279785156,True,0.6334800720214844
normal,10,False,-3.4692182540893555,-0.10008438676595688,-0.14871808438862466,-2.2025203704833984,-0.10337226092815399,-1.6025224924087524,-0.10492963343858719,0.4050416946411133,0.3186179995536804,0.4050416946411133,0.3186179995536804,8.100833892822266,0.19117079973220824,0.09299163520336151,0.16902710497379303,0.13100937008857727,-0.10008422285318375,-0.10337212681770325,-0.10492951422929764,-0.14871937838930727,0.14871938526630402,0.010844617150723934,-0.010529379360377789,-40.00649093117778,0.02239859662950039,2,0.5225226879119873,0.0,2.8111364258620597e-07,0.0,False,True,False,False,False,False,0.19136732816696167,0.00635475292801857,-0.015721678733825684,0.00016382266767323017,-0.007927252911031246,0.4050416946411133,0.3186179995536804,0.0,-0.12510527670383453,-0.009914625436067581,-0.03008394129574299,-1.0,-0.31862518191337585,0.31862518191337585,0.2827633321285248,0.0,0.0,0.3627568483352661,True,0.6372431516647339
normal,11,False,-3.4627177715301514,-0.09999307990074158,-0.17174577369063176,-2.196021318435669,-0.1037900447845459,-1.5960240364074707,-0.10558856278657913,0.4051136374473572,0.3187474012374878,0.4051136374473572,0.3187474012374878,8.102272748947144,0.19124844074249267,0.10190640389919281,0.17516013979911804,0.13853326439857483,-0.09999293833971024,-0.10378992557525635,-0.10558845102787018,-0.17174664080449123,0.1717466413974762,0.015166381374001503,-0.015014822594821453,-40.02951891396448,0.02239859662950039,2,0.5160242319107056,0.0,2.5452956720073416e-07,0.0,False,True,False,False,False,False,0.2049083113670349,0.024932188913226128,-0.02220589481294155,3.89485721825622e-05,-0.003149444703012705,0.4051136374473572,0.3187474012374878,0.0,-0.12499117106199265,-0.011449775658547878,-0.042899493128061295,-1.0,-0.32211410999298096,0.32211410999298096,0.28643590211868286,0.0,0.0,0.35913848876953125,True,0.6408615112304688
normal,12,False,-3.4558215141296387,-0.09987849742174149,-0.19945715849426932,-2.189127206802368,-0.10428811609745026,-1.5891307592391968,-0.10637681931257248,0.40518802404403687,0.31899142265319824,0.40518802404403687,0.31899142265319824,8.103760480880737,0.19139485359191893,0.11004302650690079,0.1765815019607544,0.1433122605085373,-0.09987831860780716,-0.10428797453641891,-0.10637669265270233,-0.19945893274262794,0.19945894181728363,0.02022608555853367,-0.018116053193807602,-54.905749473427704,0.031632695347070694,3,0.5091309547424316,0.0,2.780449221972958e-07,0.0,False,True,False,False,False,False,0.21063537895679474,0.009093672037124634,-0.028835507109761238,6.736885552527383e-06,9.406358003616333e-06,0.40518802404403687,0.31899142265319824,0.0,-0.1248478963971138,-0.01329726167023182,-0.051760151982307434,-1.0,-0.32499778270721436,0.32499778270721436,0.2894713580608368,0.0,0.0,0.3560107946395874,True,0.6439892053604126
normal,13,False,-3.4486191272735596,-0.09999421238899231,-0.24655478127694513,-2.181928873062134,-0.10544505715370178,-1.5819343328475952,-0.10802696645259857,0.40509915351867676,0.31883060932159424,0.40509915351867676,0.31883060932159424,8.101983070373535,0.19129836559295654,0.11735875904560089,0.1788998693227768,0.14812931418418884,-0.09999407082796097,-0.10544493049383163,-0.10802685469388962,-0.2465556617310178,0.24655567109584808,0.025328941643238068,-0.02465919405221939,-54.95284704284953,0.031632695347070694,3,0.5019345283508301,0.0,2.552171451952745e-07,0.0,False,True,False,False,False,False,0.22107703983783722,0.008081544190645218,-0.017690492793917656,2.251661044283537e-06,-0.0012704229447990656,0.40509915351867676,0.31883060932159424,0.0,-0.12499258667230606,-0.016437044367194176,-0.07045484334230423,-1.0,-0.3308004140853882,0.3308004140853882,0.29557937383651733,0.0,0.0,0.3503689765930176,True,0.6496310234069824
normal,14,False,-3.4411277770996094,-0.09991012513637543,-0.29196185219876347,-2.1744420528411865,-0.10636482387781143,-1.574449896812439,-0.1094222292304039,0.4049079418182373,0.3187154531478882,0.4049079418182373,0.3187154531478882,8.098158836364746,0.1912292718887329,0.1274944692850113,0.18134793639183044,0.15442121028900146,-0.0999099612236023,-0.10636469721794128,-0.10942211747169495,-0.2919636397873353,0.2919636368751526,0.03138091042637825,-0.031300757080316544,-54.99825755554636,0.031632695347070694,3,0.49445009231567383,0.0,2.7484847464620543e-07,0.0,False,True,False,False,False,False,0.23152585327625275,0.015684299170970917,-0.016726471483707428,0.0,0.00081773498095572,0.4049079418182373,0.3187154531478882,0.0,-0.12488745152950287,-0.019464243203401566,-0.08943073451519012,-1.0,-0.3364751935005188,0.3364751935005188,0.30155283212661743,0.0,0.0,0.344809353351593,True,0.655190646648407
normal,15,False,-3.4333605766296387,-0.09974838048219681,-0.33396346016952216,-2.166680097579956,-0.10713164508342743,-1.56669020652771,-0.1106288805603981,0.40484267473220825,0.31872159242630005,0.40484267473220825,0.31872159242630005,8.096853494644165,0.19123295545578003,0.13295352458953857,0.1831410527229309,0.15804728865623474,-0.09974829852581024,-0.10713154822587967,-0.11062877625226974,-0.3339628732001404,0.33396288752555847,0.038117971271276474,-0.03807850554585457,-55.040256388752766,0.031632695347070694,3,0.4866904020309448,0.0,2.65319272330089e-07,0.0,False,True,False,False,False,False,0.2366824746131897,0.025131242349743843,-0.025314826518297195,0.0,-2.534274972276762e-05,0.40484267473220825,0.31872159242630005,0.0,-0.1246853768825531,-0.02226419188082218,-0.10879573225975037,-1.0,-0.3420395255088806,0.3420395255088806,0.30741003155708313,0.0,0.0,0.33923888206481934,True,0.6607611179351807
normal,16,False,-3.4252169132232666,-0.09960001707077026,-0.3752393872213935,-2.1585421562194824,-0.10789579153060913,-1.5585548877716064,-0.11182526499032974,0.4050865173339844,0.3190290927886963,0.4050865173339844,0.3190290927886963,8.101730346679688,0.19141745567321777,0.1365118771791458,0.18503627181053162,0.1607740819454193,-0.09960009902715683,-0.10789582878351212,-0.11182527244091034,-0.37523709270471917,0.3752371072769165,0.04548284783959389,-0.04349436238408089,-65.29914246550398,0.04082300513982773,4,0.4785550832748413,0.0,3.023760086762195e-07,0.0,False,True,False,False,False,False,0.23828624188899994,0.010533750057220459,-0.015071055851876736,8.472973422612995e-05,-0.014544425532221794,0.4050865173339844,0.3190290927886963,0.0,-0.12450012564659119,-0.025015806779265404,-0.12426961213350296,-1.0,-0.3468024432659149,0.3468024432659149,0.31242361664772034,0.0,0.0,0.3341684341430664,True,0.6658315658569336
normal,17,False,-3.417332887649536,-0.0994306355714798,-0.42122099444628625,-2.150665044784546,-0.10874295979738235,-1.550681233406067,-0.11315393447875977,0.4050518274307251,0.3190799355506897,0.4050518274307251,0.3190799355506897,8.101036548614502,0.1914479613304138,0.14446024596691132,0.18637387454509735,0.16541706025600433,-0.09943065792322159,-0.10874292999505997,-0.11315388977527618,-0.42121891337302353,0.4212189316749573,0.05210608243942261,-0.05098741874098778,-65.3451232989965,0.04082300513982773,4,0.47068142890930176,0.0,2.6036056510747585e-07,0.0,False,True,False,False,False,False,0.24515008926391602,0.024361325427889824,-0.025510726496577263,0.0,-0.00015513095422647893,0.4050518274307251,0.3190799355506897,0.0,-0.12428832054138184,-0.0280812606215477,-0.1456783413887024,-1.0,-0.3529401421546936,0.3529401421546936,0.31888437271118164,0.0,0.0,0.3279799222946167,True,0.6720200777053833
normal,18,False,-3.409139633178711,-0.09927698969841003,-0.4667433248103485,-2.142479658126831,-0.10959569364786148,-1.5424995422363281,-0.11448336392641068,0.4051234722137451,0.3191412687301636,0.4051234722137451,0.3191412687301636,8.102469444274902,0.19148476123809813,0.14727117121219635,0.18807820975780487,0.1676746904850006,-0.09927689284086227,-0.10959560424089432,-0.11448328197002411,-0.46674385841887744,0.4667438566684723,0.05931201949715614,-0.05876202881336212,-65.39064650981463,0.04082300513982773,4,0.462499737739563,0.0,2.7648056288853695e-07,0.0,False,True,False,False,False,False,0.2486511468887329,0.024497613310813904,-0.020352493971586227,4.802809144166531e-06,0.00039196526631712914,0.4051234722137451,0.3191412687301636,0.0,-0.12409611791372299,-0.03111625649034977,-0.1678915172815323,-1.0,-0.35922813415527344,0.35922813415527344,0.32550328969955444,0.0,0.0,0.321630597114563,True,0.678369402885437
normal,19,False,-3.4010941982269287,-0.09899541735649109,-0.48815964975718795,-2.1344380378723145,-0.10978758335113525,-1.5344598293304443,-0.11489951610565186,0.4049749970436096,0.3190104067325592,0.4049749970436096,0.3190104067325592,8.099499940872192,0.19140624403953552,0.15126405656337738,0.19014140963554382,0.17070272564888,-0.09899531304836273,-0.10978749394416809,-0.11489943414926529,-0.4881602900874227,0.48816028237342834,0.06630513817071915,-0.06612637639045715,-65.41206598305179,0.04082300513982773,4,0.4544600248336792,0.0,3.0505341896969185e-07,0.0,False,True,False,False,False,False,0.24952709674835205,0.02192068286240101,-0.025548642501235008,0.0,0.0026324973441660404,0.4049749970436096,0.3190104067325592,0.0,-0.12374414503574371,-0.03254402056336403,-0.18893250823020935,-1.0,-0.36418676376342773,0.36418676376342773,0.3307228982448578,0.0,0.0,0.31680285930633545,True,0.6831971406936646
normal,20,False,-3.3925092220306396,-0.09884210675954819,-0.5365586903810157,-2.1258625984191895,-0.11070424318313599,-1.5258890390396118,-0.11632298678159714,0.4050544500350952,0.3190464377403259,0.4050544500350952,0.3190464377403259,8.101089000701904,0.19142786264419556,0.1536073535680771,0.19231055676937103,0.17295895516872406,-0.09884218871593475,-0.11070427298545837,-0.11632298678159714,-0.5365561290600769,0.5365561246871948,0.07431424409151077,-0.07428133487701416,-65.46046470351051,0.04082300513982773,4,0.44588911533355713,0.0,1.9090890646111802e-07,0.0,False,True,False,False,False,False,0.2523985803127289,0.023406943306326866,-0.02450144663453102,9.591316484147683e-06,-0.003139412496238947,0.4050544500350952,0.3190464377403259,0.0,-0.12355273962020874,-0.03577040880918503,-0.21223239600658417,-1.0,-0.37081432342529297,0.37081432342529297,0.337699294090271,0.0,0.0,0.3101392388343811,True,0.6898607611656189
normal,21,False,-3.384194850921631,-0.09869612008333206,-0.582875697246753,-2.117558240890503,-0.1115821897983551,-1.5175893306732178,-0.1176859438419342,0.4052310585975647,0.31924957036972046,0.4052310585975647,0.31924957036972046,8.104621171951294,0.19154974222183227,0.15609608590602875,0.19338440895080566,0.1747402548789978,-0.09869635850191116,-0.11158229410648346,-0.11768598854541779,-0.5828696141095235,0.5828696489334106,0.08218486607074738,-0.0821743831038475,-65.50678021627236,0.04082300513982773,4,0.43758952617645264,0.0,2.923307249602658e-07,0.0,False,True,False,False,False,False,0.25407686829566956,0.021637361496686935,-0.023479685187339783,4.456802344066091e-06,-0.0004843195201829076,0.4052310585975647,0.31924957036972046,0.0,-0.1233704462647438,-0.038857974112033844,-0.23478396236896515,-1.0,-0.3772079348564148,0.3772079348564148,0.3444294035434723,0.0,0.0,0.30354249477386475,True,0.6964575052261353
normal,22,False,-3.3755085468292236,-0.09856583923101425,-0.6357457370125889,-2.108884334564209,-0.11262069642543793,-1.5089213848114014,-0.11927807331085205,0.40511542558670044,0.31911641359329224,0.40511542558670044,0.31911641359329224,8.102308511734009,0.19146984815597534,0.15974251925945282,0.19514372944831848,0.17744311690330505,-0.09856612235307693,-0.11262083053588867,-0.11927814036607742,-0.6357392269885361,0.6357392072677612,0.09054481238126755,-0.09047015011310577,-65.55965271063744,0.04082300513982773,4,0.42892158031463623,0.0,2.865018586817314e-07,0.0,False,True,False,False,False,False,0.2567112445831299,0.03126947209239006,-0.030305786058306694,7.43199052521959e-05,-0.003605468664318323,0.40511542558670044,0.31911641359329224,0.0,-0.12320765107870102,-0.0423826165497303,-0.25848615169525146,-1.0,-0.38411861658096313,0.38411861658096313,0.35170379281044006,0.0,0.0,0.29676496982574463,True,0.7032350301742554
normal,23,False,-3.367016077041626,-0.09862546622753143,-0.6909356398578488,-2.1004061698913574,-0.11390037834644318,-1.500449776649475,-0.1211356669664383,0.40524235367774963,0.319382905960083,0.40524235367774963,0.319382905960083,8.104847073554993,0.1916297435760498,0.16237258911132812,0.19498439133167267,0.1786784827709198,-0.09862539917230606,-0.11390030384063721,-0.12113559246063232,-0.6909353730535843,0.6909353733062744,0.09885796904563904,-0.0976509377360344,-71.30160833075956,0.05035323277115822,5,0.4204500913619995,0.0,3.083605122355948e-07,0.0,False,True,False,False,False,False,0.26023703813552856,0.036126889288425446,-0.0014174602692946792,2.899056562455371e-05,-0.05982181429862976,0.40524235367774963,0.319382905960083,0.0,-0.12328174710273743,-0.04606235772371292,-0.27900269627571106,-1.0,-0.39059752225875854,0.39059752225875854,0.3585236966609955,0.0,0.0,0.29001957178115845,True,0.7099804282188416
normal,24,False,-3.3579630851745605,-0.09831707924604416,-0.740813042911014,-2.09136700630188,-0.11469461023807526,-1.4914170503616333,-0.12245216965675354,0.4057023525238037,0.319873571395874,0.4057023525238037,0.319873571395874,8.114047050476074,0.1919241428375244,0.16531871259212494,0.19503983855247498,0.18017926812171936,-0.09831702709197998,-0.11469455063343048,-0.12245211005210876,-0.7408127227458967,0.7408127188682556,0.10725202411413193,-0.10644038021564484,-71.35148920226817,0.05035323277115822,5,0.41141724586486816,0.0,2.7732281182579754e-07,0.0,False,True,False,False,False,False,0.2637650668621063,0.01896207220852375,-0.02757107838988304,0.0003061935130972415,-0.006380867213010788,0.4057023525238037,0.319873571395874,0.0,-0.12289628386497498,-0.04938751459121704,-0.3041153848171234,-1.0,-0.3975631594657898,0.3975631594657898,0.36585596203804016,0.0,0.0,0.2825632691383362,True,0.7174367308616638
normal,25,False,-3.3498475551605225,-0.09818358719348907,-0.7863855057963671,-2.0832648277282715,-0.11556854844093323,-1.4833213090896606,-0.12380330264568329,0.4053674042224884,0.3194180130958557,0.4053674042224884,0.3194180130958557,8.107348084449768,0.19165080785751343,0.1674881875514984,0.19590246677398682,0.18169532716274261,-0.09818372130393982,-0.11556859314441681,-0.12380330264568329,-0.7863813970106945,0.7863814234733582,0.11493224650621414,-0.11437250673770905,-71.39706022441048,0.05035323277115822,5,0.4033215045928955,0.0,2.3392757952933607e-07,0.0,False,True,False,False,False,False,0.26590627431869507,0.022249583154916763,-0.02804994024336338,9.196250175591558e-06,-0.00037357653491199017,0.4053674042224884,0.3194180130958557,0.0,-0.12272965162992477,-0.05242542549967766,-0.3267785906791687,-1.0,-0.40395450592041016,0.40395450592041016,0.37258368730545044,0.0,0.0,0.27662748098373413,True,0.7233725190162659
normal,26,False,-3.3407530784606934,-0.09808310121297836,-0.8316571735539753,-2.0741844177246094,-0.11646883189678192,-1.4742475748062134,-0.12517762184143066,0.4052392244338989,0.31936782598495483,0.4052392244338989,0.31936782598495483,8.104784488677979,0.1916206955909729,0.17007789015769958,0.196278378367424,0.1831781268119812,-0.09808304905891418,-0.11646876484155655,-0.1251775473356247,-0.8316564798628877,0.8316565155982971,0.12357943505048752,-0.12323606014251709,-71.44233071822933,0.05035323277115822,5,0.3942478895187378,0.0,3.398309047497605e-07,0.0,False,True,False,False,False,False,0.26487502455711365,0.024370230734348297,-0.028592199087142944,4.0028549364024e-08,9.03079635463655e-05,0.4052392244338989,0.31936782598495483,0.0,-0.12260381132364273,-0.055443763732910156,-0.35210302472114563,-1.0,-0.41088396310806274,0.41088396310806274,0.37987786531448364,0.0,0.0,0.2697482109069824,True,0.7302517890930176
normal,27,False,-3.3317296504974365,-0.09790413826704025,-0.8879257126795683,-2.0651798248291016,-0.11753371357917786,-1.4652518033981323,-0.12683168053627014,0.40525391697883606,0.3193233609199524,0.40525391697883606,0.3193233609199524,8.105078339576721,0.19159401655197142,0.17186717689037323,0.19746685028076172,0.18466702103614807,-0.097904272377491,-0.11753375828266144,-0.12683168053627014,-0.8879217106156015,0.8879217505455017,0.1322835087776184,-0.1320827305316925,-71.49859781661189,0.05035323277115822,5,0.3852519989013672,0.0,2.32907368058477e-07,0.0,False,True,False,False,False,False,0.26404842734336853,0.03201531246304512,-0.01959509216248989,0.00017038221994880587,-0.004578685387969017,0.40525391697883606,0.3193233609199524,0.0,-0.1223803386092186,-0.05919478088617325,-0.37737923860549927,-1.0,-0.4182262420654297,0.4182262420654297,0.38760656118392944,0.0,0.0,0.2624503970146179,True,0.7375496029853821
normal,28,False,-3.3233203887939453,-0.09779476374387741,-0.9404743600284432,-2.056788921356201,-0.11858595162630081,-1.4568697214126587,-0.12843413650989532,0.40526628494262695,0.31931889057159424,0.40526628494262695,0.31931889057159424,8.105325698852539,0.19159133434295653,0.17451973259449005,0.19840382039546967,0.18646177649497986,-0.09779471158981323,-0.11858588457107544,-0.12843406200408936,-0.9404736129765028,0.9404736161231995,0.13936465978622437,-0.0,-0.9404742533067374,0.1304512321949005,13,0.3768700361251831,0.0,3.392298992821452e-07,0.0,False,True,False,False,False,False,0.26598429679870605,0.03446375951170921,-0.028890319168567657,2.8895217383251293e-06,-7.954868488013744e-05,0.40526628494262695,0.31931889057159424,0.0,-0.12224338948726654,-0.06269823759794235,-0.0,-0.06269828230142593,-0.11059333384037018,0.11059333384037018,0.0637824609875679,0.0,0.0,0.5700877904891968,True,0.4299122095108032
normal,29,False,-3.3143231868743896,-0.09767722338438034,-0.9966893782185869,-2.0478127002716064,-0.11971103399991989,-1.4479035139083862,-0.1301478147506714,0.3759949207305908,0.27838361263275146,0.3759949207305908,0.27838361263275146,7.519898414611816,0.16703016757965086,0.17480343580245972,0.1955932080745697,0.1851983219385147,-0.09767735749483109,-0.11971107870340347,-0.1301478147506714,-0.9966853227937672,0.9966853260993958,0.145208477973938,-0.0,-0.9966893782185869,0.1304512321949005,13,0.3679037094116211,0.0,2.3016173145151697e-07,0.0,False,True,False,False,False,False,0.26812323927879333,0.029059376567602158,-0.029494663700461388,6.757491632924939e-07,-0.00010414281132398173,0.3759949207305908,0.27838361263275146,0.0,-0.12209669500589371,-0.06644568592309952,-0.0,-0.0664459615945816,-0.11384952068328857,0.11384952068328857,0.06721002608537674,0.0,0.0,0.60776686668396,True,0.39223313331604004
normal,30,False,-3.3054380416870117,-0.09765806794166565,-1.0571988778493762,-2.0389516353607178,-0.12102941423654556,-1.4390537738800049,-0.13209974765777588,0.3731052279472351,0.2748147249221802,0.3731052279472351,0.2748147249221802,7.462104558944702,0.1648888349533081,0.17455744743347168,0.19489836692810059,0.18472790718078613,-0.09765812754631042,-0.12102942168712616,-0.13209973275661469,-1.0571966366935548,1.0571966171264648,0.1472955048084259,-0.12102872133255005,-1.0571989845710819,0.2753758430480957,15,0.35905396938323975,0.0,2.503552423149813e-07,0.0,False,True,False,False,False,False,0.26915988326072693,0.01910872757434845,-0.024561528116464615,0.0,0.00128009426407516,0.3731052279472351,0.2748147249221802,0.0,-0.12207265943288803,-0.07047977298498154,-0.3457963466644287,-0.07047992944717407,-0.18657419085502625,0.18657419085502625,0.14376232028007507,0.0,0.0,0.5386110544204712,True,0.4613889157772064
normal,31,False,-3.2965288162231445,-0.09755976498126984,-1.113285403105759,-2.0300660133361816,-0.12217086553573608,-1.4301791191101074,-0.13382843136787415,0.37140586972236633,0.27311214804649353,0.37140586972236633,0.27311214804649353,7.428117394447327,0.1638672888278961,0.1729964017868042,0.19356809556484222,0.1832822561264038,-0.09755989164113998,-0.12217090278863907,-0.13382843136787415,-1.113281454402645,1.113281488418579,0.14338968694210052,-0.12217016518115997,-1.113285403105759,0.2753758430480957,15,0.3501793146133423,0.0,2.3184614406090986e-07,0.0,False,True,False,False,False,False,0.26910343766212463,0.026059795171022415,-0.029307523742318153,1.6194892396015348e-06,0.0012649334967136383,0.37140586972236633,0.27311214804649353,0.0,-0.12194986641407013,-0.0742187649011612,-0.3490576148033142,-0.07421902567148209,-0.1904858499765396,0.1904858499765396,0.14787985384464264,0.0,0.0,0.5364019870758057,True,0.46359801292419434
normal,32,False,-3.2873740196228027,-0.09749679267406464,-1.1730297081060952,-2.020937442779541,-0.12342847138643265,-1.4210631847381592,-0.13571155071258545,0.3715828061103821,0.27335047721862793,0.3715828061103821,0.27335047721862793,7.431656122207642,0.16401028633117676,0.17352363467216492,0.1931152045726776,0.18331941962242126,-0.097496896982193,-0.12342851608991623,-0.13571155071258545,-1.1730270400634506,1.1730270385742188,0.13993681967258453,-0.12342776358127594,-1.1730297081060952,0.2753758430480957,15,0.34106338024139404,0.0,3.0263763051152637e-07,0.0,False,True,False,False,False,False,0.2741309106349945,0.023345723748207092,-0.0329168476164341,0.00044443775550462306,-0.005445145536214113,0.3715828061103821,0.27335047721862793,0.0,-0.12187112122774124,-0.07820180058479309,-0.3526507616043091,-0.07820197939872742,-0.19470000267028809,0.19470000267028809,0.15231579542160034,0.059577424079179764,0.00907458271831274,0.531949520111084,True,0.468050479888916
normal,33,False,-3.2786507606506348,-0.09741934388875961,-1.2267733717554579,-2.0122389793395996,-0.12453892081975937,-1.4123766422271729,-0.13738468289375305,0.37192049622535706,0.2738494873046875,0.37192049622535706,0.2738494873046875,7.438409924507141,0.16430969238281248,0.1740596741437912,0.19029545783996582,0.1821775734424591,-0.09741929173469543,-0.1245388612151146,-0.13738460838794708,-1.2267731583120463,1.2267731428146362,0.13706284761428833,-0.12453820556402206,-1.2267734784771636,0.2753758430480957,15,0.3323768377304077,0.0,2.765956992334395e-07,0.0,False,True,False,False,False,False,0.2707321047782898,0.02398495003581047,-0.029840489849448204,2.426355194984353e-06,0.0001544291153550148,0.37192049622535706,0.2738494873046875,0.0,-0.1217741146683693,-0.08178487420082092,-0.35582345724105835,-0.08178489655256271,-0.1984672099351883,0.1984672099351883,0.1562812775373459,0.11748770624399185,0.018361128866672516,0.5276833176612854,True,0.4723166823387146
normal,34,False,-3.2696433067321777,-0.09734253585338593,-1.2838755674857627,-2.0032591819763184,-0.12572424113750458,-1.4034098386764526,-0.13916783034801483,0.3719879686832428,0.2740578055381775,0.3719879686832428,0.2740578055381775,7.439759373664856,0.16443468332290648,0.1744631975889206,0.19107377529144287,0.18276849389076233,-0.09734248369932175,-0.1257241666316986,-0.13916775584220886,-1.283874927155528,1.2838749885559082,0.13466817140579224,-0.12572352588176727,-1.2838755674857627,0.2753758430480957,15,0.3234100341796875,0.0,2.5574266260264267e-07,0.0,False,True,False,False,False,False,0.270285964012146,0.029020149260759354,-0.029486896470189095,2.907579437305685e-05,8.079322287812829e-05,0.3719879686832428,0.2740578055381775,0.0,-0.12167810648679733,-0.08559165894985199,-0.3592100739479065,-0.08559170365333557,-0.20247602462768555,0.20247602462768555,0.16050109267234802,0.17726638913154602,0.028451448306441307,0.523466169834137,True,0.47653383016586304
normal,35,False,-3.2607321739196777,-0.09727738797664642,-1.3404036004389634,-1.9943766593933105,-0.12690849602222443,-1.3945409059524536,-0.14094388484954834,0.37229639291763306,0.2744540572166443,0.37229639291763306,0.2744540572166443,7.445927858352661,0.16467243432998657,0.17430391907691956,0.19083157181739807,0.1825677454471588,-0.09727736562490463,-0.12690845131874084,-0.14094384014606476,-1.3404030668304345,1.3404030799865723,0.132876917719841,-0.12690776586532593,-1.3404036004389634,0.2753758430480957,15,0.3145409822463989,0.0,1.5911719231098687e-07,0.0,False,True,False,False,False,False,0.2712697684764862,0.029297515749931335,-0.030623851343989372,3.5963930713478476e-06,-4.955782787874341e-05,0.37229639291763306,0.2744540572166443,0.0,-0.12159670889377594,-0.08936020731925964,-0.3625936210155487,-0.08936023712158203,-0.20645686984062195,0.20645686984062195,0.16469144821166992,0.23639340698719025,0.03893197327852249,0.5190891027450562,True,0.48091092705726624
normal,36,False,-3.2517380714416504,-0.09723829478025436,-1.3973837065378543,-1.98541259765625,-0.1281287670135498,-1.3855910301208496,-0.14276067912578583,0.37250369787216187,0.2748067378997803,0.37250369787216187,0.2748067378997803,7.450073957443237,0.16488404273986815,0.17486737668514252,0.19061647355556488,0.1827419251203537,-0.0972384586930275,-0.12812884151935577,-0.14276070892810822,-1.3973792242262115,1.3973792791366577,0.13168863952159882,-0.1281280368566513,-1.3973835998161486,0.2753758430480957,15,0.3055912256240845,0.0,2.2321775361433538e-07,0.0,False,True,False,False,False,False,0.2728569805622101,0.023292912170290947,-0.030737830325961113,1.1257934602326714e-06,-0.00043643597746267915,0.37250369787216187,0.2748067378997803,0.0,-0.12154807150363922,-0.09315861761569977,-0.366080105304718,-0.09315890818834305,-0.2104995995759964,0.2104995995759964,0.16894695162773132,0.29605844616889954,0.05001817271113396,0.5146936774253845,True,0.4853063225746155
normal,37,False,-3.2427005767822266,-0.09717562049627304,-1.4546009482669917,-1.9764066934585571,-0.12933066487312317,-1.3766000270843506,-0.14456157386302948,0.3726709485054016,0.2750474810600281,0.3726709485054016,0.2750474810600281,7.453418970108032,0.16502848863601685,0.17552101612091064,0.19112730026245117,0.1833241581916809,-0.09717559069395065,-0.1293306201696396,-0.1445615142583847,-1.4546002012150512,1.454600214958191,0.13109026849269867,-0.12932991981506348,-1.4546009482669917,0.2753758430480957,15,0.29660022258758545,0.0,3.0746736001674435e-07,0.0,False,True,False,False,False,False,0.273751437664032,0.0300136785954237,-0.03014027141034603,3.617077481976594e-06,-7.328332867473364e-05,0.3726709485054016,0.2750474810600281,0.0,-0.12146949023008347,-0.09697334468364716,-0.3695140779018402,-0.09697339683771133,-0.21453264355659485,0.21453264355659485,0.17319226264953613,0.3559984564781189,0.061656177043914795,0.5104198455810547,True,0.4895801246166229
normal,38,False,-3.2335917949676514,-0.09724454581737518,-1.5164232316005983,-1.9673333168029785,-0.130765900015831,-1.3675434589385986,-0.1466439962387085,0.37296032905578613,0.27538955211639404,0.37296032905578613,0.27538955211639404,7.459206581115723,0.16523373126983643,0.17569658160209656,0.19047632813453674,0.18308645486831665,-0.097244493663311,-0.13076584041118622,-0.14664392173290253,-1.516422911435481,1.516422986984253,0.1313462108373642,-0.1307651549577713,-1.5164232316005983,0.2753758430480957,15,0.2875436544418335,0.0,2.765935107618134e-07,0.0,False,True,False,False,False,False,0.27646657824516296,0.02041938342154026,-0.02725512720644474,0.0003119985922239721,-0.008800271898508072,0.37296032905578613,0.27538955211639404,0.0,-0.1215556189417839,-0.10109485685825348,-0.37361472845077515,-0.10109487920999527,-0.21904513239860535,0.21904513239860535,0.17794226109981537,0.4163755774497986,0.07409080862998962,0.5055652856826782,True,0.4944346845149994
normal,39,False,-3.2245802879333496,-0.09722501039505005,-1.5738318253482018,-1.9583561420440674,-0.13201509416103363,-1.3585823774337769,-0.148494154214859,0.37323105335235596,0.27576395869255066,0.37323105335235596,0.27576395869255066,7.464621067047119,0.1654583752155304,0.17577961087226868,0.19057556986808777,0.18317759037017822,-0.09722515940666199,-0.1320151388645172,-0.148494154214859,-1.573827343036559,1.5738273859024048,0.13205774128437042,-0.13201433420181274,-1.5738319320699077,0.2753758430480957,15,0.2785825729370117,0.0,2.3430560247561516e-07,0.0,False,True,False,False,False,False,0.27521154284477234,0.027836300432682037,-0.0318475179374218,0.0,-0.0003333779168315232,0.37323105335235596,0.27576395869255066,0.0,-0.12153144925832748,-0.10492182523012161,-0.37718382477760315,-0.10492213070392609,-0.2231406271457672,0.2231406271457672,0.18225330114364624,0.4761161208152771,0.08677373826503754,0.5010954141616821,True,0.49890458583831787
normal,40,False,-3.215467691421509,-0.09724739193916321,-1.6336746344829745,-1.9492805004119873,-0.13335996866226196,-1.3495243787765503,-0.1504654586315155,0.373482882976532,0.2761661410331726,0.373482882976532,0.2761661410331726,7.46965765953064,0.16569968461990356,0.17691096663475037,0.1909857988357544,0.18394838273525238,-0.09724747389554977,-0.13335998356342316,-0.1504654437303543,-1.6336716462752126,1.6336716413497925,0.13348256051540375,-0.13335920870304108,-1.6336745277612685,0.2753758430480957,15,0.26952457427978516,0.0,2.4998652747854067e-07,0.0,False,True,False,False,False,False,0.2759018540382385,0.027083396911621094,-0.030645199120044708,0.0,0.00017555135127622634,0.373482882976532,0.2761661410331726,0.0,-0.12155934423208237,-0.1089114397764206,-0.38102632761001587,-0.10891163349151611,-0.22745831310749054,0.22745831310749054,0.18679822981357574,0.5365027785301208,0.10021776705980301,0.49637556076049805,True,0.503624439239502
normal,41,False,-3.2063286304473877,-0.0972297340631485,-1.6938988669942097,-1.9401800632476807,-0.13467319309711456,-1.340442180633545,-0.15240907669067383,0.37370213866233826,0.2765370309352875,0.37370213866233826,0.2765370309352875,7.474042773246765,0.16592221856117248,0.1765928715467453,0.19044089317321777,0.18351688981056213,-0.09722984582185745,-0.13467320799827576,-0.15240906178951263,-1.6938952384562131,1.6938952207565308,0.1354861706495285,-0.13467241823673248,-1.6938988669942097,0.2753758430480957,15,0.2604423761367798,0.0,2.3121053516206302e-07,0.0,False,True,False,False,False,False,0.27543437480926514,0.01619711145758629,-0.031086036935448647,3.052843749173917e-05,-0.001258497592061758,0.37370213866233826,0.2765370309352875,0.0,-0.12153730541467667,-0.11292634904384613,-0.38477835059165955,-0.11292658746242523,-0.23175784945487976,0.23175784945487976,0.19132405519485474,0.5970507860183716,0.11423017829656601,0.49170511960983276,True,0.5082948803901672
normal,42,False,-3.1971962451934814,-0.09719949215650558,-1.7495573314887032,-1.9310846328735352,-0.13587290048599243,-1.331364393234253,-0.15419137477874756,0.3738047778606415,0.27677619457244873,0.3738047778606415,0.27677619457244873,7.47609555721283,0.16606571674346923,0.17662954330444336,0.19065937399864197,0.18364445865154266,-0.097199447453022,-0.13587282598018646,-0.1541913002729416,-1.7495566911584686,1.7495566606521606,0.13796158134937286,-0.13587212562561035,-1.7495573314887032,0.2753758430480957,15,0.25136470794677734,0.0,3.3811372190939437e-07,0.0,False,True,False,False,False,False,0.272796094417572,0.02696509100496769,-0.028297696262598038,8.874441118678078e-05,-0.0032733408734202385,0.3738047778606415,0.27677619457244873,0.0,-0.12149930745363235,-0.11663711071014404,-0.3882060945034027,-0.11663715541362762,-0.23571567237377167,0.23571567237377167,0.19549019634723663,0.6575685739517212,0.12854820489883423,0.4875081181526184,True,0.5124918818473816
normal,43,False,-3.188279151916504,-0.09720058739185333,-1.8060292288246629,-1.9222064018249512,-0.13712190091609955,-1.3225044012069702,-0.15603145956993103,0.374256432056427,0.277194619178772,0.374256432056427,0.277194619178772,7.48512864112854,0.16631677150726318,0.17712368071079254,0.1907588690519333,0.18394127488136292,-0.09720070660114288,-0.13712193071842194,-0.15603144466876984,-1.8060253868432548,1.8060253858566284,0.1409888118505478,-0.13712111115455627,-1.8060294422680745,0.2753758430480957,15,0.24250459671020508,0.0,2.3200786358756886e-07,0.0,False,True,False,False,False,False,0.2732470631599426,0.03198424354195595,-0.03305298089981079,1.488187990617007e-06,-0.0005252413102425635,0.374256432056427,0.277194619178772,0.0,-0.1215008795261383,-0.12040168792009354,-0.39177462458610535,-0.12040196359157562,-0.23976726830005646,0.23976726830005646,0.19975502789020538,0.7166359424591064,0.14315162599086761,0.48303812742233276,True,0.5169618725776672
normal,44,False,-3.1795291900634766,-0.09721533954143524,-1.8615518365876964,-1.913495659828186,-0.13836351037025452,-1.313812255859375,-0.15785421431064606,0.3745383024215698,0.2775900363922119,0.3745383024215698,0.2775900363922119,7.4907660484313965,0.16655402183532714,0.17718887329101562,0.19101524353027344,0.18410205841064453,-0.09721529483795166,-0.13836343586444855,-0.1578541398048401,-1.8615511962574618,1.8615511655807495,0.14445443451404572,-0.13836272060871124,-1.8615518365876964,0.2753758430480957,15,0.23381257057189941,0.0,3.387174274394056e-07,0.0,False,True,False,False,False,False,0.2689547836780548,0.029414232820272446,-0.02928990311920643,2.634819225022511e-07,0.0005539756966754794,0.3745383024215698,0.2775900363922119,0.0,-0.12151911854743958,-0.12410341203212738,-0.3953220546245575,-0.12410345673561096,-0.24376624822616577,0.24376624822616577,0.2039644867181778,0.7745828032493591,0.15798738598823547,0.4786437153816223,True,0.5213562846183777
normal,45,False,-3.1702890396118164,-0.09723677486181259,-1.920486337284563,-1.9042985439300537,-0.1396871656179428,-1.3046355247497559,-0.15979468822479248,0.37463968992233276,0.2776978313922882,0.37463968992233276,0.2776978313922882,7.492793798446655,0.16661869883537292,0.17725929617881775,0.1905912160873413,0.18392525613307953,-0.09723690152168274,-0.1396871954202652,-0.1597946733236313,-1.9204822818597433,1.9204822778701782,0.14860403537750244,-0.13968636095523834,-1.920486337284563,0.2753758430480957,15,0.22463572025299072,0.0,2.3132911053380667e-07,0.0,False,True,False,False,False,False,0.2691074311733246,0.028233006596565247,-0.029875928536057472,9.542682164465077e-06,0.0006783916032873094,0.37463968992233276,0.2776978313922882,0.0,-0.12154612690210342,-0.1280321478843689,-0.39910390973091125,-0.12803241610527039,-0.24801740050315857,0.24801740050315857,0.20843937993049622,0.8357617855072021,0.17420567572116852,0.4742847681045532,True,0.5257152318954468
normal,46,False,-3.1613948345184326,-0.09726636111736298,-1.97748704067267,-1.895447015762329,-0.1409762054681778,-1.2958043813705444,-0.16168029606342316,0.3749881982803345,0.2779828906059265,0.3749881982803345,0.2779828906059265,7.4997639656066895,0.1667897343635559,0.17742502689361572,0.19078955054283142,0.18410728871822357,-0.0972663089632988,-0.14097613096237183,-0.1616802215576172,-1.977486400342435,1.9774863719940186,0.15303876996040344,-0.14097540080547333,-1.97748704067267,0.2753758430480957,15,0.21580469608306885,0.0,3.3833018164841633e-07,0.0,False,True,False,False,False,False,0.2712238132953644,0.030042603611946106,-0.030773423612117767,0.0,-0.005796646233648062,0.3749881982803345,0.2779828906059265,0.0,-0.12158288806676865,-0.13183242082595825,-0.40278688073158264,-0.13183246552944183,-0.252139151096344,0.252139151096344,0.21277806162834167,0.8946353197097778,0.19035877287387848,0.4698779582977295,True,0.5301220417022705
normal,47,False,-3.152756690979004,-0.09760824590921402,-2.0423428884931143,-1.88685941696167,-0.1427510380744934,-1.2872405052185059,-0.16413387656211853,0.37529119849205017,0.2784411311149597,0.37529119849205017,0.2784411311149597,7.505823969841003,0.1670646786689758,0.17683927714824677,0.18955819308757782,0.1831987351179123,-0.09760834276676178,-0.1427510678768158,-0.16413386166095734,-2.0423392599551176,2.042339324951172,0.1581803411245346,-0.14275021851062775,-2.0423428884931143,0.2753758430480957,15,0.20724070072174072,0.0,2.295775942684486e-07,0.0,False,True,False,False,False,False,0.27405881881713867,0.0339512899518013,-0.030567103996872902,6.4838832258828916e-06,-0.0003539851459208876,0.37529119849205017,0.2784411311149597,0.0,-0.12201042473316193,-0.13615594804286957,-0.4078577756881714,-0.13615618646144867,-0.25717824697494507,0.25717824697494507,0.21808238327503204,0.9517285823822021,0.20755523443222046,0.4643806219100952,True,0.5356193780899048
normal,48,False,-3.1433756351470947,-0.09766389429569244,-2.0969730893524035,-1.8775217533111572,-0.1440136879682541,-1.277923583984375,-0.16596823930740356,0.37546971440315247,0.27887290716171265,0.37546971440315247,0.27887290716171265,7.509394288063049,0.1673237442970276,0.17742915451526642,0.1872541457414627,0.18234165012836456,-0.09766381978988647,-0.14401361346244812,-0.1659681648015976,-2.0969730893524035,2.096973180770874,0.16353240609169006,-0.14401286840438843,-2.0969730893524035,0.2753758430480957,15,0.19792377948760986,0.0,3.0691424512951926e-07,0.0,False,True,False,False,False,False,0.2696742117404938,0.028684435412287712,-0.028605611994862556,2.3006768969935365e-05,-0.0032438822090625763,0.37546971440315247,0.27887290716171265,0.0,-0.1220797747373581,-0.13979820907115936,-0.4114653468132019,-0.13979820907115936,-0.2611594498157501,0.2611594498157501,0.2222731113433838,1.0,0.2222731113433838,0.45996761322021484,True,0.5400323867797852
normal,49,False,-3.134429931640625,-0.09770755469799042,-2.152344365736639,-1.8686214685440063,-0.1452806442975998,-1.2690447568893433,-0.16781464219093323,0.3756341338157654,0.2791580557823181,0.3756341338157654,0.2791580557823181,7.512682676315308,0.16749483346939087,0.17708832025527954,0.18741102516651154,0.18224966526031494,-0.09770763665437698,-0.14528067409992218,-0.16781464219093323,-2.1523415909722887,2.152341604232788,0.16901995241641998,-0.14527980983257294,-2.1523441522932276,0.2753758430480957,15,0.18904495239257812,0.0,2.7440214012131037e-07,0.0,False,True,False,False,False,False,0.2714442312717438,0.03115452267229557,-0.02970416657626629,3.898464001395041e-06,-0.0006141155608929694,0.3756341338157654,0.2791580557823181,0.0,-0.12213454395532608,-0.14348943531513214,-0.41508516669273376,-0.14348961412906647,-0.2651800513267517,0.2651800513267517,0.2265053242444992,1.0,0.2265053242444992,0.4556618928909302,True,0.5443381071090698
normal,50,False,-3.1253561973571777,-0.09777648001909256,-2.21036170009402,-1.859596610069275,-0.14663130044937134,-1.2600430250167847,-0.1697724163532257,0.37595197558403015,0.2795044183731079,0.37595197558403015,0.2795044183731079,7.519039511680603,0.16770265102386475,0.17791101336479187,0.1865490823984146,0.18223005533218384,-0.09777645021677017,-0.14663127064704895,-0.16977238655090332,-2.2103614866506085,2.2103614807128906,0.16684232652187347,-0.14663046598434448,-2.2103619135374313,0.4203006625175476,16,0.18004333972930908,0.0,3.315646210921841e-07,0.0,False,True,False,False,False,False,0.2688405513763428,0.034420195966959,-0.0294562466442585,6.760862743249163e-05,-0.002656272379681468,0.37595197558403015,0.2795044183731079,0.0,-0.12222056090831757,-0.14735743403434753,-0.41894420981407166,-0.14735746383666992,-0.2694191336631775,0.2694191336631775,0.23096752166748047,1.0,0.23096752166748047,0.4510764479637146,True,0.5489235520362854
normal,51,False,-3.1164791584014893,-0.0978461354970932,-2.2663229340678153,-1.8507678508758545,-0.14793722331523895,-1.251237154006958,-0.17166391015052795,0.37624478340148926,0.27981406450271606,0.37624478340148926,0.27981406450271606,7.524895668029785,0.16788843870162964,0.17824722826480865,0.18675507605075836,0.1825011521577835,-0.09784608334302902,-0.14793714880943298,-0.17166383564472198,-2.266322720624404,2.2663228511810303,0.16399241983890533,-0.1479363739490509,-2.2663229340678153,0.4203006625175476,16,0.17123734951019287,0.0,2.1997713872679014e-07,0.0,False,True,False,False,False,False,0.2699701488018036,0.029011350125074387,-0.02949545346200466,5.0274334171263035e-06,-0.0008358453633263707,0.37624478340148926,0.27981406450271606,0.0,-0.12230760604143143,-0.1510881781578064,-0.42267537117004395,-0.1510881930589676,-0.27351143956184387,0.27351143956184387,0.23527520895004272,1.0,0.23527520895004272,0.4466744661331177,True,0.5533255338668823
normal,52,False,-3.107532501220703,-0.09791892766952515,-2.3241496634586705,-1.8418724536895752,-0.1492874175310135,-1.2423659563064575,-0.17361918091773987,0.37646785378456116,0.28013020753860474,0.37646785378456116,0.28013020753860474,7.529357075691223,0.16807812452316284,0.17882473766803741,0.18578122556209564,0.18230298161506653,-0.09791886061429977,-0.14928734302520752,-0.1736191064119339,-2.3241496634586705,2.3241496086120605,0.16160117089748383,-0.14928656816482544,-2.3241496634586705,0.4203006625175476,16,0.16236627101898193,0.0,3.0556623187294463e-07,0.0,False,True,False,False,False,False,0.2720741927623749,0.025185322389006615,-0.03043186478316784,8.237303177338617e-07,4.338329017627984e-05,0.37646785378456116,0.28013020753860474,0.0,-0.12239857763051987,-0.1549433022737503,-0.4265330731868744,-0.1549433022737503,-0.27774107456207275,0.27774107456207275,0.2397274523973465,1.0,0.2397274523973465,0.4421287178993225,True,0.5578712821006775
normal,53,False,-3.098513126373291,-0.09799650311470032,-2.3820903716313,-1.8329057693481445,-0.15064488351345062,-1.233424186706543,-0.1755828857421875,0.3766959011554718,0.2804260849952698,0.3766959011554718,0.2804260849952698,7.533918023109436,0.16825565099716186,0.17923448979854584,0.18458543717861176,0.1819099634885788,-0.09799627214670181,-0.1506447196006775,-0.17558275163173676,-2.3820931463956505,2.3820931911468506,0.15966497361660004,-0.15064401924610138,-2.3820903716313,0.4203006625175476,16,0.15342438220977783,0.0,2.520224882118782e-07,0.0,False,True,False,False,False,False,0.27186447381973267,0.02698986418545246,-0.030853508040308952,4.893489062851586e-07,-0.00019198462541680783,0.3766959011554718,0.2804260849952698,0.0,-0.12249533832073212,-0.1588062047958374,-0.4304114878177643,-0.15880602598190308,-0.28198426961898804,0.28198426961898804,0.24419398605823517,1.0,0.24419398605823517,0.4375896453857422,True,0.5624103546142578
normal,54,False,-3.0894572734832764,-0.09800544381141663,-2.4255976094272236,-1.823890209197998,-0.15161482989788055,-1.2244277000427246,-0.17700804769992828,0.3769579529762268,0.2808643579483032,0.3769579529762268,0.2808643579483032,7.539159059524536,0.16851861476898192,0.17880424857139587,0.1839185655117035,0.18136140704154968,-0.09800546616315842,-0.15161480009555817,-0.1770079880952835,-2.4255952615496965,2.425595283508301,0.1578398197889328,-0.1516139656305313,-2.4255976094272236,0.4203006625175476,16,0.14442789554595947,0.0,2.61413106272812e-07,0.0,False,True,False,False,False,False,0.2715799808502197,0.05239733308553696,-0.03155023232102394,4.014608293800848e-06,0.003805623622611165,0.3769579529762268,0.2808643579483032,0.0,-0.12250683456659317,-0.16170634329319,-0.4331827759742737,-0.16170650720596313,-0.2851143479347229,0.2851143479347229,0.24748879671096802,1.0,0.24748879671096802,0.4340212941169739,True,0.5659787058830261
normal,55,False,-3.0803041458129883,-0.09800590574741364,-2.4772052381353706,-1.8147857189178467,-0.15275520086288452,-1.2153464555740356,-0.17868834733963013,0.3773210048675537,0.2813461422920227,0.3773210048675537,0.2813461422920227,7.546420097351074,0.16880768537521362,0.1792568862438202,0.18359121680259705,0.18142405152320862,-0.09800581634044647,-0.15275512635707855,-0.17868827283382416,-2.477205665022194,2.477205753326416,0.1566658914089203,-0.15275432169437408,-2.4772052381353706,0.4203006625175476,16,0.13534677028656006,0.0,3.0530236472259276e-07,0.0,False,True,False,False,False,False,0.2738077938556671,0.027170097455382347,-0.02980763092637062,0.0,-0.0002184236655011773,0.3773210048675537,0.2813461422920227,0.0,-0.12250727415084839,-0.16514703631401062,-0.43644091486930847,-0.16514702141284943,-0.28881585597991943,0.28881585597991943,0.2513851225376129,1.0,0.2513851225376129,0.42983800172805786,True,0.5701619982719421
normal,56,False,-3.071225643157959,-0.09813331812620163,-2.534060586560203,-1.8057622909545898,-0.15413838624954224,-1.2063490152359009,-0.18066635727882385,0.37724825739860535,0.2813083529472351,0.37724825739860535,0.2813083529472351,7.544965147972107,0.16878501176834107,0.1792590171098709,0.18397589027881622,0.18161745369434357,-0.09813326597213745,-0.15413832664489746,-0.18066629767417908,-2.5340603731167914,2.534060478210449,0.15627647936344147,-0.1541375070810318,-2.534060586560203,0.4203006625175476,16,0.1263493299484253,0.0,3.045614960228704e-07,0.0,False,True,False,False,False,False,0.26892900466918945,0.052313029766082764,-0.028843436390161514,1.3857204976375215e-05,-0.003973205573856831,0.37724825739860535,0.2813083529472351,0.0,-0.12266658246517181,-0.16893735527992249,-0.4403928816318512,-0.16893737018108368,-0.2930375337600708,0.2930375337600708,0.25582900643348694,1.0,0.25582900643348694,0.4256541132926941,True,0.5743458867073059
normal,57,False,-3.0622403621673584,-0.09825488924980164,-2.5926516568078646,-1.796834945678711,-0.15555399656295776,-1.1974490880966187,-0.1826949119567871,0.3778197169303894,0.28201714158058167,0.3778197169303894,0.28201714158058167,7.556394338607788,0.169210284948349,0.17991869151592255,0.1834678053855896,0.18169325590133667,-0.09825499355792999,-0.15555402636528015,-0.1826949119567871,-2.592648668600103,2.59264874458313,0.15646234154701233,-0.15555310249328613,-2.5926518702512764,0.4203006625175476,16,0.11744916439056396,0.0,1.580685733415521e-07,0.0,False,True,False,False,False,False,0.27227115631103516,0.0313919335603714,-0.03180287778377533,4.873882062383927e-06,-0.0005000540986657143,0.3778197169303894,0.28201714158058167,0.0,-0.12281873822212219,-0.17284324765205383,-0.4444374442100525,-0.17284345626831055,-0.29737696051597595,0.29737696051597595,0.260396808385849,1.0,0.260396808385849,0.4206058979034424,True,0.5793941020965576
normal,58,False,-3.053098678588867,-0.09838945418596268,-2.649192176200642,-1.787750482559204,-0.15693725645542145,-1.1883916854858398,-0.1846696436405182,0.3776931166648865,0.2820208668708801,0.3776931166648865,0.2820208668708801,7.5538623332977295,0.16921252012252808,0.1798786222934723,0.18382227420806885,0.18185044825077057,-0.0983894094824791,-0.15693721175193787,-0.1846695840358734,-2.649192176200642,2.6491920948028564,0.15712852776050568,-0.15693636238574982,-2.6491923896440537,0.4203006625175476,16,0.10839188098907471,0.0,2.1741185207702074e-07,0.0,False,True,False,False,False,False,0.27222537994384766,0.024687234312295914,-0.02752193622291088,0.00014358217595145106,-0.0024619230534881353,0.3776931166648865,0.2820208668708801,0.0,-0.12298676371574402,-0.17661280930042267,-0.44838961958885193,-0.17661282420158386,-0.3015840947628021,0.3015840947628021,0.26482537388801575,1.0,0.26482537388801575,0.41639506816864014,True,0.5836049318313599
normal,59,False,-3.0442028045654297,-0.09855599701404572,-2.70713267092986,-1.7789143323898315,-0.1583833545446396,-1.1795839071273804,-0.1867218315601349,0.3778672218322754,0.2821720838546753,0.3778672218322754,0.2821720838546753,7.557344436645508,0.16930325031280516,0.1795390397310257,0.1838347613811493,0.1816869080066681,-0.0985560417175293,-0.1583833247423172,-0.1867217719554901,-2.70712989616551,2.707129955291748,0.15838707983493805,-0.15838244557380676,-2.7071328843732716,0.4203006625175476,16,0.09958410263061523,0.0,2.409762203114951e-07,0.0,False,True,False,False,False,False,0.27043795585632324,0.025698207318782806,-0.028943806886672974,3.555650982889347e-05,-0.00022687716409564018,0.3778672218322754,0.2821720838546753,0.0,-0.12319505214691162,-0.18047532439231873,-0.45252129435539246,-0.18047551810741425,-0.3059276342391968,0.3059276342391968,0.269397497177124,1.0,0.269397497177124,0.41190028190612793,True,0.5880997180938721
normal,60,False,-3.0353033542633057,-0.09871023893356323,-2.763665079472998,-1.770074486732483,-0.15978600084781647,-1.1707723140716553,-0.18871581554412842,0.37805354595184326,0.2824665904045105,0.37805354595184326,0.2824665904045105,7.561070919036865,0.1694799542427063,0.1792546808719635,0.18429884314537048,0.181776762008667,-0.09871000051498413,-0.15978582203388214,-0.18871565163135529,-2.7636676407939365,2.763667583465576,0.1600939780473709,-0.15978509187698364,-2.763665079472998,0.4203006625175476,16,0.09077250957489014,0.0,2.576023803158023e-07,0.0,False,True,False,False,False,False,0.26978620886802673,0.028366977348923683,-0.044630687683820724,4.8921148845693097e-05,-0.06792964041233063,0.37805354595184326,0.2824665904045105,0.0,-0.12338750064373016,-0.18424451351165771,-0.45652884244918823,-0.1842443346977234,-0.3101564049720764,0.3101564049720764,0.27384883165359497,1.0,0.27384883165359497,0.4073770046234131,True,0.5926229953765869
normal,61,False,-3.0263290405273438,-0.09892486035823822,-2.822568203988365,-1.7611637115478516,-0.16130129992961884,-1.1618915796279907,-0.1908472180366516,0.3795487880706787,0.2844317555427551,0.3795487880706787,0.2844317555427551,7.590975761413574,0.17065905332565307,0.17896319925785065,0.18416756391525269,0.18156537413597107,-0.09892462939023972,-0.1613011211156845,-0.19084706902503967,-2.822570978752715,2.822571039199829,0.16239739954471588,-0.16130037605762482,-2.822568203988365,0.4203006625175476,16,0.08189177513122559,0.0,2.536892225180054e-07,0.0,False,True,False,False,False,False,0.26772376894950867,0.06835754215717316,-0.028161052614450455,1.6463109204778448e-06,-0.005823957268148661,0.3795487880706787,0.2844317555427551,0.0,-0.1236557886004448,-0.1881714016199112,-0.46085822582244873,-0.18817120790481567,-0.31462347507476807,0.31462347507476807,0.27855101227760315,1.0,0.27855101227760315,0.4009447693824768,True,0.5990552306175232
normal,62,False,-3.0176610946655273,-0.09915217757225037,-2.879565278838475,-1.7525584697723389,-0.16278716921806335,-1.1533160209655762,-0.192929208278656,0.3792223334312439,0.2839174270629883,0.3792223334312439,0.2839174270629883,7.584446668624878,0.17035045623779296,0.17909978330135345,0.18303300440311432,0.1810663938522339,-0.09915214776992798,-0.16278710961341858,-0.19292913377285004,-2.879564211621417,2.8795642852783203,0.16508391499519348,-0.16278623044490814,-2.879565278838475,0.4203006625175476,16,0.07331621646881104,0.0,2.5567493366907e-07,0.0,False,True,False,False,False,False,0.26777762174606323,0.03841419145464897,-0.041953664273023605,0.0,6.125462732597953e-06,0.3792223334312439,0.2839174270629883,0.0,-0.12394018471240997,-0.19197094440460205,-0.46510353684425354,-0.19197101891040802,-0.31896811723709106,0.31896811723709106,0.28312432765960693,1.0,0.28312432765960693,0.39711445569992065,True,0.6028855443000793
normal,63,False,-3.008389472961426,-0.09933194518089294,-2.9392342383145293,-1.7433538436889648,-0.1642843782901764,-1.1441431045532227,-0.19505047798156738,0.37926676869392395,0.2838737964630127,0.37926676869392395,0.2838737964630127,7.585335373878479,0.1703242778778076,0.17945629358291626,0.1836966574192047,0.18157647550106049,-0.0993320420384407,-0.16428439319133759,-0.1950504630804062,-2.939231036663356,2.9392311573028564,0.16832199692726135,-0.16428343951702118,-2.9392344517579407,0.4203006625175476,16,0.06414318084716797,0.0,1.706118126776346e-07,0.0,False,True,False,False,False,False,0.2709806263446808,0.03231237828731537,-0.030991114675998688,5.098586370877456e-06,-0.0013493567239493132,0.37926676869392395,0.2838737964630127,0.0,-0.12416505068540573,-0.1959487348794937,-0.46938127279281616,-0.19594895839691162,-0.3234504163265228,0.3234504163265228,0.2878425419330597,1.0,0.2878425419330597,0.3926757574081421,True,0.6073242425918579
normal,64,False,-2.999418258666992,-0.099510058760643,-2.99479057013659,-1.7344461679458618,-0.1656891107559204,-1.135265588760376,-0.19703620672225952,0.37934714555740356,0.2840007543563843,0.37934714555740356,0.2840007543563843,7.586942911148071,0.17040045261383055,0.18014398217201233,0.18402715027332306,0.1820855736732483,-0.09951009601354599,-0.16568909585475922,-0.19703617691993713,-2.9947886491458857,2.994788646697998,0.1718372106552124,-0.165688157081604,-2.99479057013659,0.4203006625175476,16,0.05526566505432129,0.0,1.1353704820749044e-07,0.0,False,True,False,False,False,False,0.27094534039497375,0.029678374528884888,-0.029695816338062286,2.3362738374999026e-06,-0.0016240489203482866,0.37934714555740356,0.2840007543563843,0.0,-0.12438762187957764,-0.1996525675058365,-0.4733947515487671,-0.19965270161628723,-0.32763588428497314,0.32763588428497314,0.29224830865859985,1.0,0.29224830865859985,0.3883633613586426,True,0.6116366386413574
normal,65,False,-2.990493059158325,-0.09970062226057053,-3.0507579939693206,-1.725586175918579,-0.16711528599262238,-1.126436471939087,-0.19904765486717224,0.3794972896575928,0.2843209505081177,0.3794972896575928,0.2843209505081177,7.5899457931518555,0.1705925703048706,0.17898178100585938,0.18414270877838135,0.18156224489212036,-0.09970053285360336,-0.1671152263879776,-0.19904761016368866,-3.0507590611863784,3.0507590770721436,0.17575089633464813,-0.16711433231830597,-3.0507579939693206,0.4203006625175476,16,0.04643666744232178,0.0,3.00197285696413e-07,0.0,False,True,False,False,False,False,0.27057385444641113,0.03144633024930954,-0.03154059872031212,7.165791515717501e-08,0.00016928112017922103,0.3794972896575928,0.2843209505081177,0.0,-0.12462566792964935,-0.2033839374780655,-0.4774695336818695,-0.20338386297225952,-0.33186495304107666,0.33186495304107666,0.2966999411582947,1.0,0.2966999411582947,0.38381409645080566,True,0.6161859035491943
normal,66,False,-2.981576442718506,-0.09994441270828247,-3.0987541601538235,-1.716726541519165,-0.16841864585876465,-1.1176037788391113,-0.2008529156446457,0.37974488735198975,0.2845802307128906,0.37974488735198975,0.2845802307128906,7.594897747039795,0.17074813842773437,0.17864590883255005,0.1834929883480072,0.18106944859027863,-0.09994437545537949,-0.16841858625411987,-0.20085284113883972,-3.0987530929367657,3.0987532138824463,0.17991212010383606,-0.16841767728328705,-3.0987541601538235,0.4203006625175476,16,0.03760409355163574,0.0,3.9820039887672465e-07,0.0,False,True,False,False,False,False,0.2673569321632385,0.026063157245516777,-0.030350644141435623,0.0,0.0013540905201807618,0.37974488735198975,0.2845802307128906,0.0,-0.1249304711818695,-0.20658354461193085,-0.4811933636665344,-0.20658360421657562,-0.3355826139450073,0.3355826139450073,0.30061328411102295,1.0,0.30061328411102295,0.37983715534210205,True,0.620162844657898
normal,67,False,-2.972736120223999,-0.10014410316944122,-3.153802069769541,-1.7079524993896484,-0.16983354091644287,-1.1088612079620361,-0.20284339785575867,0.3798450231552124,0.2847439646720886,0.3798450231552124,0.2847439646720886,7.596900463104248,0.17084637880325318,0.17813946306705475,0.18407946825027466,0.1811094582080841,-0.09861673414707184,-0.1685911864042282,-0.20173603296279907,-3.166713261734981,3.166713237762451,0.18448378145694733,-0.16983257234096527,-3.153802069769541,0.4203006625175476,16,0.03194689750671387,0.0,0.0031585940159857273,0.0,False,True,False,False,False,False,0.2654655873775482,0.019706040620803833,-0.03186846897006035,0.00010179854871239513,-0.017277611419558525,0.3798450231552124,0.2847439646720886,0.0,-0.1232709139585495,-0.21111421287059784,-0.48523592948913574,-0.21025346219539642,-0.33944448828697205,0.33944448828697205,0.30467841029167175,1.0,0.30467841029167175,0.3758115768432617,True,0.6241884231567383
normal,68,False,-2.964505434036255,-0.10033892095088959,-3.206034233899921,-1.6997859477996826,-0.1711813360452652,-1.1007249355316162,-0.2047373354434967,0.3802735209465027,0.2852100133895874,0.3802735209465027,0.2852100133895874,7.605470418930054,0.17112600803375244,0.17835381627082825,0.1842634230852127,0.18130862712860107,-0.09609594941139221,-0.167547807097435,-0.20139247179031372,-3.23364420640264,3.2336442470550537,0.18904322385787964,-0.1711803525686264,-3.206034233899921,0.4203006625175476,16,0.03242003917694092,0.0,0.011933268047869205,0.0,False,True,False,False,False,False,0.26180359721183777,0.02736852690577507,-0.03933768346905708,5.403724571806379e-06,0.00522185442969203,0.3802735209465027,0.2852100133895874,0.0,-0.12011993676424026,-0.21557627618312836,-0.48908674716949463,-0.21373561024665833,-0.3425062298774719,0.3425062298774719,0.3079012930393219,1.0,0.3079012930393219,0.3722837567329407,True,0.6277162432670593
normal,69,False,-2.9553310871124268,-0.10060188174247742,-3.259840756633989,-1.6906787157058716,-0.17263196408748627,-1.0916495323181152,-0.2067505270242691,0.38040944933891296,0.28531283140182495,0.38040944933891296,0.28531283140182495,7.608188986778259,0.17118769884109497,0.17839081585407257,0.18296436965465546,0.180677592754364,-0.09464026242494583,-0.16734039783477783,-0.20177632570266724,-3.2901973189566993,3.2901973724365234,0.19272424280643463,-0.17263098061084747,-3.259840756633989,0.5652253031730652,17,0.03261542320251465,0.0,0.02131476067006588,0.0,False,True,False,False,False,False,0.25829359889030457,0.031978677958250046,-0.03252307325601578,4.514922693488188e-05,-0.0049969800747931,0.38040944933891296,0.28531283140182495,0.0,-0.11830032616853714,-0.21934647858142853,-0.4932313859462738,-0.2173227220773697,-0.3458118438720703,0.3458118438720703,0.31138089299201965,1.0,0.31138089299201965,0.36887532472610474,True,0.6311246752738953
normal,70,False,-2.94691801071167,-0.10083423554897308,-3.3129467580913077,-1.6823327541351318,-0.17403645813465118,-1.083335518836975,-0.2087102234363556,0.38064104318618774,0.2856057584285736,0.38064104318618774,0.2856057584285736,7.612820863723755,0.17136345505714415,0.17830614745616913,0.18345323204994202,0.18087968230247498,-0.09216222167015076,-0.16655759513378143,-0.2017965316772461,-3.3670083457021933,3.3670084476470947,0.19044432044029236,-0.1740354597568512,-3.312946544647896,0.5652253031730652,17,0.033078670501708984,0.0,0.030128275975584984,0.0,False,True,False,False,False,False,0.2572093605995178,0.026824388653039932,-0.02795124612748623,0.0,0.0010195644572377205,0.38064104318618774,0.2856057584285736,0.0,-0.11520277708768845,-0.2244672179222107,-0.4972441792488098,-0.22086310386657715,-0.3493635058403015,0.3493635058403015,0.3151194751262665,1.0,0.3151194751262665,0.36503076553344727,True,0.6349692344665527
normal,71,False,-2.9379913806915283,-0.10095621645450592,-3.364686508271212,-1.6734728813171387,-0.17530037462711334,-1.0745071172714233,-0.21051503717899323,0.38072431087493896,0.28575247526168823,0.38072431087493896,0.28575247526168823,7.614486217498779,0.17145148515701295,0.17796364426612854,0.1836242526769638,0.18079394102096558,-0.08969030529260635,-0.1657910943031311,-0.20183783769607544,-3.4442840387546596,3.444283962249756,0.18819871544837952,-0.17529937624931335,-3.364686508271212,0.5652253031730652,17,0.03341960906982422,0.0,0.03928365930914879,0.0,False,True,False,False,False,False,0.2617110311985016,0.028875328600406647,-0.03446713089942932,0.0004659371916204691,6.687204586341977e-05,0.38072431087493896,0.28575247526168823,0.0,-0.11211287975311279,-0.22961893677711487,-0.5008553862571716,-0.224312424659729,-0.35283520817756653,0.35283520817756653,0.31877389550209045,1.0,0.31877389550209045,0.36141228675842285,True,0.6385877132415771
normal,72,False,-2.929887294769287,-0.10119082033634186,-3.414863212348241,-1.6654343605041504,-0.17664234340190887,-1.0664997100830078,-0.2123815417289734,0.38117122650146484,0.2863278388977051,0.38117122650146484,0.2863278388977051,7.623424530029297,0.17179670333862304,0.17848479747772217,0.1839143931865692,0.1811995953321457,-0.08729394525289536,-0.1651662141084671,-0.2020520567893982,-3.524560532730289,3.5245606899261475,0.18669447302818298,-0.1766413301229477,-3.414863212348241,0.5652253031730652,17,0.033988356590270996,0.0,0.047807738184928894,0.0,False,True,False,False,False,False,0.2573404014110565,0.0235414020717144,-0.028339345008134842,5.916566436781068e-08,-7.368986553046852e-05,0.38117122650146484,0.2863278388977051,0.0,-0.10911743342876434,-0.23497070372104645,-0.5046895146369934,-0.22765754163265228,-0.35649508237838745,0.35649508237838745,0.32262641191482544,1.0,0.32262641191482544,0.35717707872390747,True,0.6428229212760925
normal,73,False,-2.9213740825653076,-0.10143843293190002,-3.4685969508789665,-1.6569925546646118,-0.17807577550411224,-1.058091640472412,-0.21437665820121765,0.3813595771789551,0.2865644097328186,0.3813595771789551,0.2865644097328186,7.627191543579102,0.17193864583969115,0.17840471863746643,0.18422113358974457,0.1813129186630249,-0.0841844230890274,-0.16419744491577148,-0.20209729671478271,-3.6215793144655004,3.62157940864563,0.18551066517829895,-0.17807476222515106,-3.468597164322378,0.5652253031730652,17,0.03453958034515381,0.0,0.05667341127991676,0.0,False,False,False,False,False,False,0.255824476480484,0.026494145393371582,-0.02752215974032879,2.3774955479893833e-06,-0.00016634506755508482,0.3813595771789551,0.2865644097328186,0.0,-0.10523052513599396,-0.2414386123418808,-0.5087850689888,-0.23123981058597565,-0.360575407743454,0.360575407743454,0.3269214928150177,1.0,0.3269214928150177,0.3528602123260498,True,0.6471397876739502
normal,74,False,-2.912710189819336,-0.10171456634998322,-3.522991937098713,-1.6484019756317139,-0.17955222725868225,-1.0495357513427734,-0.21642166376113892,0.38168197870254517,0.28695809841156006,0.38168197870254517,0.28695809841156006,7.633639574050903,0.17217485904693602,0.17744775116443634,0.18464405834674835,0.18104590475559235,-0.08142799884080887,-0.1634884625673294,-0.20235814154148102,-3.7143806678316404,3.7143807411193848,0.1847233921289444,-0.17955119907855988,-3.5229917236553017,0.5652253031730652,17,0.0350269079208374,0.0,0.06562867015600204,0.0,False,False,False,False,False,False,0.259167343378067,0.021871067583560944,-0.028177062049508095,0.0004346899513620883,-0.004824307281523943,0.38168197870254517,0.28695809841156006,0.0,-0.10178499668836594,-0.24762538075447083,-0.513003408908844,-0.23486611247062683,-0.36471089720726013,0.36471089720726013,0.3312746286392212,1.0,0.3312746286392212,0.3483309745788574,True,0.6516690254211426
normal,75,False,-2.9045088291168213,-0.10199177265167236,-3.5815125710205593,-1.6402807235717773,-0.18112072348594666,-1.0414525270462036,-0.21860182285308838,0.3819657862186432,0.28738290071487427,0.3819657862186432,0.28738290071487427,7.639315724372864,0.17242974042892456,0.17672199010849,0.18410198390483856,0.18041199445724487,-0.07880885154008865,-0.16294710338115692,-0.20280097424983978,-3.8085668420520005,3.8085668087005615,0.18452490866184235,-0.18111968040466309,-3.5815125710205593,0.5652253031730652,17,0.03565359115600586,0.0,0.07426591217517853,0.0,False,False,False,False,False,False,0.2535649836063385,0.029991842806339264,-0.02938966453075409,2.407827423667186e-06,-0.00010408931120764464,0.3819657862186432,0.28738290071487427,0.0,-0.09851106256246567,-0.25390446186065674,-0.5174847841262817,-0.23876750469207764,-0.3691035807132721,0.3691035807132721,0.3358985185623169,1.0,0.3358985185623169,0.34351348876953125,True,0.6564865112304688
normal,76,False,-2.8961129188537598,-0.10226565599441528,-3.6336909474112256,-1.6319572925567627,-0.18254590034484863,-1.0331635475158691,-0.2205723226070404,0.38236290216445923,0.28794604539871216,0.38236290216445923,0.28794604539871216,7.647258043289185,0.17276762723922728,0.17698600888252258,0.18424244225025177,0.18061423301696777,-0.07569243758916855,-0.16195212304592133,-0.2028108388185501,-3.9047410282076576,3.904741048812866,0.18452560901641846,-0.18254485726356506,-3.6336909474112256,0.5652253031730652,17,0.036205410957336426,0.0,0.08301392942667007,0.0,False,False,False,False,False,False,0.2538805603981018,0.027469977736473083,-0.028580598533153534,0.0,-0.00030189170502126217,0.38236290216445923,0.28794604539871216,0.0,-0.09461554884910583,-0.26031607389450073,-0.5215567350387573,-0.24224606156349182,-0.37311315536499023,0.37311315536499023,0.3401191234588623,1.0,0.3401191234588623,0.3389407992362976,True,0.6610592007637024
normal,77,False,-2.8876960277557373,-0.10264535248279572,-3.69115162135125,-1.6236215829849243,-0.18419334292411804,-1.0248662233352661,-0.2228202521800995,0.38270649313926697,0.28832149505615234,0.38270649313926697,0.28832149505615234,7.654129862785339,0.1729928970336914,0.17700418829917908,0.18450160324573517,0.18075290322303772,-0.0726478174328804,-0.16117696464061737,-0.20311065018177032,-4.007639962488016,4.0076398849487305,0.1851322501897812,-0.18419228494167328,-3.69115162135125,0.5652253031730652,17,0.03681385517120361,0.0,0.09181318432092667,0.0,False,False,False,False,False,False,0.25478866696357727,0.029513230547308922,-0.029019376263022423,4.955663825967349e-06,-0.0003621484793256968,0.38270649313926697,0.28832149505615234,0.0,-0.09080976992845535,-0.2671760022640228,-0.5262636542320251,-0.2460767775774002,-0.37766319513320923,0.37766319513320923,0.34490862488746643,1.0,0.34490862488746643,0.3340153098106384,True,0.6659846901893616
normal,78,False,-2.879237174987793,-0.10294964909553528,-3.744767325675381,-1.6152396202087402,-0.18568050861358643,-1.0165207386016846,-0.22486770153045654,0.38313615322113037,0.2888084650039673,0.38313615322113037,0.2888084650039673,7.662723064422607,0.17328507900238035,0.1771213263273239,0.1851552426815033,0.181138277053833,-0.06891937553882599,-0.15992368757724762,-0.20302975177764893,-4.119877472911073,4.119877338409424,0.18596263229846954,-0.18567945063114166,-3.744767325675381,0.5652253031730652,17,0.03744089603424072,0.0,0.10062116384506226,0.0,False,False,False,False,False,False,0.2550122141838074,0.027813557535409927,-0.028816312551498413,2.2444578462454956e-06,-0.0010606939904391766,0.38313615322113037,0.2888084650039673,0.0,-0.08614921569824219,-0.2746585011482239,-0.5305127501487732,-0.24965114891529083,-0.3820687532424927,0.3820687532424927,0.34954604506492615,1.0,0.34954604506492615,0.32912278175354004,True,0.67087721824646
normal,79,False,-2.871005058288574,-0.10321775078773499,-3.798951643247915,-1.607086420059204,-0.18714390695095062,-1.0084047317504883,-0.22689729928970337,0.38340604305267334,0.28919026255607605,0.38340604305267334,0.28919026255607605,7.668120861053467,0.17351415753364563,0.1777016669511795,0.185047447681427,0.18137454986572266,-0.06550578027963638,-0.1588716208934784,-0.20309631526470184,-4.226979961738751,4.226980209350586,0.18715554475784302,-0.18714283406734467,-3.798951643247915,0.5652253031730652,17,0.038097381591796875,0.0,0.10924290120601654,0.0,False,False,False,False,False,False,0.2536103427410126,0.01883777230978012,-0.02913568913936615,0.0,0.0004205397854093462,0.38340604305267334,0.28919026255607605,0.0,-0.08188222348690033,-0.28179866075515747,-0.5346938371658325,-0.2532634437084198,-0.3864293098449707,0.3864293098449707,0.3541361093521118,1.0,0.3541361093521118,0.32438039779663086,True,0.6756196022033691
normal,80,False,-2.862452983856201,-0.1035802960395813,-3.849807524260538,-1.598609209060669,-0.18862828612327576,-0.9999631643295288,-0.2289130538702011,0.3837142884731293,0.289519727230072,0.3837142884731293,0.289519727230072,7.6742857694625854,0.1737118363380432,0.17787107825279236,0.18513436615467072,0.18150272965431213,-0.06218588352203369,-0.15781466662883759,-0.20311123132705688,-4.329623617698879,4.329623699188232,0.18873652815818787,-0.1886272132396698,-3.8498079511473606,0.5652253031730652,17,0.03865540027618408,0.0,0.1181020438671112,0.0,False,False,False,False,False,False,0.2543078064918518,0.02951931580901146,-0.028810275718569756,3.184042043358204e-06,-0.0006921080057509243,0.3837142884731293,0.289519727230072,0.0,-0.07773235440254211,-0.2886415719985962,-0.5389348864555359,-0.25665387511253357,-0.39060989022254944,0.39060989022254944,0.3585367202758789,1.0,0.3585367202758789,0.31987035274505615,True,0.6801296472549438
normal,81,False,-2.8538548946380615,-0.10385368764400482,-3.9022868558615076,-1.5900896787643433,-0.19005922973155975,-0.9914807081222534,-0.23089230060577393,0.38411080837249756,0.29000556468963623,0.38411080837249756,0.29000556468963623,7.682216167449951,0.17400333881378174,0.1787179559469223,0.18537737429141998,0.18204766511917114,-0.05846337974071503,-0.1565132886171341,-0.20295670628547668,-4.439459035968208,4.439459323883057,0.19064320623874664,-0.1900581419467926,-3.9022864289746844,0.5652253031730652,17,0.039240121841430664,0.0,0.12701213359832764,0.0,False,False,False,False,False,False,0.25421565771102905,0.028533339500427246,-0.028205256909132004,0.00011649471707642078,-0.0037116839084774256,0.38411080837249756,0.29000556468963623,0.0,-0.07307922840118408,-0.29596394300460815,-0.5430232882499695,-0.2601524293422699,-0.3948652744293213,0.3948652744293213,0.3630160689353943,1.0,0.3630160689353943,0.3151291608810425,True,0.6848708391189575
normal,82,False,-2.845612049102783,-0.10416142642498016,-3.954887850207068,-1.5819263458251953,-0.19152715802192688,-0.9833551645278931,-0.23290976881980896,0.38453400135040283,0.29051220417022705,0.38453400135040283,0.29051220417022705,7.690680027008057,0.17430732250213624,0.17958880960941315,0.18569129705429077,0.18264004588127136,-0.05470900237560272,-0.1552707552909851,-0.20290394127368927,-4.553425011138102,4.553424835205078,0.1929120123386383,-0.19152605533599854,-3.954887850207068,0.5652253031730652,17,0.03992199897766113,0.0,0.13562873005867004,0.0,False,False,False,False,False,False,0.2546447217464447,0.024562735110521317,-0.029883084818720818,0.0,0.0004682745784521103,0.38453400135040283,0.29051220417022705,0.0,-0.0683862566947937,-0.30356165766716003,-0.5472173094749451,-0.26365917921066284,-0.39930081367492676,0.39930081367492676,0.36768507957458496,1.0,0.36768507957458496,0.3101869821548462,True,0.6898130178451538
normal,83,False,-2.837186813354492,-0.10454846173524857,-4.009792752737039,-1.5735855102539062,-0.19312509894371033,-0.9750542640686035,-0.235081285238266,0.3847297132015228,0.2907439172267914,0.3847297132015228,0.2907439172267914,7.6945942640304565,0.17444635033607483,0.17910252511501312,0.18647006154060364,0.18278628587722778,-0.051100291311740875,-0.15421146154403687,-0.20305222272872925,-4.669115609073424,4.6691155433654785,0.1956634223461151,-0.19312399625778198,-4.009792752737039,0.5652253031730652,17,0.040587544441223145,0.0,0.14439772069454193,0.0,False,False,False,False,False,False,0.25155630707740784,0.04139888659119606,-0.03315597027540207,2.223188403149834e-06,-0.0005945588927716017,0.3847297132015228,0.2907439172267914,0.0,-0.06387536227703094,-0.31127437949180603,-0.5517828464508057,-0.2673195004463196,-0.4040038585662842,0.4040038585662842,0.3726356327533722,1.0,0.3726356327533722,0.30525219440460205,True,0.694747805595398
normal,84,False,-2.8286519050598145,-0.10476723313331604,-4.060580331857961,-1.5651295185089111,-0.19446390867233276,-0.9666357040405273,-0.23695062100887299,0.3853241801261902,0.2914372682571411,0.3853241801261902,0.2914372682571411,7.706483602523804,0.17486236095428467,0.1799565851688385,0.18566104769706726,0.18280881643295288,-0.04743438586592674,-0.15292969346046448,-0.2028997540473938,-4.777322454112528,4.777322292327881,0.1985091120004654,-0.19446279108524323,-4.060580331857961,0.5652253031730652,17,0.04115283489227295,0.0,0.153207927942276,0.0,False,False,False,False,False,False,0.2597130537033081,0.02737470157444477,-0.029041701927781105,0.0003460421285126358,0.003959145396947861,0.3853241801261902,0.2914372682571411,0.0,-0.059292983263731,-0.31848815083503723,-0.5556079745292664,-0.27070534229278564,-0.40814054012298584,0.40814054012298584,0.37699005007743835,1.0,0.37699005007743835,0.30042219161987305,True,0.699577808380127
normal,85,False,-2.820319652557373,-0.10509561002254486,-4.113084422894672,-1.556879997253418,-0.19595010578632355,-0.9584254026412964,-0.23898524045944214,0.3853898048400879,0.29158058762550354,0.3853898048400879,0.29158058762550354,7.707796096801758,0.1749483525753021,0.18017947673797607,0.18578322231769562,0.18298134207725525,-0.04435117915272713,-0.15208828449249268,-0.20312021672725677,-4.879085442556548,4.879085540771484,0.20177209377288818,-0.195948988199234,-4.113084849781496,0.5652253031730652,17,0.04179227352142334,0.0,0.16190406680107117,0.0,False,False,False,False,False,False,0.25473853945732117,0.027406098321080208,-0.027635278180241585,4.62005573353963e-06,-0.0034367332700639963,0.3853898048400879,0.29158058762550354,0.0,-0.055438973009586334,-0.3252723515033722,-0.55985426902771,-0.27420565485954285,-0.41244447231292725,0.41244447231292725,0.38152050971984863,1.0,0.38152050971984863,0.2959749698638916,True,0.7040250301361084
normal,86,False,-2.812002420425415,-0.10544951260089874,-4.160270784775705,-1.548638105392456,-0.19734448194503784,-0.9502191543579102,-0.24087247252464294,0.38572949171066284,0.2921016216278076,0.38572949171066284,0.2921016216278076,7.714589834213257,0.17526097297668455,0.17963670194149017,0.1848205327987671,0.18222862482070923,-0.04113112762570381,-0.15104474127292633,-0.20310765504837036,-4.977900777486885,4.977900981903076,0.20523525774478912,-0.1973433494567871,-4.160271211662528,0.5652253031730652,17,0.04237937927246094,0.0,0.17054271697998047,0.0,False,False,False,False,False,False,0.2526889145374298,0.031873658299446106,-0.028336627408862114,1.364448849017208e-06,0.0009699828224256635,0.38572949171066284,0.2921016216278076,0.0,-0.05141390860080719,-0.3318600356578827,-0.5638381838798523,-0.27735140919685364,-0.4164051413536072,0.4164051413536072,0.3856896162033081,1.0,0.3856896162033081,0.2914932370185852,True,0.7085067629814148
normal,87,False,-2.803515672683716,-0.10588326305150986,-4.217844156837035,-1.5402443408966064,-0.19904765486717224,-0.9418693780899048,-0.24317693710327148,0.3860396444797516,0.29250380396842957,0.3860396444797516,0.29250380396842957,7.720792889595032,0.17550228238105772,0.18000583350658417,0.1852063089609146,0.1826060712337494,-0.03742300719022751,-0.1499069184064865,-0.20318728685379028,-5.094611208042654,5.094611167907715,0.2093161791563034,-0.1990465223789215,-4.2178437299502125,0.5652253031730652,17,0.04301905632019043,0.0,0.17936784029006958,0.0,False,False,False,False,False,False,0.2556379437446594,0.04590830206871033,-0.005358108319342136,0.00019509017874952406,-0.09061922132968903,0.3860396444797516,0.29250380396842957,0.0,-0.046778760850429535,-0.339640736579895,-0.56870436668396,-0.28118959069252014,-0.421199232339859,0.421199232339859,0.39073604345321655,1.0,0.39073604345321655,0.2862969636917114,True,0.7137030363082886
normal,88,False,-2.79512882232666,-0.10623971372842789,-4.270968514427748,-1.5319443941116333,-0.20057539641857147,-0.9336105585098267,-0.24525946378707886,0.3873150944709778,0.2941434383392334,0.3873150944709778,0.2941434383392334,7.746301889419556,0.17648606300354003,0.17989446222782135,0.18558406829833984,0.1827392578125,-0.033670030534267426,-0.14866884052753448,-0.20314042270183563,-5.20882605823043,5.208826065063477,0.21346572041511536,-0.20057424902915955,-4.270968514427748,0.5652253031730652,17,0.04369914531707764,0.0,0.1881188303232193,0.0,False,False,False,False,False,False,0.2546739876270294,0.02393585816025734,-0.02836841531097889,5.0152375479228795e-06,-0.0003964423085562885,0.3873150944709778,0.2941434383392334,0.0,-0.04208754003047943,-0.34725508093833923,-0.5730692744255066,-0.2847312390804291,-0.42568767070770264,0.42568767070770264,0.39546069502830505,1.0,0.39546069502830505,0.28016889095306396,True,0.719831109046936
normal,89,False,-2.7867255210876465,-0.10657072067260742,-4.32994463658987,-1.5236389636993408,-0.2022065669298172,-0.9253513813018799,-0.2475064992904663,0.3867853879928589,0.29335641860961914,0.3867853879928589,0.29335641860961914,7.735707759857178,0.17601385116577148,0.17906129360198975,0.18629252910614014,0.18267691135406494,-0.029857460409402847,-0.14753280580043793,-0.20327222347259521,-5.330405986777596,5.330406188964844,0.21796128153800964,-0.20220540463924408,-4.329944209703046,0.5652253031730652,17,0.044403076171875,0.0,0.19687815010547638,0.0,False,False,False,False,False,False,0.25294598937034607,0.030388645827770233,-0.027629291638731956,7.467528462257178e-08,-0.00025811197701841593,0.3867853879928589,0.29335641860961914,0.0,-0.037321824580430984,-0.35536038875579834,-0.5777297616004944,-0.28866294026374817,-0.4306110441684723,0.4306110441684723,0.4006431996822357,1.0,0.4006431996822357,0.27603256702423096,True,0.723967432975769
normal,90,False,-2.7783076763153076,-0.10711293667554855,-4.389819355514671,-1.5153217315673828,-0.20406869053840637,-0.9170818328857422,-0.24999380111694336,0.38704538345336914,0.2937958836555481,0.38704538345336914,0.2937958836555481,7.740907669067383,0.17627753019332884,0.17851169407367706,0.18758846819400787,0.18305008113384247,-0.026464231312274933,-0.14678281545639038,-0.20377421379089355,-5.450496080312052,5.450496196746826,0.2211872935295105,-0.20406752824783325,-4.389819355514671,0.7101499438285828,18,0.04510343074798584,0.0,0.2056349813938141,0.0,False,False,False,False,False,False,0.25384122133255005,0.0336320698261261,-0.03871471807360649,0.00031147085246630013,-0.004760922398418188,0.38704538345336914,0.2937958836555481,0.0,-0.03308028727769852,-0.36336639523506165,-0.5830500721931458,-0.2926546335220337,-0.43585386872291565,0.43585386872291565,0.40616196393966675,1.0,0.40616196393966675,0.27035021781921387,True,0.7296497821807861
normal,91,False,-2.769770860671997,-0.10748539865016937,-4.44279302205682,-1.5068750381469727,-0.2056088149547577,-0.9086779356002808,-0.2520870268344879,0.3876156508922577,0.2946135997772217,0.3876156508922577,0.2946135997772217,7.752313017845154,0.176768159866333,0.17878203094005585,0.18803557753562927,0.18340879678726196,-0.0228889100253582,-0.14568769931793213,-0.20385389029979706,-5.563201031806433,5.563200950622559,0.2195102423429489,-0.20560763776302338,-4.442793448943643,0.7101499438285828,18,0.04574298858642578,0.0,0.21447743475437164,0.0,False,False,False,False,False,False,0.2525325119495392,0.03012339025735855,-0.030874142423272133,0.00016818965377751738,-0.008829917758703232,0.3876156508922577,0.2946135997772217,0.0,-0.028611138463020325,-0.3708800673484802,-0.587450385093689,-0.296186238527298,-0.4403820037841797,0.4403820037841797,0.4109284281730652,1.0,0.4109284281730652,0.26500439643859863,True,0.7349956035614014
normal,92,False,-2.7614269256591797,-0.10786125808954239,-4.495100745154893,-1.4986212253570557,-0.2071375846862793,-0.900466799736023,-0.25416189432144165,0.387844443321228,0.29498666524887085,0.387844443321228,0.29498666524887085,7.7568888664245605,0.1769919991493225,0.17971211671829224,0.1883552372455597,0.18403367698192596,-0.01898016780614853,-0.1444111466407776,-0.20382413268089294,-5.682836490874261,5.682836532592773,0.21820825338363647,-0.2071363925933838,-4.495100745154893,0.7101499438285828,18,0.046440720558166504,0.0,0.2231503278017044,0.0,False,False,False,False,False,False,0.2539561092853546,0.03209887072443962,-0.030091606080532074,0.00011424747935961932,-0.00166625389829278,0.387844443321228,0.29498666524887085,0.0,-0.02372520975768566,-0.37885576486587524,-0.5918182730674744,-0.2996733784675598,-0.4449983835220337,0.4449983835220337,0.41578778624534607,1.0,0.41578778624534607,0.26001495122909546,True,0.7399850487709045
normal,93,False,-2.753204107284546,-0.10822851955890656,-4.549070338655396,-1.490492343902588,-0.20869430899620056,-0.8923825025558472,-0.2562820315361023,0.38808390498161316,0.29529285430908203,0.38808390498161316,0.29529285430908203,7.761678099632263,0.1771757125854492,0.17918843030929565,0.18965020775794983,0.18441931903362274,-0.015121184289455414,-0.14321132004261017,-0.20388391613960266,-5.803724008994316,5.80372428894043,0.2172846794128418,-0.20869311690330505,-4.5490707655422185,0.7101499438285828,18,0.04717743396759033,0.0,0.23172995448112488,0.0,False,False,False,False,False,False,0.2544822096824646,0.023583918809890747,-0.02576255425810814,4.4397756937542e-06,-0.0005893935449421406,0.38808390498161316,0.29529285430908203,0.0,-0.018901480361819267,-0.3869149386882782,-0.5962660908699036,-0.3032713830471039,-0.44973915815353394,0.44973915815353394,0.4207780659198761,1.0,0.4207780659198761,0.25496798753738403,True,0.745032012462616
normal,94,False,-2.7447845935821533,-0.10864618420600891,-4.603071094893986,-1.482168197631836,-0.21030202507972717,-0.8841034173965454,-0.2584534287452698,0.388180673122406,0.2954660952091217,0.388180673122406,0.2954660952091217,7.76361346244812,0.17727965712547303,0.17932771146297455,0.1901189684867859,0.18472334742546082,-0.011473998427391052,-0.14209800958633423,-0.2039707899093628,-5.91893820123503,5.918938159942627,0.21667592227458954,-0.21030081808567047,-4.603071094893986,0.7101499438285828,18,0.047852158546447754,0.0,0.24047845602035522,0.0,False,False,False,False,False,False,0.25523287057876587,0.027108903974294662,-0.029032407328486443,8.833438869260135e-08,-0.00020951709302607924,0.388180673122406,0.2954660952091217,0.0,-0.014342498034238815,-0.3945958912372589,-0.600859522819519,-0.3068714141845703,-0.4543880224227905,0.4543880224227905,0.42567160725593567,1.0,0.42567160725593567,0.25014591217041016,True,0.7498540878295898
normal,95,False,-2.7363038063049316,-0.10906723141670227,-4.657219980860201,-1.47378408908844,-0.2119162678718567,-0.8757650852203369,-0.26063287258148193,0.3885959982872009,0.2959277629852295,0.3885959982872009,0.2959277629852295,7.7719199657440186,0.1775566577911377,0.1799052506685257,0.19082051515579224,0.18536287546157837,-0.00788850337266922,-0.14093126356601715,-0.20394974946975708,-6.028941812912671,6.028942108154297,0.21639211475849152,-0.2119150608778,-4.657219980860201,0.7101499438285828,18,0.04847872257232666,0.0,0.24928678572177887,0.0,False,False,False,False,False,False,0.25484541058540344,0.028307214379310608,-0.028502680361270905,4.206114226690261e-06,-0.002615118632093072,0.3885959982872009,0.2959277629852295,0.0,-0.009860629215836525,-0.40192943811416626,-0.6054716110229492,-0.31048133969306946,-0.4588567316532135,0.4588567316532135,0.43037551641464233,1.0,0.43037551641464233,0.2452155351638794,True,0.7547844648361206
normal,96,False,-2.7278740406036377,-0.10946821421384811,-4.709991729935012,-1.465449571609497,-0.21348005533218384,-0.8674756288528442,-0.2627474367618561,0.38888752460479736,0.2964405119419098,0.38888752460479736,0.2964405119419098,7.777750492095947,0.17786430716514587,0.18059471249580383,0.19165822863578796,0.1861264705657959,-0.004159115254878998,-0.13967300951480865,-0.2038619965314865,-6.141350078064979,6.141350269317627,0.21640333533287048,-0.21347883343696594,-4.709992156821834,0.7101499438285828,18,0.04910886287689209,0.0,0.2580268383026123,0.0,False,False,False,False,False,False,0.2560581862926483,0.028501544147729874,-0.031028607860207558,7.439729233738035e-05,-0.06473742425441742,0.38888752460479736,0.2964405119419098,0.0,-0.005198894068598747,-0.4094233214855194,-0.6099395155906677,-0.3139994740486145,-0.4632943272590637,0.4632943272590637,0.4350466728210449,1.0,0.4350466728210449,0.2402651309967041,True,0.7597348690032959
normal,97,False,-2.71927547454834,-0.10993530601263046,-4.767044300072128,-1.4569551944732666,-0.2152041494846344,-0.8590306043624878,-0.2650669515132904,0.3900868594646454,0.2978822588920593,0.3900868594646454,0.2978822588920593,7.801737189292908,0.1787293553352356,0.18120813369750977,0.1924688071012497,0.18683847784996033,-0.00041819363832473755,-0.13854414224624634,-0.20397041738033295,-6.260194942736377,6.260194778442383,0.21688570082187653,-0.2152029126882553,-4.767044300072128,0.7101499438285828,18,0.04979848861694336,0.0,0.2669612765312195,0.0,False,False,False,False,False,False,0.2579560875892639,0.028606131672859192,-0.02925265207886696,9.480589142185636e-06,-0.0028579358477145433,0.3900868594646454,0.2978822588920593,0.0,-0.0005227420479059219,-0.417346328496933,-0.6148654818534851,-0.31780293583869934,-0.4681607484817505,0.4681607484817505,0.44016921520233154,1.0,0.44016921520233154,0.23395699262619019,True,0.7660430073738098
normal,98,False,-2.710843086242676,-0.11039325594902039,-4.82289304936803,-1.4486260414123535,-0.21689249575138092,-0.8507503271102905,-0.2673380970954895,0.3896522521972656,0.2974472641944885,0.3896522521972656,0.2974472641944885,7.7930450439453125,0.1784683585166931,0.18198151886463165,0.19296668469905853,0.1874741017818451,0.003628544509410858,-0.1372130811214447,-0.2039256989955902,-6.3837833737863505,6.383783340454102,0.21769079566001892,-0.21689125895500183,-4.82289304936803,0.7101499438285828,18,0.0505220890045166,0.0,0.2757425010204315,0.0,False,False,False,False,False,False,0.2576485276222229,0.028952568769454956,-0.03030281700193882,1.1726564252967364e-06,-0.0005542208673432469,0.3896522521972656,0.2974472641944885,0.0,0.004535680636763573,-0.4255855679512024,-0.6196893453598022,-0.3215261995792389,-0.47301527857780457,0.47301527857780457,0.44527924060821533,1.0,0.44527924060821533,0.2295374870300293,True,0.7704625129699707
normal,99,False,-2.702252149581909,-0.11085867881774902,-4.880771645507894,-1.4401432275772095,-0.21863290667533875,-0.8423188924789429,-0.2696824371814728,0.3898329734802246,0.297748327255249,0.3898329734802246,0.297748327255249,7.796659469604492,0.1786489963531494,0.18272727727890015,0.19299188256263733,0.18785957992076874,0.007953889667987823,-0.13577786087989807,-0.20385941863059998,-6.515342635597728,6.515342712402344,0.21886807680130005,-0.21863165497779846,-4.880771645507894,0.7101499438285828,18,0.05125904083251953,0.0,0.28465914726257324,0.0,False,False,False,False,False,False,0.25746896862983704,0.03381282091140747,-0.03243220970034599,6.472928362200037e-05,-0.004057599231600761,0.3898329734802246,0.297748327255249,0.0,0.00994236208498478,-0.4343561828136444,-0.6246618628501892,-0.3253847658634186,-0.47811388969421387,0.47811388969421387,0.45064619183540344,1.0,0.45064619183540344,0.2241377830505371,True,0.7758622169494629
normal,100,False,-2.693861246109009,-0.11130647361278534,-4.936840241517706,-1.4318585395812988,-0.22031572461128235,-0.8340843915939331,-0.27195024490356445,0.39025598764419556,0.2982872426509857,0.39025598764419556,0.2982872426509857,7.805119752883911,0.17897234559059141,0.18357771635055542,0.19280023872852325,0.18818897008895874,0.012299291789531708,-0.1343511939048767,-0.2038152813911438,-6.6482406144864274,6.648240566253662,0.2203235626220703,-0.22031445801258087,-4.936840241517706,0.7101499438285828,18,0.05204451084136963,0.0,0.29339390993118286,0.0,False,False,False,False,False,False,0.25653818249702454,0.031617891043424606,-0.03097575157880783,4.920951141684782e-06,-0.0005198595463298261,0.39025598764419556,0.2982872426509857,0.0,0.015374114736914635,-0.4432160258293152,-0.6294698715209961,-0.3291226923465729,-0.48319438099861145,0.48319438099861145,0.4559940993785858,1.0,0.4559940993785858,0.21851837635040283,True,0.7814816236495972
normal,101,False,-2.6854119300842285,-0.1118958368897438,-4.995028330604337,-1.4235204458236694,-0.22218669950962067,-0.8257991075515747,-0.27442827820777893,0.3904961943626404,0.29863256216049194,0.3904961943626404,0.29863256216049194,7.809923887252808,0.17917953729629515,0.1838710755109787,0.19263513386249542,0.18825310468673706,0.016250625252723694,-0.13324028253555298,-0.20404978096485138,-6.777604397366469,6.777604579925537,0.22228115797042847,-0.2221854329109192,-4.995028757491161,0.7101499438285828,18,0.05282557010650635,0.0,0.30219265818595886,0.0,False,False,False,False,False,False,0.2568940818309784,0.027667436748743057,-0.0290721096098423,3.7258115526128677e-07,-0.0002684024511836469,0.3904961943626404,0.29863256216049194,0.0,0.020313281565904617,-0.45184028148651123,-0.634815514087677,-0.33300191164016724,-0.48848938941955566,0.48848938941955566,0.46156778931617737,1.0,0.46156778931617737,0.2128780484199524,True,0.7871219515800476
normal,102,False,-2.6768832206726074,-0.11236638575792313,-5.051003438399884,-1.41510009765625,-0.22388999164104462,-0.8174301385879517,-0.276715487241745,0.3907266855239868,0.2989334464073181,0.3907266855239868,0.2989334464073181,7.814533710479736,0.17936006784439087,0.18481536209583282,0.1928858906030655,0.18885062634944916,0.020256735384464264,-0.13189558684825897,-0.20396573841571808,-6.898850073531127,6.898849964141846,0.22438524663448334,-0.22388871014118195,-5.051003438399884,0.7101499438285828,18,0.053504109382629395,0.0,0.3110337257385254,0.0,False,False,False,False,False,False,0.2554562985897064,0.030396757647395134,-0.02861148491501808,2.423486421321286e-06,-0.0006149980472400784,0.3907266855239868,0.2989334464073181,0.0,0.02532091923058033,-0.45992332696914673,-0.6396820545196533,-0.33673354983329773,-0.49327653646469116,0.49327653646469116,0.46660688519477844,1.0,0.46660688519477844,0.20779001712799072,True,0.7922099828720093
normal,103,False,-2.6683144569396973,-0.11286948621273041,-5.110125128968692,-1.4066472053527832,-0.22569502890110016,-0.8090319633483887,-0.2791372239589691,0.39121198654174805,0.2994823455810547,0.39121198654174805,0.2994823455810547,7.824239730834961,0.1796894073486328,0.18576891720294952,0.1930122673511505,0.18939059972763062,0.02420869469642639,-0.13066229224205017,-0.2040202021598816,-7.022733910262703,7.02273416519165,0.22689998149871826,-0.2256937325000763,-5.110125128968692,0.7101499438285828,18,0.05420994758605957,0.0,0.31992775201797485,0.0,False,False,False,False,False,False,0.2574635446071625,0.028788773342967033,-0.030683204531669617,3.655257023638114e-05,-0.0024218792095780373,0.39121198654174805,0.2994823455810547,0.0,0.03026086837053299,-0.4681822657585144,-0.6448392271995544,-0.3406749963760376,-0.4983161687850952,0.4983161687850952,0.471911758184433,1.0,0.471911758184433,0.2022014856338501,True,0.7977985143661499
normal,104,False,-2.6600136756896973,-0.11336082220077515,-5.1638663380188214,-1.3984527587890625,-0.22736972570419312,-0.800887942314148,-0.28137242794036865,0.39160799980163574,0.3000635504722595,0.39160799980163574,0.3000635504722595,7.832159996032715,0.18003813028335572,0.18521574139595032,0.19199340045452118,0.18860456347465515,0.027872227132320404,-0.1294783353805542,-0.2040107250213623,-7.135750916024788,7.135750770568848,0.2295478731393814,-0.22736842930316925,-5.1638663380188214,0.7101499438285828,18,0.05491006374359131,0.0,0.3285853862762451,0.0,False,False,False,False,False,False,0.25110310316085815,0.03654365986585617,-0.026746554300189018,0.0,0.0002536055399104953,0.39160799980163574,0.3000635504722595,0.0,0.034840285778045654,-0.4757167100906372,-0.6496241092681885,-0.34425774216651917,-0.502893328666687,0.502893328666687,0.4767298102378845,1.0,0.4767298102378845,0.19704312086105347,True,0.8029568791389465
